( This gcode generated by C:/Program Files (x86)/EAGLE-6.4.0/ulp/pcb-gcode.ulp )
( Copyright 2005 by John Johnson. See readme.txt for licensing terms. )

G21

G90
G00 Z12.7000 
G00 X0 Y0
M03
G04 P3.000000
G00 Z0.5080 
G00 X-96.6455 Y-0.4179 
G01 Z-0.2540 F150.00 
G01 X-96.6455 Y-2.1221 
G01 X-96.6736 Y-2.3000 
G01 X-96.7293 Y-2.4714 
G01 X-96.8111 Y-2.6319 
G01 X-96.9170 Y-2.7776 
G01 X-97.0444 Y-2.9050 
G01 X-97.1901 Y-3.0109 
G01 X-97.3506 Y-3.0927 
G01 X-97.5220 Y-3.1484 
G01 X-97.6999 Y-3.1765 
G01 X-97.8801 Y-3.1765 
G01 X-98.0580 Y-3.1484 
G01 X-98.2294 Y-3.0927 
G01 X-98.3899 Y-3.0109 
G01 X-98.5356 Y-2.9050 
G01 X-98.6630 Y-2.7776 
G01 X-98.7689 Y-2.6319 
G01 X-98.8507 Y-2.4714 
G01 X-98.9064 Y-2.3000 
G01 X-98.9345 Y-2.1221 
G01 X-98.9345 Y-0.4179 
G01 X-98.9064 Y-0.2400 
G01 X-98.8507 Y-0.0686 
G01 X-98.7689 Y0.0919 
G01 X-98.6630 Y0.2376 
G01 X-98.5356 Y0.3650 
G01 X-98.3899 Y0.4709 
G01 X-98.3757 Y0.4781 
G01 X-98.3757 Y5.0657 
G01 X-99.0600 Y5.7499 
G01 X-99.7443 Y5.0657 
G01 X-99.7443 Y0.4781 
G01 X-99.7301 Y0.4709 
G01 X-99.5844 Y0.3650 
G01 X-99.4570 Y0.2376 
G01 X-99.3511 Y0.0919 
G01 X-99.2693 Y-0.0686 
G01 X-99.2136 Y-0.2400 
G01 X-99.1855 Y-0.4179 
G01 X-99.1855 Y-2.1221 
G01 X-99.2136 Y-2.3000 
G01 X-99.2693 Y-2.4714 
G01 X-99.3511 Y-2.6319 
G01 X-99.4570 Y-2.7776 
G01 X-99.5844 Y-2.9050 
G01 X-99.7301 Y-3.0109 
G01 X-99.8906 Y-3.0927 
G01 X-100.0620 Y-3.1484 
G01 X-100.2399 Y-3.1765 
G01 X-100.4201 Y-3.1765 
G01 X-100.5980 Y-3.1484 
G01 X-100.7694 Y-3.0927 
G01 X-100.9299 Y-3.0109 
G01 X-101.0756 Y-2.9050 
G01 X-101.2030 Y-2.7776 
G01 X-101.3089 Y-2.6319 
G01 X-101.3907 Y-2.4714 
G01 X-101.4464 Y-2.3000 
G01 X-101.4745 Y-2.1221 
G01 X-101.4745 Y-0.4179 
G01 X-101.4464 Y-0.2400 
G01 X-101.3907 Y-0.0686 
G01 X-101.3089 Y0.0919 
G01 X-101.2030 Y0.2376 
G01 X-101.0756 Y0.3650 
G01 X-100.9299 Y0.4709 
G01 X-100.9157 Y0.4781 
G01 X-100.9157 Y5.0657 
G01 X-101.6000 Y5.7499 
G01 X-102.2843 Y5.0657 
G01 X-102.2843 Y0.4781 
G01 X-102.2701 Y0.4709 
G01 X-102.1244 Y0.3650 
G01 X-101.9970 Y0.2376 
G01 X-101.8911 Y0.0919 
G01 X-101.8093 Y-0.0686 
G01 X-101.7536 Y-0.2400 
G01 X-101.7255 Y-0.4179 
G01 X-101.7255 Y-2.1221 
G01 X-101.7536 Y-2.3000 
G01 X-101.8093 Y-2.4714 
G01 X-101.8911 Y-2.6319 
G01 X-101.9970 Y-2.7776 
G01 X-102.1244 Y-2.9050 
G01 X-102.2701 Y-3.0109 
G01 X-102.4306 Y-3.0927 
G01 X-102.6020 Y-3.1484 
G01 X-102.7799 Y-3.1765 
G01 X-102.9601 Y-3.1765 
G01 X-103.1380 Y-3.1484 
G01 X-103.3094 Y-3.0927 
G01 X-103.4699 Y-3.0109 
G01 X-103.6156 Y-2.9050 
G01 X-103.7430 Y-2.7776 
G01 X-103.8489 Y-2.6319 
G01 X-103.9307 Y-2.4714 
G01 X-103.9864 Y-2.3000 
G01 X-104.0145 Y-2.1221 
G01 X-104.0145 Y-0.4179 
G01 X-103.9864 Y-0.2400 
G01 X-103.9307 Y-0.0686 
G01 X-103.8489 Y0.0919 
G01 X-103.7430 Y0.2376 
G01 X-103.6156 Y0.3650 
G01 X-103.4699 Y0.4709 
G01 X-103.4557 Y0.4781 
G01 X-103.4557 Y5.0657 
G01 X-104.1400 Y5.7499 
G01 X-104.8243 Y5.0657 
G01 X-104.8243 Y0.4781 
G01 X-104.8101 Y0.4709 
G01 X-104.6644 Y0.3650 
G01 X-104.5370 Y0.2376 
G01 X-104.4311 Y0.0919 
G01 X-104.3493 Y-0.0686 
G01 X-104.2936 Y-0.2400 
G01 X-104.2655 Y-0.4179 
G01 X-104.2655 Y-2.1221 
G01 X-104.2936 Y-2.3000 
G01 X-104.3493 Y-2.4714 
G01 X-104.4311 Y-2.6319 
G01 X-104.5370 Y-2.7776 
G01 X-104.6644 Y-2.9050 
G01 X-104.8101 Y-3.0109 
G01 X-104.9706 Y-3.0927 
G01 X-105.1420 Y-3.1484 
G01 X-105.3199 Y-3.1765 
G01 X-105.5001 Y-3.1765 
G01 X-105.6780 Y-3.1484 
G01 X-105.8494 Y-3.0927 
G01 X-106.0099 Y-3.0109 
G01 X-106.1556 Y-2.9050 
G01 X-106.2830 Y-2.7776 
G01 X-106.3889 Y-2.6319 
G01 X-106.4707 Y-2.4714 
G01 X-106.5264 Y-2.3000 
G01 X-106.5545 Y-2.1221 
G01 X-106.5545 Y-0.4179 
G01 X-106.5264 Y-0.2400 
G01 X-106.4707 Y-0.0686 
G01 X-106.3889 Y0.0919 
G01 X-106.2830 Y0.2376 
G01 X-106.1556 Y0.3650 
G01 X-106.0099 Y0.4709 
G01 X-105.9957 Y0.4781 
G01 X-105.9957 Y5.0657 
G01 X-106.6800 Y5.7499 
G01 X-107.3643 Y5.0657 
G01 X-107.3643 Y0.4781 
G01 X-107.3501 Y0.4709 
G01 X-107.2044 Y0.3650 
G01 X-107.0770 Y0.2376 
G01 X-106.9711 Y0.0919 
G01 X-106.8893 Y-0.0686 
G01 X-106.8336 Y-0.2400 
G01 X-106.8055 Y-0.4179 
G01 X-106.8055 Y-2.1221 
G01 X-106.8336 Y-2.3000 
G01 X-106.8893 Y-2.4714 
G01 X-106.9711 Y-2.6319 
G01 X-107.0770 Y-2.7776 
G01 X-107.2044 Y-2.9050 
G01 X-107.3501 Y-3.0109 
G01 X-107.5106 Y-3.0927 
G01 X-107.6820 Y-3.1484 
G01 X-107.8599 Y-3.1765 
G01 X-108.0401 Y-3.1765 
G01 X-108.2180 Y-3.1484 
G01 X-108.3894 Y-3.0927 
G01 X-108.5499 Y-3.0109 
G01 X-108.6956 Y-2.9050 
G01 X-108.8230 Y-2.7776 
G01 X-108.9289 Y-2.6319 
G01 X-109.0107 Y-2.4714 
G01 X-109.0664 Y-2.3000 
G01 X-109.0945 Y-2.1221 
G01 X-109.0945 Y-0.4179 
G01 X-109.0664 Y-0.2400 
G01 X-109.0107 Y-0.0686 
G01 X-108.9289 Y0.0919 
G01 X-108.8230 Y0.2376 
G01 X-108.6956 Y0.3650 
G01 X-108.5499 Y0.4709 
G01 X-108.5357 Y0.4781 
G01 X-108.5357 Y5.0657 
G01 X-109.2723 Y5.8023 
G01 X-109.2723 Y5.8271 
G01 X-109.3590 Y5.6569 
G01 X-109.4814 Y5.4886 
G01 X-109.6286 Y5.3414 
G01 X-109.7969 Y5.2190 
G01 X-109.9043 Y5.1644 
G01 X-109.9043 Y-3.2243 
G01 X-93.2957 Y-3.2243 
G01 X-93.2957 Y-3.0181 
G01 X-93.3099 Y-3.0109 
G01 X-93.4556 Y-2.9050 
G01 X-93.5830 Y-2.7776 
G01 X-93.6889 Y-2.6319 
G01 X-93.7707 Y-2.4714 
G01 X-93.8264 Y-2.3000 
G01 X-93.8545 Y-2.1221 
G01 X-93.8545 Y-0.4179 
G01 X-93.8264 Y-0.2400 
G01 X-93.7707 Y-0.0686 
G01 X-93.6889 Y0.0919 
G01 X-93.5830 Y0.2376 
G01 X-93.4556 Y0.3650 
G01 X-93.3099 Y0.4709 
G01 X-93.2957 Y0.4781 
G01 X-93.2957 Y2.5977 
G01 X-93.2732 Y2.7109 
G01 X-93.2291 Y2.8175 
G01 X-93.1650 Y2.9134 
G01 X-93.0834 Y2.9950 
G01 X-92.9875 Y3.0591 
G01 X-92.8809 Y3.1032 
G01 X-92.7677 Y3.1257 
G01 X-87.5723 Y3.1257 
G01 X-87.4591 Y3.1032 
G01 X-87.3525 Y3.0591 
G01 X-87.2566 Y2.9950 
G01 X-87.1750 Y2.9134 
G01 X-87.1109 Y2.8175 
G01 X-87.0668 Y2.7109 
G01 X-87.0443 Y2.5977 
G01 X-87.0443 Y-3.2243 
G01 X-62.8157 Y-3.2243 
G01 X-62.8157 Y-3.0181 
G01 X-62.8299 Y-3.0109 
G01 X-62.9756 Y-2.9050 
G01 X-63.1030 Y-2.7776 
G01 X-63.2089 Y-2.6319 
G01 X-63.2907 Y-2.4714 
G01 X-63.3464 Y-2.3000 
G01 X-63.3745 Y-2.1221 
G01 X-63.3745 Y-0.4179 
G01 X-63.3464 Y-0.2400 
G01 X-63.2907 Y-0.0686 
G01 X-63.2089 Y0.0919 
G01 X-63.1030 Y0.2376 
G01 X-62.9756 Y0.3650 
G01 X-62.8299 Y0.4709 
G01 X-62.6694 Y0.5527 
G01 X-62.4980 Y0.6084 
G01 X-62.3201 Y0.6365 
G01 X-62.1399 Y0.6365 
G01 X-61.9620 Y0.6084 
G01 X-61.7906 Y0.5527 
G01 X-61.7011 Y0.5070 
G01 X-53.9257 Y11.6146 
G01 X-53.9257 Y36.2443 
G01 X-54.1319 Y36.2443 
G01 X-54.1391 Y36.2301 
G01 X-54.2450 Y36.0844 
G01 X-54.3724 Y35.9570 
G01 X-54.5181 Y35.8511 
G01 X-54.6786 Y35.7693 
G01 X-54.8500 Y35.7136 
G01 X-55.0279 Y35.6855 
G01 X-56.7321 Y35.6855 
G01 X-56.9100 Y35.7136 
G01 X-57.0814 Y35.7693 
G01 X-57.2419 Y35.8511 
G01 X-57.3876 Y35.9570 
G01 X-57.5150 Y36.0844 
G01 X-57.6209 Y36.2301 
G01 X-57.6281 Y36.2443 
G01 X-57.8343 Y36.2443 
G01 X-57.8343 Y31.6923 
G01 X-57.8568 Y31.5791 
G01 X-57.9009 Y31.4725 
G01 X-57.9650 Y31.3766 
G01 X-58.0466 Y31.2950 
G01 X-58.1425 Y31.2309 
G01 X-58.2491 Y31.1868 
G01 X-58.3623 Y31.1643 
G01 X-64.8277 Y31.1643 
G01 X-64.9409 Y31.1868 
G01 X-65.0474 Y31.2309 
G01 X-65.1434 Y31.2950 
G01 X-65.2250 Y31.3766 
G01 X-65.2891 Y31.4725 
G01 X-65.3332 Y31.5791 
G01 X-65.3557 Y31.6923 
G01 X-65.3557 Y32.4343 
G01 X-80.6943 Y32.4343 
G01 X-80.6943 Y30.7340 
G01 X-80.6006 Y30.6659 
G01 X-80.4845 Y30.5498 
G01 X-80.3880 Y30.4170 
G01 X-80.3135 Y30.2708 
G01 X-80.2627 Y30.1146 
G01 X-80.2371 Y29.9525 
G01 X-80.2371 Y28.4675 
G01 X-80.2627 Y28.3054 
G01 X-80.3135 Y28.1492 
G01 X-80.3880 Y28.0030 
G01 X-80.4845 Y27.8702 
G01 X-80.6006 Y27.7541 
G01 X-80.7334 Y27.6576 
G01 X-80.8796 Y27.5831 
G01 X-81.0358 Y27.5323 
G01 X-81.1979 Y27.5067 
G01 X-81.3621 Y27.5067 
G01 X-81.5242 Y27.5323 
G01 X-81.6804 Y27.5831 
G01 X-81.8266 Y27.6576 
G01 X-81.9594 Y27.7541 
G01 X-82.0755 Y27.8702 
G01 X-82.1720 Y28.0030 
G01 X-82.2465 Y28.1492 
G01 X-82.2973 Y28.3054 
G01 X-82.3229 Y28.4675 
G01 X-82.3229 Y29.8787 
G01 X-82.7771 Y29.4246 
G01 X-82.7771 Y28.4675 
G01 X-82.8027 Y28.3054 
G01 X-82.8535 Y28.1492 
G01 X-82.9280 Y28.0030 
G01 X-83.0245 Y27.8702 
G01 X-83.1406 Y27.7541 
G01 X-83.2343 Y27.6860 
G01 X-83.2343 Y23.1140 
G01 X-83.1406 Y23.0459 
G01 X-83.0245 Y22.9298 
G01 X-82.9280 Y22.7970 
G01 X-82.8535 Y22.6508 
G01 X-82.8027 Y22.4946 
G01 X-82.7771 Y22.3325 
G01 X-82.7771 Y22.1757 
G01 X-82.3229 Y22.1757 
G01 X-82.3229 Y22.3325 
G01 X-82.2973 Y22.4946 
G01 X-82.2465 Y22.6508 
G01 X-82.1720 Y22.7970 
G01 X-82.0755 Y22.9298 
G01 X-81.9594 Y23.0459 
G01 X-81.8266 Y23.1424 
G01 X-81.6804 Y23.2169 
G01 X-81.5242 Y23.2677 
G01 X-81.3621 Y23.2933 
G01 X-81.1979 Y23.2933 
G01 X-81.0358 Y23.2677 
G01 X-80.8796 Y23.2169 
G01 X-80.7334 Y23.1424 
G01 X-80.6006 Y23.0459 
G01 X-80.4845 Y22.9298 
G01 X-80.3880 Y22.7970 
G01 X-80.3135 Y22.6508 
G01 X-80.2627 Y22.4946 
G01 X-80.2371 Y22.3325 
G01 X-80.2371 Y22.1757 
G01 X-67.8957 Y22.1757 
G01 X-67.8957 Y29.2085 
G01 X-68.2494 Y29.2085 
G01 X-68.3467 Y29.2345 
G01 X-68.4339 Y29.2849 
G01 X-68.5051 Y29.3561 
G01 X-68.5555 Y29.4433 
G01 X-68.5815 Y29.5406 
G01 X-68.5815 Y31.4194 
G01 X-68.5555 Y31.5167 
G01 X-68.5051 Y31.6039 
G01 X-68.4339 Y31.6751 
G01 X-68.3467 Y31.7255 
G01 X-68.2494 Y31.7515 
G01 X-66.3706 Y31.7515 
G01 X-66.2733 Y31.7255 
G01 X-66.1861 Y31.6751 
G01 X-66.1149 Y31.6039 
G01 X-66.0645 Y31.5167 
G01 X-66.0385 Y31.4194 
G01 X-66.0385 Y29.5406 
G01 X-66.0645 Y29.4433 
G01 X-66.1149 Y29.3561 
G01 X-66.1861 Y29.2849 
G01 X-66.2733 Y29.2345 
G01 X-66.3706 Y29.2085 
G01 X-66.7243 Y29.2085 
G01 X-66.7243 Y21.5323 
G01 X-66.7468 Y21.4191 
G01 X-66.7909 Y21.3125 
G01 X-66.8550 Y21.2166 
G01 X-66.9366 Y21.1350 
G01 X-67.0325 Y21.0709 
G01 X-67.1391 Y21.0268 
G01 X-67.2523 Y21.0043 
G01 X-80.2371 Y21.0043 
G01 X-80.2371 Y20.8475 
G01 X-80.2627 Y20.6854 
G01 X-80.3135 Y20.5292 
G01 X-80.3880 Y20.3830 
G01 X-80.4845 Y20.2502 
G01 X-80.6006 Y20.1341 
G01 X-80.7334 Y20.0376 
G01 X-80.8796 Y19.9631 
G01 X-81.0358 Y19.9123 
G01 X-81.1979 Y19.8867 
G01 X-81.3621 Y19.8867 
G01 X-81.5242 Y19.9123 
G01 X-81.6804 Y19.9631 
G01 X-81.8266 Y20.0376 
G01 X-81.9594 Y20.1341 
G01 X-82.0755 Y20.2502 
G01 X-82.1720 Y20.3830 
G01 X-82.2465 Y20.5292 
G01 X-82.2973 Y20.6854 
G01 X-82.3229 Y20.8475 
G01 X-82.3229 Y21.0043 
G01 X-82.7771 Y21.0043 
G01 X-82.7771 Y20.8475 
G01 X-82.8027 Y20.6854 
G01 X-82.8535 Y20.5292 
G01 X-82.9280 Y20.3830 
G01 X-83.0245 Y20.2502 
G01 X-83.1406 Y20.1341 
G01 X-83.2734 Y20.0376 
G01 X-83.4196 Y19.9631 
G01 X-83.5758 Y19.9123 
G01 X-83.7379 Y19.8867 
G01 X-83.9021 Y19.8867 
G01 X-84.0642 Y19.9123 
G01 X-84.2204 Y19.9631 
G01 X-84.3666 Y20.0376 
G01 X-84.4994 Y20.1341 
G01 X-84.6155 Y20.2502 
G01 X-84.7120 Y20.3830 
G01 X-84.7865 Y20.5292 
G01 X-84.8373 Y20.6854 
G01 X-84.8629 Y20.8475 
G01 X-84.8629 Y21.0043 
G01 X-85.3171 Y21.0043 
G01 X-85.3171 Y20.8475 
G01 X-85.3427 Y20.6854 
G01 X-85.3935 Y20.5292 
G01 X-85.4680 Y20.3830 
G01 X-85.5645 Y20.2502 
G01 X-85.6806 Y20.1341 
G01 X-85.8134 Y20.0376 
G01 X-85.9596 Y19.9631 
G01 X-86.1158 Y19.9123 
G01 X-86.2779 Y19.8867 
G01 X-86.4421 Y19.8867 
G01 X-86.6042 Y19.9123 
G01 X-86.7604 Y19.9631 
G01 X-86.9066 Y20.0376 
G01 X-87.0394 Y20.1341 
G01 X-87.1555 Y20.2502 
G01 X-87.2520 Y20.3830 
G01 X-87.3265 Y20.5292 
G01 X-87.3773 Y20.6854 
G01 X-87.4029 Y20.8475 
G01 X-87.4029 Y21.0043 
G01 X-87.8571 Y21.0043 
G01 X-87.8571 Y20.8475 
G01 X-87.8827 Y20.6854 
G01 X-87.9335 Y20.5292 
G01 X-88.0080 Y20.3830 
G01 X-88.1045 Y20.2502 
G01 X-88.2206 Y20.1341 
G01 X-88.3534 Y20.0376 
G01 X-88.4996 Y19.9631 
G01 X-88.6558 Y19.9123 
G01 X-88.8179 Y19.8867 
G01 X-88.9821 Y19.8867 
G01 X-89.1442 Y19.9123 
G01 X-89.3004 Y19.9631 
G01 X-89.4466 Y20.0376 
G01 X-89.5794 Y20.1341 
G01 X-89.5843 Y20.1389 
G01 X-89.5843 Y16.4523 
G01 X-89.6068 Y16.3391 
G01 X-89.6509 Y16.2325 
G01 X-89.7150 Y16.1366 
G01 X-89.7966 Y16.0550 
G01 X-89.8925 Y15.9909 
G01 X-89.9991 Y15.9468 
G01 X-90.1123 Y15.9243 
G01 X-109.3044 Y15.9243 
G01 X-109.3590 Y15.8169 
G01 X-109.4814 Y15.6486 
G01 X-109.6286 Y15.5014 
G01 X-109.7969 Y15.3790 
G01 X-109.9043 Y15.3244 
G01 X-109.9043 Y13.9123 
G01 X-109.9268 Y13.7991 
G01 X-109.9709 Y13.6925 
G01 X-110.0350 Y13.5966 
G01 X-110.1166 Y13.5150 
G01 X-110.2125 Y13.4509 
G01 X-110.3191 Y13.4068 
G01 X-110.4323 Y13.3843 
G01 X-115.6955 Y13.3843 
G01 X-115.6955 Y13.1179 
G01 X-115.7236 Y12.9400 
G01 X-115.7793 Y12.7686 
G01 X-115.8611 Y12.6081 
G01 X-115.9670 Y12.4624 
G01 X-116.0944 Y12.3350 
G01 X-116.2401 Y12.2291 
G01 X-116.4006 Y12.1473 
G01 X-116.5720 Y12.0916 
G01 X-116.7499 Y12.0635 
G01 X-116.9301 Y12.0635 
G01 X-117.1080 Y12.0916 
G01 X-117.2794 Y12.1473 
G01 X-117.4399 Y12.2291 
G01 X-117.5856 Y12.3350 
G01 X-117.7130 Y12.4624 
G01 X-117.8189 Y12.6081 
G01 X-117.9007 Y12.7686 
G01 X-117.9564 Y12.9400 
G01 X-117.9845 Y13.1179 
G01 X-117.9845 Y14.8221 
G01 X-117.9564 Y15.0000 
G01 X-117.9007 Y15.1714 
G01 X-117.8189 Y15.3319 
G01 X-117.7130 Y15.4776 
G01 X-117.5856 Y15.6050 
G01 X-117.4399 Y15.7109 
G01 X-117.4257 Y15.7181 
G01 X-117.4257 Y18.5719 
G01 X-117.4399 Y18.5791 
G01 X-117.5856 Y18.6850 
G01 X-117.7130 Y18.8124 
G01 X-117.8189 Y18.9581 
G01 X-117.9007 Y19.1186 
G01 X-117.9564 Y19.2900 
G01 X-117.9845 Y19.4679 
G01 X-117.9845 Y21.1721 
G01 X-117.9564 Y21.3500 
G01 X-117.9007 Y21.5214 
G01 X-117.8189 Y21.6819 
G01 X-117.7130 Y21.8276 
G01 X-117.5856 Y21.9550 
G01 X-117.4399 Y22.0609 
G01 X-117.4257 Y22.0681 
G01 X-117.4257 Y24.9219 
G01 X-117.4399 Y24.9291 
G01 X-117.5856 Y25.0350 
G01 X-117.7130 Y25.1624 
G01 X-117.8189 Y25.3081 
G01 X-117.9007 Y25.4686 
G01 X-117.9564 Y25.6400 
G01 X-117.9845 Y25.8179 
G01 X-117.9845 Y27.5221 
G01 X-117.9564 Y27.7000 
G01 X-117.9007 Y27.8713 
G01 X-117.8189 Y28.0319 
G01 X-117.7130 Y28.1776 
G01 X-117.5856 Y28.3050 
G01 X-117.4399 Y28.4109 
G01 X-117.4257 Y28.4181 
G01 X-117.4257 Y31.2719 
G01 X-117.4399 Y31.2791 
G01 X-117.5856 Y31.3850 
G01 X-117.7130 Y31.5124 
G01 X-117.8189 Y31.6581 
G01 X-117.9007 Y31.8186 
G01 X-117.9564 Y31.9900 
G01 X-117.9845 Y32.1679 
G01 X-117.9845 Y33.8721 
G01 X-117.9564 Y34.0500 
G01 X-117.9007 Y34.2214 
G01 X-117.8189 Y34.3819 
G01 X-117.7130 Y34.5276 
G01 X-117.5856 Y34.6550 
G01 X-117.4399 Y34.7609 
G01 X-117.2794 Y34.8427 
G01 X-117.1080 Y34.8984 
G01 X-116.9301 Y34.9265 
G01 X-116.7499 Y34.9265 
G01 X-116.5720 Y34.8984 
G01 X-116.4006 Y34.8427 
G01 X-116.2401 Y34.7609 
G01 X-116.0944 Y34.6550 
G01 X-115.9670 Y34.5276 
G01 X-115.8611 Y34.3819 
G01 X-115.7793 Y34.2214 
G01 X-115.7236 Y34.0500 
G01 X-115.6955 Y33.8721 
G01 X-115.6955 Y32.1679 
G01 X-115.7236 Y31.9900 
G01 X-115.7793 Y31.8186 
G01 X-115.8611 Y31.6581 
G01 X-115.9670 Y31.5124 
G01 X-116.0944 Y31.3850 
G01 X-116.2401 Y31.2791 
G01 X-116.2543 Y31.2719 
G01 X-116.2543 Y28.4181 
G01 X-116.2401 Y28.4109 
G01 X-116.0944 Y28.3050 
G01 X-115.9670 Y28.1776 
G01 X-115.8611 Y28.0319 
G01 X-115.7793 Y27.8713 
G01 X-115.7236 Y27.7000 
G01 X-115.6955 Y27.5221 
G01 X-115.6955 Y25.8179 
G01 X-115.7236 Y25.6400 
G01 X-115.7793 Y25.4686 
G01 X-115.8611 Y25.3081 
G01 X-115.9670 Y25.1624 
G01 X-116.0944 Y25.0350 
G01 X-116.2401 Y24.9291 
G01 X-116.2543 Y24.9219 
G01 X-116.2543 Y22.0681 
G01 X-116.2401 Y22.0609 
G01 X-116.0944 Y21.9550 
G01 X-115.9670 Y21.8276 
G01 X-115.8611 Y21.6819 
G01 X-115.7793 Y21.5214 
G01 X-115.7236 Y21.3500 
G01 X-115.6955 Y21.1721 
G01 X-115.6955 Y19.4679 
G01 X-115.7236 Y19.2900 
G01 X-115.7793 Y19.1186 
G01 X-115.8611 Y18.9581 
G01 X-115.9670 Y18.8124 
G01 X-116.0944 Y18.6850 
G01 X-116.2401 Y18.5791 
G01 X-116.2543 Y18.5719 
G01 X-116.2543 Y15.7181 
G01 X-116.2401 Y15.7109 
G01 X-116.0944 Y15.6050 
G01 X-115.9670 Y15.4776 
G01 X-115.8611 Y15.3319 
G01 X-115.7793 Y15.1714 
G01 X-115.7236 Y15.0000 
G01 X-115.6955 Y14.8221 
G01 X-115.6955 Y14.5557 
G01 X-111.0757 Y14.5557 
G01 X-111.0757 Y15.3244 
G01 X-111.1831 Y15.3790 
G01 X-111.3514 Y15.5014 
G01 X-111.4986 Y15.6486 
G01 X-111.6210 Y15.8169 
G01 X-111.7155 Y16.0024 
G01 X-111.7798 Y16.2004 
G01 X-111.8123 Y16.4059 
G01 X-111.8123 Y16.6141 
G01 X-111.7798 Y16.8196 
G01 X-111.7155 Y17.0176 
G01 X-111.6210 Y17.2031 
G01 X-111.4986 Y17.3714 
G01 X-111.3514 Y17.5186 
G01 X-111.1831 Y17.6410 
G01 X-110.9976 Y17.7355 
G01 X-110.8605 Y17.7800 
G01 X-110.9976 Y17.8245 
G01 X-111.1831 Y17.9190 
G01 X-111.3514 Y18.0414 
G01 X-111.4986 Y18.1886 
G01 X-111.6210 Y18.3569 
G01 X-111.6756 Y18.4643 
G01 X-114.3577 Y18.4643 
G01 X-114.4709 Y18.4868 
G01 X-114.5774 Y18.5309 
G01 X-114.6734 Y18.5950 
G01 X-114.7550 Y18.6766 
G01 X-114.8191 Y18.7725 
G01 X-114.8632 Y18.8791 
G01 X-114.8857 Y18.9923 
G01 X-114.8857 Y36.2443 
G01 X-118.7943 Y36.2443 
G01 X-118.7943 Y34.7681 
G01 X-118.7801 Y34.7609 
G01 X-118.6344 Y34.6550 
G01 X-118.5070 Y34.5276 
G01 X-118.4011 Y34.3819 
G01 X-118.3193 Y34.2214 
G01 X-118.2636 Y34.0500 
G01 X-118.2355 Y33.8721 
G01 X-118.2355 Y32.1679 
G01 X-118.2636 Y31.9900 
G01 X-118.3193 Y31.8186 
G01 X-118.4011 Y31.6581 
G01 X-118.5070 Y31.5124 
G01 X-118.6344 Y31.3850 
G01 X-118.7801 Y31.2791 
G01 X-118.7943 Y31.2719 
G01 X-118.7943 Y28.4181 
G01 X-118.7801 Y28.4109 
G01 X-118.6344 Y28.3050 
G01 X-118.5070 Y28.1776 
G01 X-118.4011 Y28.0319 
G01 X-118.3193 Y27.8713 
G01 X-118.2636 Y27.7000 
G01 X-118.2355 Y27.5221 
G01 X-118.2355 Y25.8179 
G01 X-118.2636 Y25.6400 
G01 X-118.3193 Y25.4686 
G01 X-118.4011 Y25.3081 
G01 X-118.5070 Y25.1624 
G01 X-118.6344 Y25.0350 
G01 X-118.7801 Y24.9291 
G01 X-118.7943 Y24.9219 
G01 X-118.7943 Y22.0681 
G01 X-118.7801 Y22.0609 
G01 X-118.6344 Y21.9550 
G01 X-118.5070 Y21.8276 
G01 X-118.4011 Y21.6819 
G01 X-118.3193 Y21.5214 
G01 X-118.2636 Y21.3500 
G01 X-118.2355 Y21.1721 
G01 X-118.2355 Y19.4679 
G01 X-118.2636 Y19.2900 
G01 X-118.3193 Y19.1186 
G01 X-118.4011 Y18.9581 
G01 X-118.5070 Y18.8124 
G01 X-118.6344 Y18.6850 
G01 X-118.7801 Y18.5791 
G01 X-118.7943 Y18.5719 
G01 X-118.7943 Y15.7181 
G01 X-118.7801 Y15.7109 
G01 X-118.6344 Y15.6050 
G01 X-118.5070 Y15.4776 
G01 X-118.4011 Y15.3319 
G01 X-118.3193 Y15.1714 
G01 X-118.2636 Y15.0000 
G01 X-118.2355 Y14.8221 
G01 X-118.2355 Y13.1179 
G01 X-118.2636 Y12.9400 
G01 X-118.3193 Y12.7686 
G01 X-118.4011 Y12.6081 
G01 X-118.5070 Y12.4624 
G01 X-118.6344 Y12.3350 
G01 X-118.7801 Y12.2291 
G01 X-118.9406 Y12.1473 
G01 X-119.1120 Y12.0916 
G01 X-119.2899 Y12.0635 
G01 X-119.4701 Y12.0635 
G01 X-119.6480 Y12.0916 
G01 X-119.8194 Y12.1473 
G01 X-119.9799 Y12.2291 
G01 X-120.1256 Y12.3350 
G01 X-120.2530 Y12.4624 
G01 X-120.3589 Y12.6081 
G01 X-120.4407 Y12.7686 
G01 X-120.4964 Y12.9400 
G01 X-120.5245 Y13.1179 
G01 X-120.5245 Y14.8221 
G01 X-120.4964 Y15.0000 
G01 X-120.4407 Y15.1714 
G01 X-120.3589 Y15.3319 
G01 X-120.2530 Y15.4776 
G01 X-120.1256 Y15.6050 
G01 X-119.9799 Y15.7109 
G01 X-119.9657 Y15.7181 
G01 X-119.9657 Y18.5719 
G01 X-119.9799 Y18.5791 
G01 X-120.1256 Y18.6850 
G01 X-120.2530 Y18.8124 
G01 X-120.3589 Y18.9581 
G01 X-120.4407 Y19.1186 
G01 X-120.4964 Y19.2900 
G01 X-120.5245 Y19.4679 
G01 X-120.5245 Y21.1721 
G01 X-120.4964 Y21.3500 
G01 X-120.4407 Y21.5214 
G01 X-120.3589 Y21.6819 
G01 X-120.2530 Y21.8276 
G01 X-120.1256 Y21.9550 
G01 X-119.9799 Y22.0609 
G01 X-119.9657 Y22.0681 
G01 X-119.9657 Y24.9219 
G01 X-119.9799 Y24.9291 
G01 X-120.1256 Y25.0350 
G01 X-120.2530 Y25.1624 
G01 X-120.3589 Y25.3081 
G01 X-120.4407 Y25.4686 
G01 X-120.4964 Y25.6400 
G01 X-120.5245 Y25.8179 
G01 X-120.5245 Y27.5221 
G01 X-120.4964 Y27.7000 
G01 X-120.4407 Y27.8713 
G01 X-120.3589 Y28.0319 
G01 X-120.2530 Y28.1776 
G01 X-120.1256 Y28.3050 
G01 X-119.9799 Y28.4109 
G01 X-119.9657 Y28.4181 
G01 X-119.9657 Y31.2719 
G01 X-119.9799 Y31.2791 
G01 X-120.1256 Y31.3850 
G01 X-120.2530 Y31.5124 
G01 X-120.3589 Y31.6581 
G01 X-120.4407 Y31.8186 
G01 X-120.4964 Y31.9900 
G01 X-120.5245 Y32.1679 
G01 X-120.5245 Y33.8721 
G01 X-120.4964 Y34.0500 
G01 X-120.4407 Y34.2214 
G01 X-120.3589 Y34.3819 
G01 X-120.2530 Y34.5276 
G01 X-120.1256 Y34.6550 
G01 X-119.9799 Y34.7609 
G01 X-119.9657 Y34.7681 
G01 X-119.9657 Y36.8877 
G01 X-119.9432 Y37.0009 
G01 X-119.8991 Y37.1075 
G01 X-119.8350 Y37.2034 
G01 X-119.7534 Y37.2850 
G01 X-119.6575 Y37.3491 
G01 X-119.5509 Y37.3932 
G01 X-119.4377 Y37.4157 
G01 X-114.2423 Y37.4157 
G01 X-114.1291 Y37.3932 
G01 X-114.0225 Y37.3491 
G01 X-113.9266 Y37.2850 
G01 X-113.8450 Y37.2034 
G01 X-113.7809 Y37.1075 
G01 X-113.7368 Y37.0009 
G01 X-113.7143 Y36.8877 
G01 X-113.7143 Y19.6357 
G01 X-111.6756 Y19.6357 
G01 X-111.6210 Y19.7431 
G01 X-111.4986 Y19.9114 
G01 X-111.3514 Y20.0586 
G01 X-111.1831 Y20.1810 
G01 X-110.9976 Y20.2755 
G01 X-110.8605 Y20.3200 
G01 X-110.9976 Y20.3645 
G01 X-111.1831 Y20.4590 
G01 X-111.3514 Y20.5814 
G01 X-111.4986 Y20.7286 
G01 X-111.6210 Y20.8969 
G01 X-111.7155 Y21.0824 
G01 X-111.7798 Y21.2804 
G01 X-111.8123 Y21.4859 
G01 X-111.8123 Y21.6941 
G01 X-111.7798 Y21.8996 
G01 X-111.7155 Y22.0976 
G01 X-111.6210 Y22.2831 
G01 X-111.4986 Y22.4514 
G01 X-111.3514 Y22.5986 
G01 X-111.1831 Y22.7210 
G01 X-110.9976 Y22.8155 
G01 X-110.8605 Y22.8600 
G01 X-110.9976 Y22.9045 
G01 X-111.1831 Y22.9990 
G01 X-111.3514 Y23.1214 
G01 X-111.4986 Y23.2686 
G01 X-111.6210 Y23.4369 
G01 X-111.7155 Y23.6224 
G01 X-111.7798 Y23.8204 
G01 X-111.8123 Y24.0259 
G01 X-111.8123 Y24.2341 
G01 X-111.7798 Y24.4396 
G01 X-111.7155 Y24.6376 
G01 X-111.6210 Y24.8231 
G01 X-111.4986 Y24.9914 
G01 X-111.3514 Y25.1386 
G01 X-111.1831 Y25.2610 
G01 X-110.9976 Y25.3555 
G01 X-110.8605 Y25.4000 
G01 X-110.9976 Y25.4445 
G01 X-111.1831 Y25.5390 
G01 X-111.3514 Y25.6614 
G01 X-111.4986 Y25.8086 
G01 X-111.6210 Y25.9769 
G01 X-111.7155 Y26.1624 
G01 X-111.7798 Y26.3604 
G01 X-111.8123 Y26.5659 
G01 X-111.8123 Y26.7741 
G01 X-111.7798 Y26.9796 
G01 X-111.7155 Y27.1776 
G01 X-111.6210 Y27.3631 
G01 X-111.4986 Y27.5314 
G01 X-111.3514 Y27.6786 
G01 X-111.1831 Y27.8010 
G01 X-110.9976 Y27.8955 
G01 X-110.8605 Y27.9400 
G01 X-110.9976 Y27.9845 
G01 X-111.1831 Y28.0790 
G01 X-111.3514 Y28.2014 
G01 X-111.4986 Y28.3486 
G01 X-111.6210 Y28.5169 
G01 X-111.7155 Y28.7024 
G01 X-111.7798 Y28.9004 
G01 X-111.8123 Y29.1059 
G01 X-111.8123 Y29.3141 
G01 X-111.7798 Y29.5196 
G01 X-111.7155 Y29.7176 
G01 X-111.6210 Y29.9031 
G01 X-111.4986 Y30.0714 
G01 X-111.3514 Y30.2186 
G01 X-111.1831 Y30.3410 
G01 X-110.9976 Y30.4355 
G01 X-110.8605 Y30.4800 
G01 X-110.9976 Y30.5245 
G01 X-111.1831 Y30.6190 
G01 X-111.3514 Y30.7414 
G01 X-111.4986 Y30.8886 
G01 X-111.6210 Y31.0569 
G01 X-111.7155 Y31.2424 
G01 X-111.7798 Y31.4404 
G01 X-111.8123 Y31.6459 
G01 X-111.8123 Y31.8541 
G01 X-111.7798 Y32.0596 
G01 X-111.7155 Y32.2576 
G01 X-111.6210 Y32.4431 
G01 X-111.4986 Y32.6114 
G01 X-111.3514 Y32.7586 
G01 X-111.1831 Y32.8810 
G01 X-110.9976 Y32.9755 
G01 X-110.8605 Y33.0200 
G01 X-110.9976 Y33.0645 
G01 X-111.1831 Y33.1590 
G01 X-111.3514 Y33.2814 
G01 X-111.4986 Y33.4286 
G01 X-111.6210 Y33.5969 
G01 X-111.7155 Y33.7824 
G01 X-111.7798 Y33.9804 
G01 X-111.8123 Y34.1859 
G01 X-111.8123 Y34.3941 
G01 X-111.7798 Y34.5996 
G01 X-111.7155 Y34.7976 
G01 X-111.6210 Y34.9831 
G01 X-111.4986 Y35.1514 
G01 X-111.3514 Y35.2986 
G01 X-111.1831 Y35.4210 
G01 X-110.9976 Y35.5155 
G01 X-110.7996 Y35.5798 
G01 X-110.5941 Y35.6123 
G01 X-110.3859 Y35.6123 
G01 X-110.1804 Y35.5798 
G01 X-109.9824 Y35.5155 
G01 X-109.7969 Y35.4210 
G01 X-109.6286 Y35.2986 
G01 X-109.4814 Y35.1514 
G01 X-109.3590 Y34.9831 
G01 X-109.2645 Y34.7976 
G01 X-109.2002 Y34.5996 
G01 X-109.1677 Y34.3941 
G01 X-109.1677 Y34.1859 
G01 X-109.2002 Y33.9804 
G01 X-109.2645 Y33.7824 
G01 X-109.3590 Y33.5969 
G01 X-109.4814 Y33.4286 
G01 X-109.6286 Y33.2814 
G01 X-109.7969 Y33.1590 
G01 X-109.9824 Y33.0645 
G01 X-110.1195 Y33.0200 
G01 X-109.9824 Y32.9755 
G01 X-109.7969 Y32.8810 
G01 X-109.6286 Y32.7586 
G01 X-109.4814 Y32.6114 
G01 X-109.3590 Y32.4431 
G01 X-109.2645 Y32.2576 
G01 X-109.2002 Y32.0596 
G01 X-109.1677 Y31.8541 
G01 X-109.1677 Y31.6459 
G01 X-109.2002 Y31.4404 
G01 X-109.2645 Y31.2424 
G01 X-109.3590 Y31.0569 
G01 X-109.4814 Y30.8886 
G01 X-109.6286 Y30.7414 
G01 X-109.7969 Y30.6190 
G01 X-109.9824 Y30.5245 
G01 X-110.1195 Y30.4800 
G01 X-109.9824 Y30.4355 
G01 X-109.7969 Y30.3410 
G01 X-109.6286 Y30.2186 
G01 X-109.4814 Y30.0714 
G01 X-109.3590 Y29.9031 
G01 X-109.2645 Y29.7176 
G01 X-109.2002 Y29.5196 
G01 X-109.1677 Y29.3141 
G01 X-109.1677 Y29.1059 
G01 X-109.2002 Y28.9004 
G01 X-109.2645 Y28.7024 
G01 X-109.3590 Y28.5169 
G01 X-109.4814 Y28.3486 
G01 X-109.6286 Y28.2014 
G01 X-109.7969 Y28.0790 
G01 X-109.9824 Y27.9845 
G01 X-110.1195 Y27.9400 
G01 X-109.9824 Y27.8955 
G01 X-109.7969 Y27.8010 
G01 X-109.6286 Y27.6786 
G01 X-109.4814 Y27.5314 
G01 X-109.3590 Y27.3631 
G01 X-109.2645 Y27.1776 
G01 X-109.2002 Y26.9796 
G01 X-109.1677 Y26.7741 
G01 X-109.1677 Y26.5659 
G01 X-109.2002 Y26.3604 
G01 X-109.2645 Y26.1624 
G01 X-109.3590 Y25.9769 
G01 X-109.4814 Y25.8086 
G01 X-109.6286 Y25.6614 
G01 X-109.7969 Y25.5390 
G01 X-109.9824 Y25.4445 
G01 X-110.1195 Y25.4000 
G01 X-109.9824 Y25.3555 
G01 X-109.7969 Y25.2610 
G01 X-109.6286 Y25.1386 
G01 X-109.4814 Y24.9914 
G01 X-109.3590 Y24.8231 
G01 X-109.3044 Y24.7157 
G01 X-104.7257 Y24.7157 
G01 X-104.7257 Y55.8785 
G01 X-105.0794 Y55.8785 
G01 X-105.1767 Y55.9045 
G01 X-105.2639 Y55.9549 
G01 X-105.3351 Y56.0261 
G01 X-105.3855 Y56.1133 
G01 X-105.4115 Y56.2106 
G01 X-105.4115 Y58.0894 
G01 X-105.3855 Y58.1867 
G01 X-105.3351 Y58.2739 
G01 X-105.2639 Y58.3451 
G01 X-105.1767 Y58.3955 
G01 X-105.0794 Y58.4215 
G01 X-103.2006 Y58.4215 
G01 X-103.1033 Y58.3955 
G01 X-103.0161 Y58.3451 
G01 X-102.9449 Y58.2739 
G01 X-102.8945 Y58.1867 
G01 X-102.8685 Y58.0894 
G01 X-102.8685 Y56.2106 
G01 X-102.8945 Y56.1133 
G01 X-102.9449 Y56.0261 
G01 X-103.0161 Y55.9549 
G01 X-103.1033 Y55.9045 
G01 X-103.2006 Y55.8785 
G01 X-103.5543 Y55.8785 
G01 X-103.5543 Y24.0723 
G01 X-103.5768 Y23.9591 
G01 X-103.6209 Y23.8525 
G01 X-103.6850 Y23.7566 
G01 X-103.7666 Y23.6750 
G01 X-103.8625 Y23.6109 
G01 X-103.9691 Y23.5668 
G01 X-104.0823 Y23.5443 
G01 X-109.3044 Y23.5443 
G01 X-109.3590 Y23.4369 
G01 X-109.4814 Y23.2686 
G01 X-109.6286 Y23.1214 
G01 X-109.7969 Y22.9990 
G01 X-109.9824 Y22.9045 
G01 X-110.1195 Y22.8600 
G01 X-109.9824 Y22.8155 
G01 X-109.7969 Y22.7210 
G01 X-109.6286 Y22.5986 
G01 X-109.4814 Y22.4514 
G01 X-109.3590 Y22.2831 
G01 X-109.3043 Y22.1757 
G01 X-102.1857 Y22.1757 
G01 X-102.1857 Y55.9377 
G01 X-102.1632 Y56.0509 
G01 X-102.1191 Y56.1575 
G01 X-102.0550 Y56.2534 
G01 X-101.9734 Y56.3350 
G01 X-101.8775 Y56.3991 
G01 X-101.7709 Y56.4432 
G01 X-101.6577 Y56.4657 
G01 X-82.5515 Y56.4657 
G01 X-82.5515 Y56.8194 
G01 X-82.5255 Y56.9167 
G01 X-82.4751 Y57.0039 
G01 X-82.4039 Y57.0751 
G01 X-82.3167 Y57.1255 
G01 X-82.2194 Y57.1515 
G01 X-80.3406 Y57.1515 
G01 X-80.2433 Y57.1255 
G01 X-80.1561 Y57.0751 
G01 X-80.0849 Y57.0039 
G01 X-80.0345 Y56.9167 
G01 X-80.0085 Y56.8194 
G01 X-80.0085 Y54.9406 
G01 X-80.0345 Y54.8433 
G01 X-80.0849 Y54.7561 
G01 X-80.1561 Y54.6849 
G01 X-80.2433 Y54.6345 
G01 X-80.3406 Y54.6085 
G01 X-82.2194 Y54.6085 
G01 X-82.3167 Y54.6345 
G01 X-82.4039 Y54.6849 
G01 X-82.4751 Y54.7561 
G01 X-82.5255 Y54.8433 
G01 X-82.5515 Y54.9406 
G01 X-82.5515 Y55.2943 
G01 X-101.0143 Y55.2943 
G01 X-101.0143 Y21.5323 
G01 X-101.0368 Y21.4191 
G01 X-101.0809 Y21.3125 
G01 X-101.1450 Y21.2166 
G01 X-101.2266 Y21.1350 
G01 X-101.3225 Y21.0709 
G01 X-101.4291 Y21.0268 
G01 X-101.5423 Y21.0043 
G01 X-109.3043 Y21.0043 
G01 X-109.3590 Y20.8969 
G01 X-109.4814 Y20.7286 
G01 X-109.6286 Y20.5814 
G01 X-109.7969 Y20.4590 
G01 X-109.9824 Y20.3645 
G01 X-110.1195 Y20.3200 
G01 X-109.9824 Y20.2755 
G01 X-109.7969 Y20.1810 
G01 X-109.6286 Y20.0586 
G01 X-109.4814 Y19.9114 
G01 X-109.3590 Y19.7431 
G01 X-109.3044 Y19.6357 
G01 X-92.0257 Y19.6357 
G01 X-92.0257 Y29.2677 
G01 X-92.0032 Y29.3809 
G01 X-91.9591 Y29.4875 
G01 X-91.8950 Y29.5834 
G01 X-91.8134 Y29.6650 
G01 X-91.7174 Y29.7291 
G01 X-91.6109 Y29.7732 
G01 X-91.4977 Y29.7957 
G01 X-89.9429 Y29.7957 
G01 X-89.9429 Y29.9525 
G01 X-89.9173 Y30.1146 
G01 X-89.8665 Y30.2708 
G01 X-89.7920 Y30.4170 
G01 X-89.6955 Y30.5498 
G01 X-89.5794 Y30.6659 
G01 X-89.4466 Y30.7624 
G01 X-89.3004 Y30.8369 
G01 X-89.1442 Y30.8877 
G01 X-88.9821 Y30.9133 
G01 X-88.8179 Y30.9133 
G01 X-88.6558 Y30.8877 
G01 X-88.4996 Y30.8369 
G01 X-88.3534 Y30.7624 
G01 X-88.2206 Y30.6659 
G01 X-88.1045 Y30.5498 
G01 X-88.0080 Y30.4170 
G01 X-87.9335 Y30.2708 
G01 X-87.8827 Y30.1146 
G01 X-87.8571 Y29.9525 
G01 X-87.8571 Y28.4675 
G01 X-87.8827 Y28.3054 
G01 X-87.9335 Y28.1492 
G01 X-88.0080 Y28.0030 
G01 X-88.1045 Y27.8702 
G01 X-88.2206 Y27.7541 
G01 X-88.3534 Y27.6576 
G01 X-88.4996 Y27.5831 
G01 X-88.6558 Y27.5323 
G01 X-88.8179 Y27.5067 
G01 X-88.9821 Y27.5067 
G01 X-89.1442 Y27.5323 
G01 X-89.3004 Y27.5831 
G01 X-89.4466 Y27.6576 
G01 X-89.5794 Y27.7541 
G01 X-89.6955 Y27.8702 
G01 X-89.7920 Y28.0030 
G01 X-89.8665 Y28.1492 
G01 X-89.9173 Y28.3054 
G01 X-89.9429 Y28.4675 
G01 X-89.9429 Y28.6243 
G01 X-90.8543 Y28.6243 
G01 X-90.8543 Y18.9923 
G01 X-90.8768 Y18.8791 
G01 X-90.9209 Y18.7725 
G01 X-90.9850 Y18.6766 
G01 X-91.0666 Y18.5950 
G01 X-91.1625 Y18.5309 
G01 X-91.2691 Y18.4868 
G01 X-91.3823 Y18.4643 
G01 X-109.3044 Y18.4643 
G01 X-109.3590 Y18.3569 
G01 X-109.4814 Y18.1886 
G01 X-109.6286 Y18.0414 
G01 X-109.7969 Y17.9190 
G01 X-109.9824 Y17.8245 
G01 X-110.1195 Y17.7800 
G01 X-109.9824 Y17.7355 
G01 X-109.7969 Y17.6410 
G01 X-109.6286 Y17.5186 
G01 X-109.4814 Y17.3714 
G01 X-109.3590 Y17.2031 
G01 X-109.3044 Y17.0957 
G01 X-90.7557 Y17.0957 
G01 X-90.7557 Y24.1877 
G01 X-90.7332 Y24.3009 
G01 X-90.6891 Y24.4075 
G01 X-90.6250 Y24.5034 
G01 X-90.5434 Y24.5850 
G01 X-90.4475 Y24.6491 
G01 X-90.3409 Y24.6932 
G01 X-90.2277 Y24.7157 
G01 X-86.9457 Y24.7157 
G01 X-86.9457 Y27.6860 
G01 X-87.0394 Y27.7541 
G01 X-87.1555 Y27.8702 
G01 X-87.2520 Y28.0030 
G01 X-87.3265 Y28.1492 
G01 X-87.3773 Y28.3054 
G01 X-87.4029 Y28.4675 
G01 X-87.4029 Y29.9525 
G01 X-87.3773 Y30.1146 
G01 X-87.3265 Y30.2708 
G01 X-87.2520 Y30.4170 
G01 X-87.1555 Y30.5498 
G01 X-87.0394 Y30.6659 
G01 X-86.9066 Y30.7624 
G01 X-86.7604 Y30.8369 
G01 X-86.6042 Y30.8877 
G01 X-86.4421 Y30.9133 
G01 X-86.2779 Y30.9133 
G01 X-86.1158 Y30.8877 
G01 X-85.9596 Y30.8369 
G01 X-85.8134 Y30.7624 
G01 X-85.6806 Y30.6659 
G01 X-85.5645 Y30.5498 
G01 X-85.4680 Y30.4170 
G01 X-85.3935 Y30.2708 
G01 X-85.3427 Y30.1146 
G01 X-85.3171 Y29.9525 
G01 X-85.3171 Y28.4675 
G01 X-85.3427 Y28.3054 
G01 X-85.3935 Y28.1492 
G01 X-85.4680 Y28.0030 
G01 X-85.5645 Y27.8702 
G01 X-85.6806 Y27.7541 
G01 X-85.7743 Y27.6860 
G01 X-85.7743 Y24.0723 
G01 X-85.7968 Y23.9591 
G01 X-85.8409 Y23.8525 
G01 X-85.9050 Y23.7566 
G01 X-85.9866 Y23.6750 
G01 X-86.0825 Y23.6109 
G01 X-86.1891 Y23.5668 
G01 X-86.3023 Y23.5443 
G01 X-89.5843 Y23.5443 
G01 X-89.5843 Y23.0411 
G01 X-89.5794 Y23.0459 
G01 X-89.4466 Y23.1424 
G01 X-89.3004 Y23.2169 
G01 X-89.1442 Y23.2677 
G01 X-88.9821 Y23.2933 
G01 X-88.8179 Y23.2933 
G01 X-88.6558 Y23.2677 
G01 X-88.4996 Y23.2169 
G01 X-88.3534 Y23.1424 
G01 X-88.2206 Y23.0459 
G01 X-88.1045 Y22.9298 
G01 X-88.0080 Y22.7970 
G01 X-87.9335 Y22.6508 
G01 X-87.8827 Y22.4946 
G01 X-87.8571 Y22.3325 
G01 X-87.8571 Y22.1757 
G01 X-87.4029 Y22.1757 
G01 X-87.4029 Y22.3325 
G01 X-87.3773 Y22.4946 
G01 X-87.3265 Y22.6508 
G01 X-87.2520 Y22.7970 
G01 X-87.1555 Y22.9298 
G01 X-87.0394 Y23.0459 
G01 X-86.9066 Y23.1424 
G01 X-86.7604 Y23.2169 
G01 X-86.6042 Y23.2677 
G01 X-86.4421 Y23.2933 
G01 X-86.2779 Y23.2933 
G01 X-86.1158 Y23.2677 
G01 X-85.9596 Y23.2169 
G01 X-85.8134 Y23.1424 
G01 X-85.6806 Y23.0459 
G01 X-85.5645 Y22.9298 
G01 X-85.4680 Y22.7970 
G01 X-85.3935 Y22.6508 
G01 X-85.3427 Y22.4946 
G01 X-85.3171 Y22.3325 
G01 X-85.3171 Y22.1757 
G01 X-84.8629 Y22.1757 
G01 X-84.8629 Y22.3325 
G01 X-84.8373 Y22.4946 
G01 X-84.7865 Y22.6508 
G01 X-84.7120 Y22.7970 
G01 X-84.6155 Y22.9298 
G01 X-84.4994 Y23.0459 
G01 X-84.4057 Y23.1140 
G01 X-84.4057 Y27.6860 
G01 X-84.4994 Y27.7541 
G01 X-84.6155 Y27.8702 
G01 X-84.7120 Y28.0030 
G01 X-84.7865 Y28.1492 
G01 X-84.8373 Y28.3054 
G01 X-84.8629 Y28.4675 
G01 X-84.8629 Y29.9525 
G01 X-84.8373 Y30.1146 
G01 X-84.7865 Y30.2708 
G01 X-84.7120 Y30.4170 
G01 X-84.6155 Y30.5498 
G01 X-84.4994 Y30.6659 
G01 X-84.3666 Y30.7624 
G01 X-84.2204 Y30.8369 
G01 X-84.0642 Y30.8877 
G01 X-83.9021 Y30.9133 
G01 X-83.7379 Y30.9133 
G01 X-83.5758 Y30.8877 
G01 X-83.4196 Y30.8369 
G01 X-83.2734 Y30.7624 
G01 X-83.1706 Y30.6877 
G01 X-83.1357 Y30.7226 
G01 X-83.1357 Y39.4277 
G01 X-83.1132 Y39.5409 
G01 X-83.0691 Y39.6474 
G01 X-83.0050 Y39.7434 
G01 X-63.4826 Y59.2658 
G01 X-63.5198 Y59.3803 
G01 X-63.5523 Y59.5859 
G01 X-63.5523 Y59.7941 
G01 X-63.5198 Y59.9996 
G01 X-63.4555 Y60.1976 
G01 X-63.3610 Y60.3831 
G01 X-63.2386 Y60.5514 
G01 X-63.0914 Y60.6986 
G01 X-62.9231 Y60.8210 
G01 X-62.8157 Y60.8756 
G01 X-62.8157 Y61.0444 
G01 X-62.9231 Y61.0990 
G01 X-63.0914 Y61.2214 
G01 X-63.2386 Y61.3686 
G01 X-63.3610 Y61.5369 
G01 X-63.4555 Y61.7224 
G01 X-63.5198 Y61.9204 
G01 X-63.5523 Y62.1259 
G01 X-63.5523 Y62.3341 
G01 X-63.5198 Y62.5396 
G01 X-63.4555 Y62.7376 
G01 X-63.3610 Y62.9231 
G01 X-63.2386 Y63.0914 
G01 X-63.0914 Y63.2386 
G01 X-62.9231 Y63.3610 
G01 X-62.7376 Y63.4555 
G01 X-62.6005 Y63.5000 
G01 X-62.7376 Y63.5445 
G01 X-62.9231 Y63.6390 
G01 X-63.0914 Y63.7614 
G01 X-63.2386 Y63.9086 
G01 X-63.3610 Y64.0769 
G01 X-63.4156 Y64.1843 
G01 X-64.1843 Y64.1843 
G01 X-64.1843 Y63.4423 
G01 X-64.2068 Y63.3291 
G01 X-64.2509 Y63.2225 
G01 X-64.3150 Y63.1266 
G01 X-64.3966 Y63.0450 
G01 X-64.4925 Y62.9809 
G01 X-64.5991 Y62.9368 
G01 X-64.7123 Y62.9143 
G01 X-85.1477 Y62.9143 
G01 X-85.2609 Y62.9368 
G01 X-85.3675 Y62.9809 
G01 X-85.4634 Y63.0450 
G01 X-85.5450 Y63.1266 
G01 X-85.6091 Y63.2225 
G01 X-85.6532 Y63.3291 
G01 X-85.6757 Y63.4423 
G01 X-85.6757 Y65.7860 
G01 X-85.7694 Y65.8541 
G01 X-85.8855 Y65.9702 
G01 X-85.9820 Y66.1030 
G01 X-86.0565 Y66.2492 
G01 X-86.1073 Y66.4054 
G01 X-86.1329 Y66.5675 
G01 X-86.1329 Y68.0525 
G01 X-86.1073 Y68.2146 
G01 X-86.0565 Y68.3708 
G01 X-85.9820 Y68.5170 
G01 X-85.8855 Y68.6498 
G01 X-85.7694 Y68.7659 
G01 X-85.6757 Y68.8340 
G01 X-85.6757 Y75.6143 
G01 X-98.4743 Y75.6143 
G01 X-98.4743 Y74.9312 
G01 X-98.3270 Y74.8561 
G01 X-98.1489 Y74.7267 
G01 X-97.9933 Y74.5711 
G01 X-97.8639 Y74.3930 
G01 X-97.7639 Y74.1969 
G01 X-97.6959 Y73.9875 
G01 X-97.6615 Y73.7701 
G01 X-97.6615 Y73.5499 
G01 X-97.6959 Y73.3325 
G01 X-97.7639 Y73.1231 
G01 X-97.8639 Y72.9270 
G01 X-97.9933 Y72.7489 
G01 X-98.1489 Y72.5933 
G01 X-98.3270 Y72.4639 
G01 X-98.5231 Y72.3639 
G01 X-98.7325 Y72.2959 
G01 X-98.9499 Y72.2615 
G01 X-99.1701 Y72.2615 
G01 X-99.3875 Y72.2959 
G01 X-99.5969 Y72.3639 
G01 X-99.7930 Y72.4639 
G01 X-99.9711 Y72.5933 
G01 X-100.1267 Y72.7489 
G01 X-100.2561 Y72.9270 
G01 X-100.3561 Y73.1231 
G01 X-100.4241 Y73.3325 
G01 X-100.4585 Y73.5499 
G01 X-100.4585 Y73.7701 
G01 X-100.4241 Y73.9875 
G01 X-100.3561 Y74.1969 
G01 X-100.2561 Y74.3930 
G01 X-100.1267 Y74.5711 
G01 X-99.9711 Y74.7267 
G01 X-99.7930 Y74.8561 
G01 X-99.6457 Y74.9312 
G01 X-99.6457 Y76.2577 
G01 X-99.6232 Y76.3709 
G01 X-99.5791 Y76.4775 
G01 X-99.5150 Y76.5734 
G01 X-99.4334 Y76.6550 
G01 X-99.3375 Y76.7191 
G01 X-99.2309 Y76.7632 
G01 X-99.1177 Y76.7857 
G01 X-85.2341 Y76.7857 
G01 X-85.3326 Y76.8843 
G01 X-106.4374 Y76.8843 
G01 X-107.3643 Y75.9574 
G01 X-107.3643 Y62.8157 
G01 X-83.7623 Y62.8157 
G01 X-83.6491 Y62.7932 
G01 X-83.5425 Y62.7491 
G01 X-83.4466 Y62.6850 
G01 X-83.3650 Y62.6034 
G01 X-83.3009 Y62.5075 
G01 X-83.2568 Y62.4009 
G01 X-83.2343 Y62.2877 
G01 X-83.2343 Y62.1723 
G01 X-83.2568 Y62.0591 
G01 X-83.3009 Y61.9525 
G01 X-83.3650 Y61.8566 
G01 X-83.4466 Y61.7750 
G01 X-83.5425 Y61.7109 
G01 X-83.6491 Y61.6668 
G01 X-83.7623 Y61.6443 
G01 X-107.3643 Y61.6443 
G01 X-107.3643 Y60.2757 
G01 X-101.3729 Y60.2757 
G01 X-101.3729 Y60.4325 
G01 X-101.3473 Y60.5946 
G01 X-101.2965 Y60.7508 
G01 X-101.2220 Y60.8970 
G01 X-101.1255 Y61.0298 
G01 X-101.0094 Y61.1459 
G01 X-100.8766 Y61.2424 
G01 X-100.7304 Y61.3169 
G01 X-100.5742 Y61.3677 
G01 X-100.4121 Y61.3933 
G01 X-100.2479 Y61.3933 
G01 X-100.0858 Y61.3677 
G01 X-99.9296 Y61.3169 
G01 X-99.7834 Y61.2424 
G01 X-99.6506 Y61.1459 
G01 X-99.5345 Y61.0298 
G01 X-99.4380 Y60.8970 
G01 X-99.3635 Y60.7508 
G01 X-99.3127 Y60.5946 
G01 X-99.2871 Y60.4325 
G01 X-99.2871 Y58.9475 
G01 X-99.3127 Y58.7854 
G01 X-99.3635 Y58.6292 
G01 X-99.4380 Y58.4830 
G01 X-99.5345 Y58.3502 
G01 X-99.6506 Y58.2341 
G01 X-99.7834 Y58.1376 
G01 X-99.9296 Y58.0631 
G01 X-100.0858 Y58.0123 
G01 X-100.2479 Y57.9867 
G01 X-100.4121 Y57.9867 
G01 X-100.5742 Y58.0123 
G01 X-100.7304 Y58.0631 
G01 X-100.8766 Y58.1376 
G01 X-101.0094 Y58.2341 
G01 X-101.1255 Y58.3502 
G01 X-101.2220 Y58.4830 
G01 X-101.2965 Y58.6292 
G01 X-101.3473 Y58.7854 
G01 X-101.3729 Y58.9475 
G01 X-101.3729 Y59.1043 
G01 X-108.0077 Y59.1043 
G01 X-108.1209 Y59.1268 
G01 X-108.2275 Y59.1709 
G01 X-108.3234 Y59.2350 
G01 X-108.4050 Y59.3166 
G01 X-108.4691 Y59.4125 
G01 X-108.5132 Y59.5191 
G01 X-108.5357 Y59.6323 
G01 X-108.5357 Y75.8683 
G01 X-109.3043 Y75.8683 
G01 X-109.3590 Y75.7609 
G01 X-109.4814 Y75.5926 
G01 X-109.6286 Y75.4454 
G01 X-109.7969 Y75.3230 
G01 X-109.9824 Y75.2285 
G01 X-110.1195 Y75.1840 
G01 X-109.9824 Y75.1395 
G01 X-109.7969 Y75.0450 
G01 X-109.6286 Y74.9226 
G01 X-109.4814 Y74.7754 
G01 X-109.3590 Y74.6071 
G01 X-109.2645 Y74.4216 
G01 X-109.2002 Y74.2236 
G01 X-109.1677 Y74.0181 
G01 X-109.1677 Y73.8099 
G01 X-109.2002 Y73.6043 
G01 X-109.2645 Y73.4064 
G01 X-109.3590 Y73.2209 
G01 X-109.4814 Y73.0526 
G01 X-109.6286 Y72.9054 
G01 X-109.7969 Y72.7830 
G01 X-109.9824 Y72.6885 
G01 X-110.1195 Y72.6440 
G01 X-109.9824 Y72.5995 
G01 X-109.7969 Y72.5050 
G01 X-109.6286 Y72.3826 
G01 X-109.4814 Y72.2354 
G01 X-109.3590 Y72.0671 
G01 X-109.2645 Y71.8816 
G01 X-109.2002 Y71.6836 
G01 X-109.1677 Y71.4781 
G01 X-109.1677 Y71.2699 
G01 X-109.2002 Y71.0644 
G01 X-109.2645 Y70.8664 
G01 X-109.3590 Y70.6809 
G01 X-109.4814 Y70.5126 
G01 X-109.6286 Y70.3654 
G01 X-109.7969 Y70.2430 
G01 X-109.9824 Y70.1485 
G01 X-110.1195 Y70.1040 
G01 X-109.9824 Y70.0595 
G01 X-109.7969 Y69.9650 
G01 X-109.6286 Y69.8426 
G01 X-109.4814 Y69.6954 
G01 X-109.3590 Y69.5271 
G01 X-109.2645 Y69.3416 
G01 X-109.2002 Y69.1436 
G01 X-109.1677 Y68.9381 
G01 X-109.1677 Y68.7299 
G01 X-109.2002 Y68.5243 
G01 X-109.2645 Y68.3264 
G01 X-109.3590 Y68.1409 
G01 X-109.4814 Y67.9726 
G01 X-109.6286 Y67.8254 
G01 X-109.7969 Y67.7030 
G01 X-109.9824 Y67.6085 
G01 X-110.1195 Y67.5640 
G01 X-109.9824 Y67.5195 
G01 X-109.7969 Y67.4250 
G01 X-109.6286 Y67.3026 
G01 X-109.4814 Y67.1554 
G01 X-109.3590 Y66.9871 
G01 X-109.2645 Y66.8016 
G01 X-109.2002 Y66.6036 
G01 X-109.1677 Y66.3981 
G01 X-109.1677 Y66.1899 
G01 X-109.2002 Y65.9844 
G01 X-109.2645 Y65.7864 
G01 X-109.3590 Y65.6009 
G01 X-109.4814 Y65.4326 
G01 X-109.6286 Y65.2854 
G01 X-109.7969 Y65.1630 
G01 X-109.9824 Y65.0685 
G01 X-110.1195 Y65.0240 
G01 X-109.9824 Y64.9795 
G01 X-109.7969 Y64.8850 
G01 X-109.6286 Y64.7626 
G01 X-109.4814 Y64.6154 
G01 X-109.3590 Y64.4471 
G01 X-109.2645 Y64.2616 
G01 X-109.2002 Y64.0636 
G01 X-109.1677 Y63.8581 
G01 X-109.1677 Y63.6499 
G01 X-109.2002 Y63.4444 
G01 X-109.2645 Y63.2464 
G01 X-109.3590 Y63.0609 
G01 X-109.4814 Y62.8926 
G01 X-109.6286 Y62.7454 
G01 X-109.7969 Y62.6230 
G01 X-109.9824 Y62.5285 
G01 X-110.1195 Y62.4840 
G01 X-109.9824 Y62.4395 
G01 X-109.7969 Y62.3450 
G01 X-109.6286 Y62.2226 
G01 X-109.4814 Y62.0754 
G01 X-109.3590 Y61.9071 
G01 X-109.2645 Y61.7216 
G01 X-109.2002 Y61.5236 
G01 X-109.1677 Y61.3181 
G01 X-109.1677 Y61.1099 
G01 X-109.2002 Y60.9044 
G01 X-109.2645 Y60.7064 
G01 X-109.3590 Y60.5209 
G01 X-109.4814 Y60.3526 
G01 X-109.6286 Y60.2054 
G01 X-109.7969 Y60.0830 
G01 X-109.9824 Y59.9885 
G01 X-110.1804 Y59.9242 
G01 X-110.3859 Y59.8917 
G01 X-110.5941 Y59.8917 
G01 X-110.7996 Y59.9242 
G01 X-110.9976 Y59.9885 
G01 X-111.1831 Y60.0830 
G01 X-111.3514 Y60.2054 
G01 X-111.4986 Y60.3526 
G01 X-111.6210 Y60.5209 
G01 X-111.6756 Y60.6283 
G01 X-116.2543 Y60.6283 
G01 X-116.2543 Y59.6323 
G01 X-116.2768 Y59.5191 
G01 X-116.3209 Y59.4125 
G01 X-116.3850 Y59.3166 
G01 X-116.4666 Y59.2350 
G01 X-116.5625 Y59.1709 
G01 X-116.6691 Y59.1268 
G01 X-116.7823 Y59.1043 
G01 X-117.0771 Y59.1043 
G01 X-117.6359 Y58.5455 
G01 X-118.5841 Y58.5455 
G01 X-119.2545 Y59.2159 
G01 X-119.2545 Y60.1641 
G01 X-118.5841 Y60.8345 
G01 X-117.6359 Y60.8345 
G01 X-117.4257 Y60.6244 
G01 X-117.4257 Y61.2717 
G01 X-117.4198 Y61.3016 
G01 X-117.6359 Y61.0855 
G01 X-118.5841 Y61.0855 
G01 X-119.2545 Y61.7559 
G01 X-119.2545 Y62.7041 
G01 X-118.6957 Y63.2629 
G01 X-118.6957 Y63.8117 
G01 X-118.6732 Y63.9249 
G01 X-118.6291 Y64.0315 
G01 X-118.5650 Y64.1274 
G01 X-118.4834 Y64.2090 
G01 X-118.3875 Y64.2731 
G01 X-118.2809 Y64.3172 
G01 X-118.1677 Y64.3397 
G01 X-111.6756 Y64.3397 
G01 X-111.6210 Y64.4471 
G01 X-111.4986 Y64.6154 
G01 X-111.3514 Y64.7626 
G01 X-111.1831 Y64.8850 
G01 X-110.9976 Y64.9795 
G01 X-110.8605 Y65.0240 
G01 X-110.9976 Y65.0685 
G01 X-111.1831 Y65.1630 
G01 X-111.3514 Y65.2854 
G01 X-111.4986 Y65.4326 
G01 X-111.6210 Y65.6009 
G01 X-111.7155 Y65.7864 
G01 X-111.7798 Y65.9844 
G01 X-111.8123 Y66.1899 
G01 X-111.8123 Y66.3981 
G01 X-111.7798 Y66.6036 
G01 X-111.7155 Y66.8016 
G01 X-111.6210 Y66.9871 
G01 X-111.4986 Y67.1554 
G01 X-111.3514 Y67.3026 
G01 X-111.1831 Y67.4250 
G01 X-110.9976 Y67.5195 
G01 X-110.8605 Y67.5640 
G01 X-110.9976 Y67.6085 
G01 X-111.1831 Y67.7030 
G01 X-111.3514 Y67.8254 
G01 X-111.4986 Y67.9726 
G01 X-111.6210 Y68.1409 
G01 X-111.7155 Y68.3264 
G01 X-111.7798 Y68.5243 
G01 X-111.8123 Y68.7299 
G01 X-111.8123 Y68.9381 
G01 X-111.7798 Y69.1436 
G01 X-111.7155 Y69.3416 
G01 X-111.6210 Y69.5271 
G01 X-111.4986 Y69.6954 
G01 X-111.3514 Y69.8426 
G01 X-111.1831 Y69.9650 
G01 X-110.9976 Y70.0595 
G01 X-110.8605 Y70.1040 
G01 X-110.9976 Y70.1485 
G01 X-111.1831 Y70.2430 
G01 X-111.3514 Y70.3654 
G01 X-111.4986 Y70.5126 
G01 X-111.6210 Y70.6809 
G01 X-111.7155 Y70.8664 
G01 X-111.7798 Y71.0644 
G01 X-111.8123 Y71.2699 
G01 X-111.8123 Y71.4781 
G01 X-111.7798 Y71.6836 
G01 X-111.7155 Y71.8816 
G01 X-111.6210 Y72.0671 
G01 X-111.4986 Y72.2354 
G01 X-111.3514 Y72.3826 
G01 X-111.1831 Y72.5050 
G01 X-110.9976 Y72.5995 
G01 X-110.8605 Y72.6440 
G01 X-110.9976 Y72.6885 
G01 X-111.1831 Y72.7830 
G01 X-111.3514 Y72.9054 
G01 X-111.4986 Y73.0526 
G01 X-111.6210 Y73.2209 
G01 X-111.7155 Y73.4064 
G01 X-111.7798 Y73.6043 
G01 X-111.8123 Y73.8099 
G01 X-111.8123 Y74.0181 
G01 X-111.7798 Y74.2236 
G01 X-111.7155 Y74.4216 
G01 X-111.6210 Y74.6071 
G01 X-111.4986 Y74.7754 
G01 X-111.3514 Y74.9226 
G01 X-111.1831 Y75.0450 
G01 X-110.9976 Y75.1395 
G01 X-110.8605 Y75.1840 
G01 X-110.9976 Y75.2285 
G01 X-111.1831 Y75.3230 
G01 X-111.3514 Y75.4454 
G01 X-111.4986 Y75.5926 
G01 X-111.6210 Y75.7609 
G01 X-111.6756 Y75.8683 
G01 X-120.0643 Y75.8683 
G01 X-120.0643 Y63.2629 
G01 X-119.5055 Y62.7041 
G01 X-119.5055 Y61.7559 
G01 X-120.0643 Y61.1971 
G01 X-120.0643 Y60.7229 
G01 X-119.5055 Y60.1641 
G01 X-119.5055 Y59.2159 
G01 X-120.0643 Y58.6571 
G01 X-120.0643 Y58.1829 
G01 X-119.5055 Y57.6241 
G01 X-119.5055 Y56.6759 
G01 X-120.0643 Y56.1171 
G01 X-120.0643 Y55.6429 
G01 X-119.5055 Y55.0841 
G01 X-119.5055 Y54.1359 
G01 X-120.0643 Y53.5771 
G01 X-120.0643 Y53.1029 
G01 X-119.5055 Y52.5441 
G01 X-119.5055 Y51.5959 
G01 X-120.0643 Y51.0371 
G01 X-120.0643 Y50.5629 
G01 X-119.5055 Y50.0041 
G01 X-119.5055 Y49.0559 
G01 X-120.0643 Y48.4971 
G01 X-120.0643 Y48.0229 
G01 X-119.5055 Y47.4641 
G01 X-119.5055 Y46.5159 
G01 X-120.0643 Y45.9571 
G01 X-120.0643 Y45.4829 
G01 X-119.5055 Y44.9241 
G01 X-119.5055 Y43.9759 
G01 X-120.1759 Y43.3055 
G01 X-121.1241 Y43.3055 
G01 X-121.6829 Y43.8643 
G01 X-123.8743 Y43.8643 
G01 X-123.8743 Y34.7681 
G01 X-123.8601 Y34.7609 
G01 X-123.7144 Y34.6550 
G01 X-123.5870 Y34.5276 
G01 X-123.4811 Y34.3819 
G01 X-123.3993 Y34.2214 
G01 X-123.3436 Y34.0500 
G01 X-123.3155 Y33.8721 
G01 X-123.3155 Y32.1679 
G01 X-123.3436 Y31.9900 
G01 X-123.3993 Y31.8186 
G01 X-123.4811 Y31.6581 
G01 X-123.5870 Y31.5124 
G01 X-123.7144 Y31.3850 
G01 X-123.8601 Y31.2791 
G01 X-123.8743 Y31.2719 
G01 X-123.8743 Y28.4181 
G01 X-123.8601 Y28.4109 
G01 X-123.7144 Y28.3050 
G01 X-123.5870 Y28.1776 
G01 X-123.4811 Y28.0319 
G01 X-123.3993 Y27.8713 
G01 X-123.3436 Y27.7000 
G01 X-123.3155 Y27.5221 
G01 X-123.3155 Y25.8179 
G01 X-123.3436 Y25.6400 
G01 X-123.3993 Y25.4686 
G01 X-123.4811 Y25.3081 
G01 X-123.5870 Y25.1624 
G01 X-123.7144 Y25.0350 
G01 X-123.8601 Y24.9291 
G01 X-123.8743 Y24.9219 
G01 X-123.8743 Y22.0681 
G01 X-123.8601 Y22.0609 
G01 X-123.7144 Y21.9550 
G01 X-123.5870 Y21.8276 
G01 X-123.4811 Y21.6819 
G01 X-123.3993 Y21.5214 
G01 X-123.3436 Y21.3500 
G01 X-123.3155 Y21.1721 
G01 X-123.3155 Y19.4679 
G01 X-123.3436 Y19.2900 
G01 X-123.3993 Y19.1186 
G01 X-123.4811 Y18.9581 
G01 X-123.5870 Y18.8124 
G01 X-123.7144 Y18.6850 
G01 X-123.8601 Y18.5791 
G01 X-123.8743 Y18.5719 
G01 X-123.8743 Y15.7181 
G01 X-123.8601 Y15.7109 
G01 X-123.7144 Y15.6050 
G01 X-123.5870 Y15.4776 
G01 X-123.4811 Y15.3319 
G01 X-123.3993 Y15.1714 
G01 X-123.3436 Y15.0000 
G01 X-123.3155 Y14.8221 
G01 X-123.3155 Y13.1179 
G01 X-123.3436 Y12.9400 
G01 X-123.3993 Y12.7686 
G01 X-123.4811 Y12.6081 
G01 X-123.5870 Y12.4624 
G01 X-123.7144 Y12.3350 
G01 X-123.8601 Y12.2291 
G01 X-123.8743 Y12.2219 
G01 X-123.8743 Y-4.4943 
G01 X-90.7557 Y-4.4943 
G01 X-90.7557 Y-3.0181 
G01 X-90.7699 Y-3.0109 
G01 X-90.9156 Y-2.9050 
G01 X-91.0430 Y-2.7776 
G01 X-91.1489 Y-2.6319 
G01 X-91.2307 Y-2.4714 
G01 X-91.2864 Y-2.3000 
G01 X-91.3145 Y-2.1221 
G01 X-91.3145 Y-0.4179 
G01 X-91.2864 Y-0.2400 
G01 X-91.2307 Y-0.0686 
G01 X-91.1489 Y0.0919 
G01 X-91.0430 Y0.2376 
G01 X-90.9156 Y0.3650 
G01 X-90.7699 Y0.4709 
G01 X-90.6094 Y0.5527 
G01 X-90.4380 Y0.6084 
G01 X-90.2601 Y0.6365 
G01 X-90.0799 Y0.6365 
G01 X-89.9020 Y0.6084 
G01 X-89.7306 Y0.5527 
G01 X-89.5701 Y0.4709 
G01 X-89.4244 Y0.3650 
G01 X-89.2970 Y0.2376 
G01 X-89.1911 Y0.0919 
G01 X-89.1093 Y-0.0686 
G01 X-89.0536 Y-0.2400 
G01 X-89.0255 Y-0.4179 
G01 X-89.0255 Y-2.1221 
G01 X-89.0536 Y-2.3000 
G01 X-89.1093 Y-2.4714 
G01 X-89.1911 Y-2.6319 
G01 X-89.2970 Y-2.7776 
G01 X-89.4244 Y-2.9050 
G01 X-89.5701 Y-3.0109 
G01 X-89.5843 Y-3.0181 
G01 X-89.5843 Y-4.4943 
G01 X-60.2757 Y-4.4943 
G01 X-60.2757 Y-3.0181 
G01 X-60.2899 Y-3.0109 
G01 X-60.4356 Y-2.9050 
G01 X-60.5630 Y-2.7776 
G01 X-60.6689 Y-2.6319 
G01 X-60.7507 Y-2.4714 
G01 X-60.8064 Y-2.3000 
G01 X-60.8345 Y-2.1221 
G01 X-60.8345 Y-0.4179 
G01 X-60.8100 Y-0.2628 
G01 X-61.0855 Y-0.6563 
G01 X-61.0855 Y-2.1221 
G01 X-61.1136 Y-2.3000 
G01 X-61.1693 Y-2.4714 
G01 X-61.2511 Y-2.6319 
G01 X-61.3570 Y-2.7776 
G01 X-61.4844 Y-2.9050 
G01 X-61.6301 Y-3.0109 
G01 X-61.6443 Y-3.0181 
G01 X-61.6443 Y-3.8677 
G01 X-61.6668 Y-3.9809 
G01 X-61.7109 Y-4.0875 
G01 X-61.7750 Y-4.1834 
G01 X-61.8566 Y-4.2650 
G01 X-61.9525 Y-4.3291 
G01 X-62.0591 Y-4.3732 
G01 X-62.1723 Y-4.3957 
G01 X-87.6877 Y-4.3957 
G01 X-87.8009 Y-4.3732 
G01 X-87.9074 Y-4.3291 
G01 X-88.0034 Y-4.2650 
G01 X-88.0850 Y-4.1834 
G01 X-88.1491 Y-4.0875 
G01 X-88.1932 Y-3.9809 
G01 X-88.2157 Y-3.8677 
G01 X-88.2157 Y1.9543 
G01 X-92.1243 Y1.9543 
G01 X-92.1243 Y0.4781 
G01 X-92.1101 Y0.4709 
G01 X-91.9644 Y0.3650 
G01 X-91.8370 Y0.2376 
G01 X-91.7311 Y0.0919 
G01 X-91.6493 Y-0.0686 
G01 X-91.5936 Y-0.2400 
G01 X-91.5655 Y-0.4179 
G01 X-91.5655 Y-2.1221 
G01 X-91.5936 Y-2.3000 
G01 X-91.6493 Y-2.4714 
G01 X-91.7311 Y-2.6319 
G01 X-91.8370 Y-2.7776 
G01 X-91.9644 Y-2.9050 
G01 X-92.1101 Y-3.0109 
G01 X-92.1243 Y-3.0181 
G01 X-92.1243 Y-3.8677 
G01 X-92.1468 Y-3.9809 
G01 X-92.1909 Y-4.0875 
G01 X-92.2550 Y-4.1834 
G01 X-92.3366 Y-4.2650 
G01 X-92.4325 Y-4.3291 
G01 X-92.5391 Y-4.3732 
G01 X-92.6523 Y-4.3957 
G01 X-110.5477 Y-4.3957 
G01 X-110.6609 Y-4.3732 
G01 X-110.7675 Y-4.3291 
G01 X-110.8634 Y-4.2650 
G01 X-110.9450 Y-4.1834 
G01 X-111.0091 Y-4.0875 
G01 X-111.0532 Y-3.9809 
G01 X-111.0757 Y-3.8677 
G01 X-111.0757 Y5.1644 
G01 X-111.1831 Y5.2190 
G01 X-111.3514 Y5.3414 
G01 X-111.4986 Y5.4886 
G01 X-111.6210 Y5.6569 
G01 X-111.7155 Y5.8424 
G01 X-111.7798 Y6.0404 
G01 X-111.8123 Y6.2459 
G01 X-111.8123 Y6.4541 
G01 X-111.7798 Y6.6596 
G01 X-111.7155 Y6.8576 
G01 X-111.6210 Y7.0431 
G01 X-111.4986 Y7.2114 
G01 X-111.3514 Y7.3586 
G01 X-111.1831 Y7.4810 
G01 X-111.0757 Y7.5356 
G01 X-111.0757 Y7.7044 
G01 X-111.1831 Y7.7590 
G01 X-111.3514 Y7.8814 
G01 X-111.4986 Y8.0286 
G01 X-111.6210 Y8.1969 
G01 X-111.6756 Y8.3043 
G01 X-121.9777 Y8.3043 
G01 X-122.0909 Y8.3268 
G01 X-122.1975 Y8.3709 
G01 X-122.2934 Y8.4350 
G01 X-122.3750 Y8.5166 
G01 X-122.4391 Y8.6125 
G01 X-122.4832 Y8.7191 
G01 X-122.5057 Y8.8323 
G01 X-122.5057 Y12.2219 
G01 X-122.5199 Y12.2291 
G01 X-122.6656 Y12.3350 
G01 X-122.7930 Y12.4624 
G01 X-122.8989 Y12.6081 
G01 X-122.9807 Y12.7686 
G01 X-123.0364 Y12.9400 
G01 X-123.0645 Y13.1179 
G01 X-123.0645 Y14.8221 
G01 X-123.0364 Y15.0000 
G01 X-122.9807 Y15.1714 
G01 X-122.8989 Y15.3319 
G01 X-122.7930 Y15.4776 
G01 X-122.6656 Y15.6050 
G01 X-122.5199 Y15.7109 
G01 X-122.5057 Y15.7181 
G01 X-122.5057 Y18.5719 
G01 X-122.5199 Y18.5791 
G01 X-122.6656 Y18.6850 
G01 X-122.7930 Y18.8124 
G01 X-122.8989 Y18.9581 
G01 X-122.9807 Y19.1186 
G01 X-123.0364 Y19.2900 
G01 X-123.0645 Y19.4679 
G01 X-123.0645 Y21.1721 
G01 X-123.0364 Y21.3500 
G01 X-122.9807 Y21.5214 
G01 X-122.8989 Y21.6819 
G01 X-122.7930 Y21.8276 
G01 X-122.6656 Y21.9550 
G01 X-122.5199 Y22.0609 
G01 X-122.5057 Y22.0681 
G01 X-122.5057 Y24.9219 
G01 X-122.5199 Y24.9291 
G01 X-122.6656 Y25.0350 
G01 X-122.7930 Y25.1624 
G01 X-122.8989 Y25.3081 
G01 X-122.9807 Y25.4686 
G01 X-123.0364 Y25.6400 
G01 X-123.0645 Y25.8179 
G01 X-123.0645 Y27.5221 
G01 X-123.0364 Y27.7000 
G01 X-122.9807 Y27.8713 
G01 X-122.8989 Y28.0319 
G01 X-122.7930 Y28.1776 
G01 X-122.6656 Y28.3050 
G01 X-122.5199 Y28.4109 
G01 X-122.5057 Y28.4181 
G01 X-122.5057 Y31.2719 
G01 X-122.5199 Y31.2791 
G01 X-122.6656 Y31.3850 
G01 X-122.7930 Y31.5124 
G01 X-122.8989 Y31.6581 
G01 X-122.9807 Y31.8186 
G01 X-123.0364 Y31.9900 
G01 X-123.0645 Y32.1679 
G01 X-123.0645 Y33.8721 
G01 X-123.0364 Y34.0500 
G01 X-122.9807 Y34.2214 
G01 X-122.8989 Y34.3819 
G01 X-122.7930 Y34.5276 
G01 X-122.6656 Y34.6550 
G01 X-122.5199 Y34.7609 
G01 X-122.3594 Y34.8427 
G01 X-122.1880 Y34.8984 
G01 X-122.0101 Y34.9265 
G01 X-121.8299 Y34.9265 
G01 X-121.6520 Y34.8984 
G01 X-121.4806 Y34.8427 
G01 X-121.3201 Y34.7609 
G01 X-121.1744 Y34.6550 
G01 X-121.0470 Y34.5276 
G01 X-120.9411 Y34.3819 
G01 X-120.8593 Y34.2214 
G01 X-120.8036 Y34.0500 
G01 X-120.7755 Y33.8721 
G01 X-120.7755 Y32.1679 
G01 X-120.8036 Y31.9900 
G01 X-120.8593 Y31.8186 
G01 X-120.9411 Y31.6581 
G01 X-121.0470 Y31.5124 
G01 X-121.1744 Y31.3850 
G01 X-121.3201 Y31.2791 
G01 X-121.3343 Y31.2719 
G01 X-121.3343 Y28.4181 
G01 X-121.3201 Y28.4109 
G01 X-121.1744 Y28.3050 
G01 X-121.0470 Y28.1776 
G01 X-120.9411 Y28.0319 
G01 X-120.8593 Y27.8713 
G01 X-120.8036 Y27.7000 
G01 X-120.7755 Y27.5221 
G01 X-120.7755 Y25.8179 
G01 X-120.8036 Y25.6400 
G01 X-120.8593 Y25.4686 
G01 X-120.9411 Y25.3081 
G01 X-121.0470 Y25.1624 
G01 X-121.1744 Y25.0350 
G01 X-121.3201 Y24.9291 
G01 X-121.3343 Y24.9219 
G01 X-121.3343 Y22.0681 
G01 X-121.3201 Y22.0609 
G01 X-121.1744 Y21.9550 
G01 X-121.0470 Y21.8276 
G01 X-120.9411 Y21.6819 
G01 X-120.8593 Y21.5214 
G01 X-120.8036 Y21.3500 
G01 X-120.7755 Y21.1721 
G01 X-120.7755 Y19.4679 
G01 X-120.8036 Y19.2900 
G01 X-120.8593 Y19.1186 
G01 X-120.9411 Y18.9581 
G01 X-121.0470 Y18.8124 
G01 X-121.1744 Y18.6850 
G01 X-121.3201 Y18.5791 
G01 X-121.3343 Y18.5719 
G01 X-121.3343 Y15.7181 
G01 X-121.3201 Y15.7109 
G01 X-121.1744 Y15.6050 
G01 X-121.0470 Y15.4776 
G01 X-120.9411 Y15.3319 
G01 X-120.8593 Y15.1714 
G01 X-120.8036 Y15.0000 
G01 X-120.7755 Y14.8221 
G01 X-120.7755 Y13.1179 
G01 X-120.8036 Y12.9400 
G01 X-120.8593 Y12.7686 
G01 X-120.9411 Y12.6081 
G01 X-121.0470 Y12.4624 
G01 X-121.1744 Y12.3350 
G01 X-121.3201 Y12.2291 
G01 X-121.3343 Y12.2219 
G01 X-121.3343 Y9.4757 
G01 X-111.6756 Y9.4757 
G01 X-111.6210 Y9.5831 
G01 X-111.4986 Y9.7514 
G01 X-111.3514 Y9.8986 
G01 X-111.1831 Y10.0210 
G01 X-110.9976 Y10.1155 
G01 X-110.7996 Y10.1798 
G01 X-110.5941 Y10.2123 
G01 X-110.3859 Y10.2123 
G01 X-110.1804 Y10.1798 
G01 X-109.9824 Y10.1155 
G01 X-109.7969 Y10.0210 
G01 X-109.6286 Y9.8986 
G01 X-109.4814 Y9.7514 
G01 X-109.3590 Y9.5831 
G01 X-109.2723 Y9.4129 
G01 X-109.2723 Y9.4377 
G01 X-108.4977 Y10.2123 
G01 X-107.4023 Y10.2123 
G01 X-106.6800 Y9.4901 
G01 X-105.9577 Y10.2123 
G01 X-104.8623 Y10.2123 
G01 X-104.1400 Y9.4901 
G01 X-103.4177 Y10.2123 
G01 X-102.3223 Y10.2123 
G01 X-101.6000 Y9.4901 
G01 X-100.8777 Y10.2123 
G01 X-99.7823 Y10.2123 
G01 X-99.0600 Y9.4901 
G01 X-98.3377 Y10.2123 
G01 X-97.2423 Y10.2123 
G01 X-96.5200 Y9.4901 
G01 X-95.7977 Y10.2123 
G01 X-94.7023 Y10.2123 
G01 X-93.9800 Y9.4901 
G01 X-93.2577 Y10.2123 
G01 X-92.1623 Y10.2123 
G01 X-91.4400 Y9.4901 
G01 X-90.7177 Y10.2123 
G01 X-89.6223 Y10.2123 
G01 X-88.9000 Y9.4901 
G01 X-88.1777 Y10.2123 
G01 X-87.0823 Y10.2123 
G01 X-86.3600 Y9.4901 
G01 X-85.6377 Y10.2123 
G01 X-84.5423 Y10.2123 
G01 X-83.8200 Y9.4901 
G01 X-83.0977 Y10.2123 
G01 X-82.0023 Y10.2123 
G01 X-81.2800 Y9.4901 
G01 X-80.5577 Y10.2123 
G01 X-79.4623 Y10.2123 
G01 X-78.7400 Y9.4901 
G01 X-78.0177 Y10.2123 
G01 X-76.9223 Y10.2123 
G01 X-76.2000 Y9.4901 
G01 X-75.4777 Y10.2123 
G01 X-74.3823 Y10.2123 
G01 X-73.6600 Y9.4901 
G01 X-72.9377 Y10.2123 
G01 X-71.8423 Y10.2123 
G01 X-71.1200 Y9.4901 
G01 X-70.3977 Y10.2123 
G01 X-70.3849 Y10.2123 
G01 X-70.3849 Y12.7704 
G01 X-70.3485 Y12.9065 
G01 X-70.2781 Y13.0285 
G01 X-70.1785 Y13.1281 
G01 X-70.0565 Y13.1985 
G01 X-69.9204 Y13.2349 
G01 X-64.6996 Y13.2349 
G01 X-64.5635 Y13.1985 
G01 X-64.4415 Y13.1281 
G01 X-64.3419 Y13.0285 
G01 X-64.2715 Y12.9065 
G01 X-64.2351 Y12.7704 
G01 X-64.2351 Y0.5040 
G01 X-64.1701 Y0.4709 
G01 X-64.0244 Y0.3650 
G01 X-63.8970 Y0.2376 
G01 X-63.7911 Y0.0919 
G01 X-63.7093 Y-0.0686 
G01 X-63.6536 Y-0.2400 
G01 X-63.6255 Y-0.4179 
G01 X-63.6255 Y-2.1221 
G01 X-63.6536 Y-2.3000 
G01 X-63.7093 Y-2.4714 
G01 X-63.7911 Y-2.6319 
G01 X-63.8970 Y-2.7776 
G01 X-64.0244 Y-2.9050 
G01 X-64.1701 Y-3.0109 
G01 X-64.3306 Y-3.0927 
G01 X-64.5020 Y-3.1484 
G01 X-64.6799 Y-3.1765 
G01 X-64.8601 Y-3.1765 
G01 X-65.0380 Y-3.1484 
G01 X-65.2094 Y-3.0927 
G01 X-65.3699 Y-3.0109 
G01 X-65.5156 Y-2.9050 
G01 X-65.6430 Y-2.7776 
G01 X-65.7489 Y-2.6319 
G01 X-65.8307 Y-2.4714 
G01 X-65.8864 Y-2.3000 
G01 X-65.9145 Y-2.1221 
G01 X-65.9145 Y-0.4179 
G01 X-65.8864 Y-0.2400 
G01 X-65.8307 Y-0.0686 
G01 X-65.7489 Y0.0919 
G01 X-65.6430 Y0.2376 
G01 X-65.5156 Y0.3650 
G01 X-65.3699 Y0.4709 
G01 X-65.3049 Y0.5040 
G01 X-65.3049 Y12.1651 
G01 X-69.3151 Y12.1651 
G01 X-69.3151 Y10.2123 
G01 X-69.3023 Y10.2123 
G01 X-68.5277 Y9.4377 
G01 X-68.5277 Y9.4129 
G01 X-68.4410 Y9.5831 
G01 X-68.3186 Y9.7514 
G01 X-68.1714 Y9.8986 
G01 X-68.0031 Y10.0210 
G01 X-67.8176 Y10.1155 
G01 X-67.6196 Y10.1798 
G01 X-67.4141 Y10.2123 
G01 X-67.2059 Y10.2123 
G01 X-67.0003 Y10.1798 
G01 X-66.8024 Y10.1155 
G01 X-66.6169 Y10.0210 
G01 X-66.4486 Y9.8986 
G01 X-66.3014 Y9.7514 
G01 X-66.1790 Y9.5831 
G01 X-66.0845 Y9.3976 
G01 X-66.0202 Y9.1996 
G01 X-65.9877 Y8.9941 
G01 X-65.9877 Y8.7859 
G01 X-66.0202 Y8.5804 
G01 X-66.0845 Y8.3824 
G01 X-66.1790 Y8.1969 
G01 X-66.3014 Y8.0286 
G01 X-66.4486 Y7.8814 
G01 X-66.6169 Y7.7590 
G01 X-66.8024 Y7.6645 
G01 X-66.9395 Y7.6200 
G01 X-66.8024 Y7.5755 
G01 X-66.6169 Y7.4810 
G01 X-66.4486 Y7.3586 
G01 X-66.3014 Y7.2114 
G01 X-66.1790 Y7.0431 
G01 X-66.0845 Y6.8576 
G01 X-66.0202 Y6.6596 
G01 X-65.9877 Y6.4541 
G01 X-65.9877 Y6.2459 
G01 X-66.0202 Y6.0404 
G01 X-66.0845 Y5.8424 
G01 X-66.1790 Y5.6569 
G01 X-66.3014 Y5.4886 
G01 X-66.4486 Y5.3414 
G01 X-66.6169 Y5.2190 
G01 X-66.8024 Y5.1245 
G01 X-67.0003 Y5.0602 
G01 X-67.2059 Y5.0277 
G01 X-67.4141 Y5.0277 
G01 X-67.6196 Y5.0602 
G01 X-67.8176 Y5.1245 
G01 X-68.0031 Y5.2190 
G01 X-68.0705 Y5.2680 
G01 X-68.0705 Y3.0749 
G01 X-67.2396 Y3.0749 
G01 X-67.1035 Y3.0385 
G01 X-66.9815 Y2.9681 
G01 X-66.8819 Y2.8685 
G01 X-66.8115 Y2.7465 
G01 X-66.7751 Y2.6104 
G01 X-66.7751 Y0.5040 
G01 X-66.7101 Y0.4709 
G01 X-66.5644 Y0.3650 
G01 X-66.4370 Y0.2376 
G01 X-66.3311 Y0.0919 
G01 X-66.2493 Y-0.0686 
G01 X-66.1936 Y-0.2400 
G01 X-66.1655 Y-0.4179 
G01 X-66.1655 Y-2.1221 
G01 X-66.1936 Y-2.3000 
G01 X-66.2493 Y-2.4714 
G01 X-66.3311 Y-2.6319 
G01 X-66.4370 Y-2.7776 
G01 X-66.5644 Y-2.9050 
G01 X-66.7101 Y-3.0109 
G01 X-66.8706 Y-3.0927 
G01 X-67.0420 Y-3.1484 
G01 X-67.2199 Y-3.1765 
G01 X-67.4001 Y-3.1765 
G01 X-67.5780 Y-3.1484 
G01 X-67.7494 Y-3.0927 
G01 X-67.9099 Y-3.0109 
G01 X-68.0556 Y-2.9050 
G01 X-68.1830 Y-2.7776 
G01 X-68.2889 Y-2.6319 
G01 X-68.3707 Y-2.4714 
G01 X-68.4264 Y-2.3000 
G01 X-68.4545 Y-2.1221 
G01 X-68.4545 Y-0.4179 
G01 X-68.4264 Y-0.2400 
G01 X-68.3707 Y-0.0686 
G01 X-68.2889 Y0.0919 
G01 X-68.1830 Y0.2376 
G01 X-68.0556 Y0.3650 
G01 X-67.9099 Y0.4709 
G01 X-67.8449 Y0.5040 
G01 X-67.8449 Y2.0051 
G01 X-68.6504 Y2.0051 
G01 X-68.7865 Y2.0415 
G01 X-68.9085 Y2.1119 
G01 X-69.0081 Y2.2115 
G01 X-69.0785 Y2.3335 
G01 X-69.1149 Y2.4696 
G01 X-69.1149 Y2.6104 
G01 X-69.0895 Y2.7052 
G01 X-69.0895 Y5.2404 
G01 X-69.3023 Y5.0277 
G01 X-70.3977 Y5.0277 
G01 X-70.6087 Y5.2386 
G01 X-70.5851 Y5.1504 
G01 X-70.5851 Y0.5349 
G01 X-70.3242 Y0.5349 
G01 X-70.2893 Y0.5527 
G01 X-70.1180 Y0.6084 
G01 X-69.9401 Y0.6365 
G01 X-69.7599 Y0.6365 
G01 X-69.5820 Y0.6084 
G01 X-69.4106 Y0.5527 
G01 X-69.2501 Y0.4709 
G01 X-69.1044 Y0.3650 
G01 X-68.9770 Y0.2376 
G01 X-68.8711 Y0.0919 
G01 X-68.7893 Y-0.0686 
G01 X-68.7336 Y-0.2400 
G01 X-68.7055 Y-0.4179 
G01 X-68.7055 Y-2.1221 
G01 X-68.7336 Y-2.3000 
G01 X-68.7893 Y-2.4714 
G01 X-68.8711 Y-2.6319 
G01 X-68.9770 Y-2.7776 
G01 X-69.1044 Y-2.9050 
G01 X-69.2501 Y-3.0109 
G01 X-69.4106 Y-3.0927 
G01 X-69.5820 Y-3.1484 
G01 X-69.7599 Y-3.1765 
G01 X-69.9401 Y-3.1765 
G01 X-70.1180 Y-3.1484 
G01 X-70.2893 Y-3.0927 
G01 X-70.4499 Y-3.0109 
G01 X-70.5956 Y-2.9050 
G01 X-70.7230 Y-2.7776 
G01 X-70.8289 Y-2.6319 
G01 X-70.9107 Y-2.4714 
G01 X-70.9664 Y-2.3000 
G01 X-70.9945 Y-2.1221 
G01 X-70.9945 Y-0.5349 
G01 X-71.1904 Y-0.5349 
G01 X-71.2455 Y-0.5202 
G01 X-71.2455 Y-2.1221 
G01 X-71.2736 Y-2.3000 
G01 X-71.3293 Y-2.4714 
G01 X-71.4111 Y-2.6319 
G01 X-71.5170 Y-2.7776 
G01 X-71.6444 Y-2.9050 
G01 X-71.7901 Y-3.0109 
G01 X-71.9506 Y-3.0927 
G01 X-72.1220 Y-3.1484 
G01 X-72.2999 Y-3.1765 
G01 X-72.4801 Y-3.1765 
G01 X-72.6580 Y-3.1484 
G01 X-72.8294 Y-3.0927 
G01 X-72.9899 Y-3.0109 
G01 X-73.1356 Y-2.9050 
G01 X-73.2630 Y-2.7776 
G01 X-73.3689 Y-2.6319 
G01 X-73.4507 Y-2.4714 
G01 X-73.5064 Y-2.3000 
G01 X-73.5345 Y-2.1221 
G01 X-73.5345 Y-0.4179 
G01 X-73.5064 Y-0.2400 
G01 X-73.4507 Y-0.0686 
G01 X-73.3689 Y0.0919 
G01 X-73.2630 Y0.2376 
G01 X-73.1356 Y0.3650 
G01 X-72.9899 Y0.4709 
G01 X-72.9249 Y0.5040 
G01 X-72.9249 Y3.2751 
G01 X-75.0004 Y3.2751 
G01 X-75.1365 Y3.3115 
G01 X-75.2585 Y3.3819 
G01 X-75.3581 Y3.4815 
G01 X-75.4285 Y3.6035 
G01 X-75.4649 Y3.7396 
G01 X-75.4649 Y5.0277 
G01 X-75.4777 Y5.0277 
G01 X-75.6905 Y5.2404 
G01 X-75.6905 Y3.0749 
G01 X-74.8596 Y3.0749 
G01 X-74.7235 Y3.0385 
G01 X-74.6015 Y2.9681 
G01 X-74.5019 Y2.8685 
G01 X-74.4315 Y2.7465 
G01 X-74.3951 Y2.6104 
G01 X-74.3951 Y0.5040 
G01 X-74.3301 Y0.4709 
G01 X-74.1844 Y0.3650 
G01 X-74.0570 Y0.2376 
G01 X-73.9511 Y0.0919 
G01 X-73.8693 Y-0.0686 
G01 X-73.8136 Y-0.2400 
G01 X-73.7855 Y-0.4179 
G01 X-73.7855 Y-2.1221 
G01 X-73.8136 Y-2.3000 
G01 X-73.8693 Y-2.4714 
G01 X-73.9511 Y-2.6319 
G01 X-74.0570 Y-2.7776 
G01 X-74.1844 Y-2.9050 
G01 X-74.3301 Y-3.0109 
G01 X-74.4906 Y-3.0927 
G01 X-74.6620 Y-3.1484 
G01 X-74.8399 Y-3.1765 
G01 X-75.0201 Y-3.1765 
G01 X-75.1980 Y-3.1484 
G01 X-75.3693 Y-3.0927 
G01 X-75.5299 Y-3.0109 
G01 X-75.6756 Y-2.9050 
G01 X-75.8030 Y-2.7776 
G01 X-75.9089 Y-2.6319 
G01 X-75.9907 Y-2.4714 
G01 X-76.0464 Y-2.3000 
G01 X-76.0745 Y-2.1221 
G01 X-76.0745 Y-0.4179 
G01 X-76.0464 Y-0.2400 
G01 X-75.9907 Y-0.0686 
G01 X-75.9089 Y0.0919 
G01 X-75.8030 Y0.2376 
G01 X-75.6756 Y0.3650 
G01 X-75.5299 Y0.4709 
G01 X-75.4649 Y0.5040 
G01 X-75.4649 Y2.0051 
G01 X-76.2704 Y2.0051 
G01 X-76.4065 Y2.0415 
G01 X-76.5285 Y2.1119 
G01 X-76.6281 Y2.2115 
G01 X-76.6985 Y2.3335 
G01 X-76.7349 Y2.4696 
G01 X-76.7349 Y2.6104 
G01 X-76.7095 Y2.7052 
G01 X-76.7095 Y5.2404 
G01 X-76.8843 Y5.0657 
G01 X-76.8843 Y0.4781 
G01 X-76.8701 Y0.4709 
G01 X-76.7244 Y0.3650 
G01 X-76.5970 Y0.2376 
G01 X-76.4911 Y0.0919 
G01 X-76.4093 Y-0.0686 
G01 X-76.3536 Y-0.2400 
G01 X-76.3255 Y-0.4179 
G01 X-76.3255 Y-2.1221 
G01 X-76.3536 Y-2.3000 
G01 X-76.4093 Y-2.4714 
G01 X-76.4911 Y-2.6319 
G01 X-76.5970 Y-2.7776 
G01 X-76.7244 Y-2.9050 
G01 X-76.8701 Y-3.0109 
G01 X-77.0306 Y-3.0927 
G01 X-77.2020 Y-3.1484 
G01 X-77.3799 Y-3.1765 
G01 X-77.5601 Y-3.1765 
G01 X-77.7380 Y-3.1484 
G01 X-77.9094 Y-3.0927 
G01 X-78.0699 Y-3.0109 
G01 X-78.2156 Y-2.9050 
G01 X-78.3430 Y-2.7776 
G01 X-78.4489 Y-2.6319 
G01 X-78.5307 Y-2.4714 
G01 X-78.5864 Y-2.3000 
G01 X-78.6145 Y-2.1221 
G01 X-78.6145 Y-0.4179 
G01 X-78.5864 Y-0.2400 
G01 X-78.5307 Y-0.0686 
G01 X-78.4489 Y0.0919 
G01 X-78.3430 Y0.2376 
G01 X-78.2156 Y0.3650 
G01 X-78.0699 Y0.4709 
G01 X-78.0557 Y0.4781 
G01 X-78.0557 Y5.0657 
G01 X-78.7400 Y5.7499 
G01 X-79.4623 Y5.0277 
G01 X-80.5577 Y5.0277 
G01 X-81.2800 Y5.7499 
G01 X-82.0023 Y5.0277 
G01 X-83.0977 Y5.0277 
G01 X-83.8200 Y5.7499 
G01 X-84.5423 Y5.0277 
G01 X-85.6377 Y5.0277 
G01 X-86.3600 Y5.7499 
G01 X-87.0823 Y5.0277 
G01 X-88.1777 Y5.0277 
G01 X-88.9000 Y5.7499 
G01 X-89.6223 Y5.0277 
G01 X-90.7177 Y5.0277 
G01 X-91.4400 Y5.7499 
G01 X-92.1623 Y5.0277 
G01 X-93.2577 Y5.0277 
G01 X-93.9800 Y5.7499 
G01 X-94.6643 Y5.0657 
G01 X-94.6643 Y0.4781 
G01 X-94.6501 Y0.4709 
G01 X-94.5044 Y0.3650 
G01 X-94.3770 Y0.2376 
G01 X-94.2711 Y0.0919 
G01 X-94.1893 Y-0.0686 
G01 X-94.1336 Y-0.2400 
G01 X-94.1055 Y-0.4179 
G01 X-94.1055 Y-2.1221 
G01 X-94.1336 Y-2.3000 
G01 X-94.1893 Y-2.4714 
G01 X-94.2711 Y-2.6319 
G01 X-94.3770 Y-2.7776 
G01 X-94.5044 Y-2.9050 
G01 X-94.6501 Y-3.0109 
G01 X-94.8106 Y-3.0927 
G01 X-94.9820 Y-3.1484 
G01 X-95.1599 Y-3.1765 
G01 X-95.3401 Y-3.1765 
G01 X-95.5180 Y-3.1484 
G01 X-95.6894 Y-3.0927 
G01 X-95.8499 Y-3.0109 
G01 X-95.9956 Y-2.9050 
G01 X-96.1230 Y-2.7776 
G01 X-96.2289 Y-2.6319 
G01 X-96.3107 Y-2.4714 
G01 X-96.3664 Y-2.3000 
G01 X-96.3945 Y-2.1221 
G01 X-96.3945 Y-0.4179 
G01 X-96.3664 Y-0.2400 
G01 X-96.3107 Y-0.0686 
G01 X-96.2289 Y0.0919 
G01 X-96.1230 Y0.2376 
G01 X-95.9956 Y0.3650 
G01 X-95.8499 Y0.4709 
G01 X-95.8357 Y0.4781 
G01 X-95.8357 Y5.0657 
G01 X-96.5200 Y5.7499 
G01 X-97.2043 Y5.0657 
G01 X-97.2043 Y0.4781 
G01 X-97.1901 Y0.4709 
G01 X-97.0444 Y0.3650 
G01 X-96.9170 Y0.2376 
G01 X-96.8111 Y0.0919 
G01 X-96.7293 Y-0.0686 
G01 X-96.6736 Y-0.2400 
G01 X-96.6455 Y-0.4179 
G00 Z0.5080 
G00 X-63.5523 Y26.5659 
G01 Z-0.2540 F150.00 
G01 X-63.5523 Y26.7741 
G01 X-63.5198 Y26.9796 
G01 X-63.4555 Y27.1776 
G01 X-63.3610 Y27.3631 
G01 X-63.2386 Y27.5314 
G01 X-63.0914 Y27.6786 
G01 X-62.9231 Y27.8010 
G01 X-62.7376 Y27.8955 
G01 X-62.6005 Y27.9400 
G01 X-62.7376 Y27.9845 
G01 X-62.9231 Y28.0790 
G01 X-63.0914 Y28.2014 
G01 X-63.2386 Y28.3486 
G01 X-63.3610 Y28.5169 
G01 X-63.4555 Y28.7024 
G01 X-63.5198 Y28.9004 
G01 X-63.5523 Y29.1059 
G01 X-63.5523 Y29.3141 
G01 X-63.5198 Y29.5196 
G01 X-63.4555 Y29.7176 
G01 X-63.3610 Y29.9031 
G01 X-63.2386 Y30.0714 
G01 X-63.0914 Y30.2186 
G01 X-62.9231 Y30.3410 
G01 X-62.7376 Y30.4355 
G01 X-62.5396 Y30.4998 
G01 X-62.3341 Y30.5323 
G01 X-62.1259 Y30.5323 
G01 X-61.9204 Y30.4998 
G01 X-61.7224 Y30.4355 
G01 X-61.5369 Y30.3410 
G01 X-61.3686 Y30.2186 
G01 X-61.2214 Y30.0714 
G01 X-61.0990 Y29.9031 
G01 X-61.0045 Y29.7176 
G01 X-60.9402 Y29.5196 
G01 X-60.9077 Y29.3141 
G01 X-60.9077 Y29.1059 
G01 X-60.9402 Y28.9004 
G01 X-61.0045 Y28.7024 
G01 X-61.0990 Y28.5169 
G01 X-61.2214 Y28.3486 
G01 X-61.3686 Y28.2014 
G01 X-61.5369 Y28.0790 
G01 X-61.7224 Y27.9845 
G01 X-61.8595 Y27.9400 
G01 X-61.7224 Y27.8955 
G01 X-61.5369 Y27.8010 
G01 X-61.3686 Y27.6786 
G01 X-61.2214 Y27.5314 
G01 X-61.0990 Y27.3631 
G01 X-61.0045 Y27.1776 
G01 X-60.9402 Y26.9796 
G01 X-60.9077 Y26.7741 
G01 X-60.9077 Y26.5659 
G01 X-60.9402 Y26.3604 
G01 X-61.0045 Y26.1624 
G01 X-61.0990 Y25.9769 
G01 X-61.2214 Y25.8086 
G01 X-61.3686 Y25.6614 
G01 X-61.5369 Y25.5390 
G01 X-61.7224 Y25.4445 
G01 X-61.8595 Y25.4000 
G01 X-61.7224 Y25.3555 
G01 X-61.5369 Y25.2610 
G01 X-61.3686 Y25.1386 
G01 X-61.2214 Y24.9914 
G01 X-61.0990 Y24.8231 
G01 X-61.0045 Y24.6376 
G01 X-60.9402 Y24.4396 
G01 X-60.9077 Y24.2341 
G01 X-60.9077 Y24.0259 
G01 X-60.9402 Y23.8204 
G01 X-61.0045 Y23.6224 
G01 X-61.0990 Y23.4369 
G01 X-61.2214 Y23.2686 
G01 X-61.3686 Y23.1214 
G01 X-61.5369 Y22.9990 
G01 X-61.7224 Y22.9045 
G01 X-61.8595 Y22.8600 
G01 X-61.7224 Y22.8155 
G01 X-61.5369 Y22.7210 
G01 X-61.3686 Y22.5986 
G01 X-61.2214 Y22.4514 
G01 X-61.0990 Y22.2831 
G01 X-61.0045 Y22.0976 
G01 X-60.9402 Y21.8996 
G01 X-60.9077 Y21.6941 
G01 X-60.9077 Y21.4859 
G01 X-60.9402 Y21.2804 
G01 X-61.0045 Y21.0824 
G01 X-61.0990 Y20.8969 
G01 X-61.2214 Y20.7286 
G01 X-61.3686 Y20.5814 
G01 X-61.5369 Y20.4590 
G01 X-61.7224 Y20.3645 
G01 X-61.8595 Y20.3200 
G01 X-61.7224 Y20.2755 
G01 X-61.5369 Y20.1810 
G01 X-61.3686 Y20.0586 
G01 X-61.2214 Y19.9114 
G01 X-61.0990 Y19.7431 
G01 X-61.0045 Y19.5576 
G01 X-60.9402 Y19.3596 
G01 X-60.9077 Y19.1541 
G01 X-60.9077 Y18.9459 
G01 X-60.9402 Y18.7403 
G01 X-61.0045 Y18.5424 
G01 X-61.0990 Y18.3569 
G01 X-61.2214 Y18.1886 
G01 X-61.3686 Y18.0414 
G01 X-61.5369 Y17.9190 
G01 X-61.7224 Y17.8245 
G01 X-61.8595 Y17.7800 
G01 X-61.7224 Y17.7355 
G01 X-61.5369 Y17.6410 
G01 X-61.3686 Y17.5186 
G01 X-61.2214 Y17.3714 
G01 X-61.0990 Y17.2031 
G01 X-61.0045 Y17.0176 
G01 X-60.9402 Y16.8196 
G01 X-60.9077 Y16.6141 
G01 X-60.9077 Y16.4059 
G01 X-60.9402 Y16.2004 
G01 X-61.0045 Y16.0024 
G01 X-61.0990 Y15.8169 
G01 X-61.2214 Y15.6486 
G01 X-61.3686 Y15.5014 
G01 X-61.5369 Y15.3790 
G01 X-61.7224 Y15.2845 
G01 X-61.8595 Y15.2400 
G01 X-61.7224 Y15.1955 
G01 X-61.5369 Y15.1010 
G01 X-61.3686 Y14.9786 
G01 X-61.2214 Y14.8314 
G01 X-61.0990 Y14.6631 
G01 X-61.0045 Y14.4776 
G01 X-60.9402 Y14.2796 
G01 X-60.9077 Y14.0741 
G01 X-60.9077 Y13.8659 
G01 X-60.9402 Y13.6604 
G01 X-61.0045 Y13.4624 
G01 X-61.0990 Y13.2769 
G01 X-61.2214 Y13.1086 
G01 X-61.3686 Y12.9614 
G01 X-61.5369 Y12.8390 
G01 X-61.7224 Y12.7445 
G01 X-61.8595 Y12.7000 
G01 X-61.7224 Y12.6555 
G01 X-61.5369 Y12.5610 
G01 X-61.3686 Y12.4386 
G01 X-61.2214 Y12.2914 
G01 X-61.0990 Y12.1231 
G01 X-61.0045 Y11.9376 
G01 X-60.9402 Y11.7396 
G01 X-60.9077 Y11.5341 
G01 X-60.9077 Y11.3259 
G01 X-60.9402 Y11.1204 
G01 X-61.0045 Y10.9224 
G01 X-61.0990 Y10.7369 
G01 X-61.2214 Y10.5686 
G01 X-61.3686 Y10.4214 
G01 X-61.5369 Y10.2990 
G01 X-61.7224 Y10.2045 
G01 X-61.9204 Y10.1402 
G01 X-62.1259 Y10.1077 
G01 X-62.3341 Y10.1077 
G01 X-62.5396 Y10.1402 
G01 X-62.7376 Y10.2045 
G01 X-62.9231 Y10.2990 
G01 X-63.0914 Y10.4214 
G01 X-63.2386 Y10.5686 
G01 X-63.3610 Y10.7369 
G01 X-63.4555 Y10.9224 
G01 X-63.5198 Y11.1204 
G01 X-63.5523 Y11.3259 
G01 X-63.5523 Y11.5341 
G01 X-63.5198 Y11.7396 
G01 X-63.4555 Y11.9376 
G01 X-63.3610 Y12.1231 
G01 X-63.2386 Y12.2914 
G01 X-63.0914 Y12.4386 
G01 X-62.9231 Y12.5610 
G01 X-62.7376 Y12.6555 
G01 X-62.6005 Y12.7000 
G01 X-62.7376 Y12.7445 
G01 X-62.9231 Y12.8390 
G01 X-63.0914 Y12.9614 
G01 X-63.2386 Y13.1086 
G01 X-63.3610 Y13.2769 
G01 X-63.4555 Y13.4624 
G01 X-63.5198 Y13.6604 
G01 X-63.5523 Y13.8659 
G01 X-63.5523 Y14.0741 
G01 X-63.5198 Y14.2796 
G01 X-63.4555 Y14.4776 
G01 X-63.3610 Y14.6631 
G01 X-63.2386 Y14.8314 
G01 X-63.0914 Y14.9786 
G01 X-62.9231 Y15.1010 
G01 X-62.7376 Y15.1955 
G01 X-62.6005 Y15.2400 
G01 X-62.7376 Y15.2845 
G01 X-62.9231 Y15.3790 
G01 X-63.0914 Y15.5014 
G01 X-63.2386 Y15.6486 
G01 X-63.3610 Y15.8169 
G01 X-63.4555 Y16.0024 
G01 X-63.5198 Y16.2004 
G01 X-63.5523 Y16.4059 
G01 X-63.5523 Y16.6141 
G01 X-63.5198 Y16.8196 
G01 X-63.4555 Y17.0176 
G01 X-63.3610 Y17.2031 
G01 X-63.2386 Y17.3714 
G01 X-63.0914 Y17.5186 
G01 X-62.9231 Y17.6410 
G01 X-62.7376 Y17.7355 
G01 X-62.6005 Y17.7800 
G01 X-62.7376 Y17.8245 
G01 X-62.9231 Y17.9190 
G01 X-63.0914 Y18.0414 
G01 X-63.2386 Y18.1886 
G01 X-63.3610 Y18.3569 
G01 X-63.4555 Y18.5424 
G01 X-63.5198 Y18.7403 
G01 X-63.5523 Y18.9459 
G01 X-63.5523 Y19.1541 
G01 X-63.5198 Y19.3596 
G01 X-63.4555 Y19.5576 
G01 X-63.3610 Y19.7431 
G01 X-63.2386 Y19.9114 
G01 X-63.0914 Y20.0586 
G01 X-62.9231 Y20.1810 
G01 X-62.7376 Y20.2755 
G01 X-62.6005 Y20.3200 
G01 X-62.7376 Y20.3645 
G01 X-62.9231 Y20.4590 
G01 X-63.0914 Y20.5814 
G01 X-63.2386 Y20.7286 
G01 X-63.3610 Y20.8969 
G01 X-63.4555 Y21.0824 
G01 X-63.5198 Y21.2804 
G01 X-63.5523 Y21.4859 
G01 X-63.5523 Y21.6941 
G01 X-63.5198 Y21.8996 
G01 X-63.4555 Y22.0976 
G01 X-63.3610 Y22.2831 
G01 X-63.2386 Y22.4514 
G01 X-63.0914 Y22.5986 
G01 X-62.9231 Y22.7210 
G01 X-62.7376 Y22.8155 
G01 X-62.6005 Y22.8600 
G01 X-62.7376 Y22.9045 
G01 X-62.9231 Y22.9990 
G01 X-63.0914 Y23.1214 
G01 X-63.2386 Y23.2686 
G01 X-63.3610 Y23.4369 
G01 X-63.4555 Y23.6224 
G01 X-63.5198 Y23.8204 
G01 X-63.5523 Y24.0259 
G01 X-63.5523 Y24.2341 
G01 X-63.5198 Y24.4396 
G01 X-63.4555 Y24.6376 
G01 X-63.3610 Y24.8231 
G01 X-63.2386 Y24.9914 
G01 X-63.0914 Y25.1386 
G01 X-62.9231 Y25.2610 
G01 X-62.7376 Y25.3555 
G01 X-62.6005 Y25.4000 
G01 X-62.7376 Y25.4445 
G01 X-62.9231 Y25.5390 
G01 X-63.0914 Y25.6614 
G01 X-63.2386 Y25.8086 
G01 X-63.3610 Y25.9769 
G01 X-63.4555 Y26.1624 
G01 X-63.5198 Y26.3604 
G01 X-63.5523 Y26.5659 
G00 Z0.5080 
G00 X-119.2545 Y54.1359 
G01 Z-0.2540 F150.00 
G01 X-119.2545 Y55.0841 
G01 X-118.5841 Y55.7545 
G01 X-117.6359 Y55.7545 
G01 X-117.0771 Y55.1957 
G01 X-111.6756 Y55.1957 
G01 X-111.6210 Y55.3031 
G01 X-111.4986 Y55.4714 
G01 X-111.3514 Y55.6186 
G01 X-111.1831 Y55.7410 
G01 X-110.9976 Y55.8355 
G01 X-110.8605 Y55.8800 
G01 X-110.9976 Y55.9245 
G01 X-111.1831 Y56.0190 
G01 X-111.3514 Y56.1414 
G01 X-111.4986 Y56.2886 
G01 X-111.6210 Y56.4569 
G01 X-111.6756 Y56.5643 
G01 X-117.0771 Y56.5643 
G01 X-117.6359 Y56.0055 
G01 X-118.5841 Y56.0055 
G01 X-119.2545 Y56.6759 
G01 X-119.2545 Y57.6241 
G01 X-118.5841 Y58.2945 
G01 X-117.6359 Y58.2945 
G01 X-117.0771 Y57.7357 
G01 X-111.6756 Y57.7357 
G01 X-111.6210 Y57.8431 
G01 X-111.4986 Y58.0114 
G01 X-111.3514 Y58.1586 
G01 X-111.1831 Y58.2810 
G01 X-110.9976 Y58.3755 
G01 X-110.7996 Y58.4398 
G01 X-110.5941 Y58.4723 
G01 X-110.3859 Y58.4723 
G01 X-110.1804 Y58.4398 
G01 X-109.9824 Y58.3755 
G01 X-109.7969 Y58.2810 
G01 X-109.6286 Y58.1586 
G01 X-109.4814 Y58.0114 
G01 X-109.3590 Y57.8431 
G01 X-109.2645 Y57.6576 
G01 X-109.2002 Y57.4596 
G01 X-109.1677 Y57.2541 
G01 X-109.1677 Y57.0459 
G01 X-109.2002 Y56.8404 
G01 X-109.2645 Y56.6424 
G01 X-109.3590 Y56.4569 
G01 X-109.4814 Y56.2886 
G01 X-109.6286 Y56.1414 
G01 X-109.7969 Y56.0190 
G01 X-109.9824 Y55.9245 
G01 X-110.1195 Y55.8800 
G01 X-109.9824 Y55.8355 
G01 X-109.7969 Y55.7410 
G01 X-109.6286 Y55.6186 
G01 X-109.4814 Y55.4714 
G01 X-109.3590 Y55.3031 
G01 X-109.2645 Y55.1176 
G01 X-109.2002 Y54.9196 
G01 X-109.1677 Y54.7141 
G01 X-109.1677 Y54.5059 
G01 X-109.2002 Y54.3004 
G01 X-109.2645 Y54.1024 
G01 X-109.3590 Y53.9169 
G01 X-109.4814 Y53.7486 
G01 X-109.6286 Y53.6014 
G01 X-109.7969 Y53.4790 
G01 X-109.9824 Y53.3845 
G01 X-110.1195 Y53.3400 
G01 X-109.9824 Y53.2955 
G01 X-109.7969 Y53.2010 
G01 X-109.6286 Y53.0786 
G01 X-109.4814 Y52.9314 
G01 X-109.3590 Y52.7631 
G01 X-109.2645 Y52.5776 
G01 X-109.2002 Y52.3796 
G01 X-109.1677 Y52.1741 
G01 X-109.1677 Y51.9659 
G01 X-109.2002 Y51.7604 
G01 X-109.2645 Y51.5624 
G01 X-109.3590 Y51.3769 
G01 X-109.4814 Y51.2086 
G01 X-109.6286 Y51.0614 
G01 X-109.7969 Y50.9390 
G01 X-109.9824 Y50.8445 
G01 X-110.1195 Y50.8000 
G01 X-109.9824 Y50.7555 
G01 X-109.7969 Y50.6610 
G01 X-109.6286 Y50.5386 
G01 X-109.4814 Y50.3914 
G01 X-109.3590 Y50.2231 
G01 X-109.2645 Y50.0376 
G01 X-109.2002 Y49.8396 
G01 X-109.1677 Y49.6341 
G01 X-109.1677 Y49.4259 
G01 X-109.2002 Y49.2204 
G01 X-109.2645 Y49.0224 
G01 X-109.3590 Y48.8369 
G01 X-109.4814 Y48.6686 
G01 X-109.6286 Y48.5214 
G01 X-109.7969 Y48.3990 
G01 X-109.9824 Y48.3045 
G01 X-110.1195 Y48.2600 
G01 X-109.9824 Y48.2155 
G01 X-109.7969 Y48.1210 
G01 X-109.6286 Y47.9986 
G01 X-109.4814 Y47.8514 
G01 X-109.3590 Y47.6831 
G01 X-109.2645 Y47.4976 
G01 X-109.2002 Y47.2996 
G01 X-109.1677 Y47.0941 
G01 X-109.1677 Y46.8859 
G01 X-109.2002 Y46.6804 
G01 X-109.2645 Y46.4824 
G01 X-109.3590 Y46.2969 
G01 X-109.4814 Y46.1286 
G01 X-109.6286 Y45.9814 
G01 X-109.7969 Y45.8590 
G01 X-109.9824 Y45.7645 
G01 X-110.1195 Y45.7200 
G01 X-109.9824 Y45.6755 
G01 X-109.7969 Y45.5810 
G01 X-109.6286 Y45.4586 
G01 X-109.4814 Y45.3114 
G01 X-109.3590 Y45.1431 
G01 X-109.2645 Y44.9576 
G01 X-109.2002 Y44.7596 
G01 X-109.1677 Y44.5541 
G01 X-109.1677 Y44.3459 
G01 X-109.2002 Y44.1404 
G01 X-109.2645 Y43.9424 
G01 X-109.3590 Y43.7569 
G01 X-109.4814 Y43.5886 
G01 X-109.6286 Y43.4414 
G01 X-109.7969 Y43.3190 
G01 X-109.9824 Y43.2245 
G01 X-110.1195 Y43.1800 
G01 X-109.9824 Y43.1355 
G01 X-109.7969 Y43.0410 
G01 X-109.6286 Y42.9186 
G01 X-109.4814 Y42.7714 
G01 X-109.3590 Y42.6031 
G01 X-109.2645 Y42.4176 
G01 X-109.2002 Y42.2196 
G01 X-109.1677 Y42.0141 
G01 X-109.1677 Y41.8059 
G01 X-109.2002 Y41.6003 
G01 X-109.2645 Y41.4024 
G01 X-109.3590 Y41.2169 
G01 X-109.4814 Y41.0486 
G01 X-109.6286 Y40.9014 
G01 X-109.7969 Y40.7790 
G01 X-109.9824 Y40.6845 
G01 X-110.1195 Y40.6400 
G01 X-109.9824 Y40.5955 
G01 X-109.7969 Y40.5010 
G01 X-109.6286 Y40.3786 
G01 X-109.4814 Y40.2314 
G01 X-109.3590 Y40.0631 
G01 X-109.2645 Y39.8776 
G01 X-109.2002 Y39.6796 
G01 X-109.1677 Y39.4741 
G01 X-109.1677 Y39.2659 
G01 X-109.2002 Y39.0603 
G01 X-109.2645 Y38.8624 
G01 X-109.3590 Y38.6769 
G01 X-109.4814 Y38.5086 
G01 X-109.6286 Y38.3614 
G01 X-109.7969 Y38.2390 
G01 X-109.9824 Y38.1445 
G01 X-110.1804 Y38.0802 
G01 X-110.3859 Y38.0477 
G01 X-110.5941 Y38.0477 
G01 X-110.7996 Y38.0802 
G01 X-110.9976 Y38.1445 
G01 X-111.1831 Y38.2390 
G01 X-111.3514 Y38.3614 
G01 X-111.4986 Y38.5086 
G01 X-111.6210 Y38.6769 
G01 X-111.7155 Y38.8624 
G01 X-111.7798 Y39.0603 
G01 X-111.8123 Y39.2659 
G01 X-111.8123 Y39.4741 
G01 X-111.7798 Y39.6796 
G01 X-111.7155 Y39.8776 
G01 X-111.6210 Y40.0631 
G01 X-111.4986 Y40.2314 
G01 X-111.3514 Y40.3786 
G01 X-111.1831 Y40.5010 
G01 X-110.9976 Y40.5955 
G01 X-110.8605 Y40.6400 
G01 X-110.9976 Y40.6845 
G01 X-111.1831 Y40.7790 
G01 X-111.3514 Y40.9014 
G01 X-111.4986 Y41.0486 
G01 X-111.6210 Y41.2169 
G01 X-111.7155 Y41.4024 
G01 X-111.7798 Y41.6003 
G01 X-111.8123 Y41.8059 
G01 X-111.8123 Y42.0141 
G01 X-111.7798 Y42.2196 
G01 X-111.7155 Y42.4176 
G01 X-111.6210 Y42.6031 
G01 X-111.4986 Y42.7714 
G01 X-111.3514 Y42.9186 
G01 X-111.1831 Y43.0410 
G01 X-110.9976 Y43.1355 
G01 X-110.8605 Y43.1800 
G01 X-110.9976 Y43.2245 
G01 X-111.1831 Y43.3190 
G01 X-111.3514 Y43.4414 
G01 X-111.4986 Y43.5886 
G01 X-111.6210 Y43.7569 
G01 X-111.6756 Y43.8643 
G01 X-117.0771 Y43.8643 
G01 X-117.6359 Y43.3055 
G01 X-118.5841 Y43.3055 
G01 X-119.2545 Y43.9759 
G01 X-119.2545 Y44.9241 
G01 X-118.5841 Y45.5945 
G01 X-117.6359 Y45.5945 
G01 X-117.0771 Y45.0357 
G01 X-111.6756 Y45.0357 
G01 X-111.6210 Y45.1431 
G01 X-111.4986 Y45.3114 
G01 X-111.3514 Y45.4586 
G01 X-111.1831 Y45.5810 
G01 X-110.9976 Y45.6755 
G01 X-110.8605 Y45.7200 
G01 X-110.9976 Y45.7645 
G01 X-111.1831 Y45.8590 
G01 X-111.3514 Y45.9814 
G01 X-111.4986 Y46.1286 
G01 X-111.6210 Y46.2969 
G01 X-111.6756 Y46.4043 
G01 X-117.0771 Y46.4043 
G01 X-117.6359 Y45.8455 
G01 X-118.5841 Y45.8455 
G01 X-119.2545 Y46.5159 
G01 X-119.2545 Y47.4641 
G01 X-118.5841 Y48.1345 
G01 X-117.6359 Y48.1345 
G01 X-117.0771 Y47.5757 
G01 X-111.6756 Y47.5757 
G01 X-111.6210 Y47.6831 
G01 X-111.4986 Y47.8514 
G01 X-111.3514 Y47.9986 
G01 X-111.1831 Y48.1210 
G01 X-110.9976 Y48.2155 
G01 X-110.8605 Y48.2600 
G01 X-110.9976 Y48.3045 
G01 X-111.1831 Y48.3990 
G01 X-111.3514 Y48.5214 
G01 X-111.4986 Y48.6686 
G01 X-111.6210 Y48.8369 
G01 X-111.6756 Y48.9443 
G01 X-117.0771 Y48.9443 
G01 X-117.6359 Y48.3855 
G01 X-118.5841 Y48.3855 
G01 X-119.2545 Y49.0559 
G01 X-119.2545 Y50.0041 
G01 X-118.5841 Y50.6745 
G01 X-117.6359 Y50.6745 
G01 X-117.0771 Y50.1157 
G01 X-111.6756 Y50.1157 
G01 X-111.6210 Y50.2231 
G01 X-111.4986 Y50.3914 
G01 X-111.3514 Y50.5386 
G01 X-111.1831 Y50.6610 
G01 X-110.9976 Y50.7555 
G01 X-110.8605 Y50.8000 
G01 X-110.9976 Y50.8445 
G01 X-111.1831 Y50.9390 
G01 X-111.3514 Y51.0614 
G01 X-111.4986 Y51.2086 
G01 X-111.6210 Y51.3769 
G01 X-111.6756 Y51.4843 
G01 X-117.0771 Y51.4843 
G01 X-117.6359 Y50.9255 
G01 X-118.5841 Y50.9255 
G01 X-119.2545 Y51.5959 
G01 X-119.2545 Y52.5441 
G01 X-118.5841 Y53.2145 
G01 X-117.6359 Y53.2145 
G01 X-117.0771 Y52.6557 
G01 X-111.6756 Y52.6557 
G01 X-111.6210 Y52.7631 
G01 X-111.4986 Y52.9314 
G01 X-111.3514 Y53.0786 
G01 X-111.1831 Y53.2010 
G01 X-110.9976 Y53.2955 
G01 X-110.8605 Y53.3400 
G01 X-110.9976 Y53.3845 
G01 X-111.1831 Y53.4790 
G01 X-111.3514 Y53.6014 
G01 X-111.4986 Y53.7486 
G01 X-111.6210 Y53.9169 
G01 X-111.6756 Y54.0243 
G01 X-117.0771 Y54.0243 
G01 X-117.6359 Y53.4655 
G01 X-118.5841 Y53.4655 
G01 X-119.2545 Y54.1359 
G00 Z0.5080 
G00 X-91.5685 Y73.5499 
G01 Z-0.2540 F150.00 
G01 X-91.5685 Y73.7701 
G01 X-91.5341 Y73.9875 
G01 X-91.4661 Y74.1969 
G01 X-91.3661 Y74.3930 
G01 X-91.2367 Y74.5711 
G01 X-91.0811 Y74.7267 
G01 X-90.9030 Y74.8561 
G01 X-90.7069 Y74.9561 
G01 X-90.4975 Y75.0241 
G01 X-90.2801 Y75.0585 
G01 X-90.0599 Y75.0585 
G01 X-89.8425 Y75.0241 
G01 X-89.6331 Y74.9561 
G01 X-89.4370 Y74.8561 
G01 X-89.2589 Y74.7267 
G01 X-89.1033 Y74.5711 
G01 X-88.9739 Y74.3930 
G01 X-88.8739 Y74.1969 
G01 X-88.8059 Y73.9875 
G01 X-88.7715 Y73.7701 
G01 X-88.7715 Y73.5499 
G01 X-88.8059 Y73.3325 
G01 X-88.8739 Y73.1231 
G01 X-88.9739 Y72.9270 
G01 X-89.1033 Y72.7489 
G01 X-89.2589 Y72.5933 
G01 X-89.4370 Y72.4639 
G01 X-89.5843 Y72.3888 
G01 X-89.5843 Y68.8340 
G01 X-89.4906 Y68.7659 
G01 X-89.3745 Y68.6498 
G01 X-89.2780 Y68.5170 
G01 X-89.2035 Y68.3708 
G01 X-89.1527 Y68.2146 
G01 X-89.1271 Y68.0525 
G01 X-89.1271 Y66.5675 
G01 X-89.1527 Y66.4054 
G01 X-89.2035 Y66.2492 
G01 X-89.2780 Y66.1030 
G01 X-89.3745 Y65.9702 
G01 X-89.4906 Y65.8541 
G01 X-89.6234 Y65.7576 
G01 X-89.7696 Y65.6831 
G01 X-89.9258 Y65.6323 
G01 X-90.0879 Y65.6067 
G01 X-90.2521 Y65.6067 
G01 X-90.4142 Y65.6323 
G01 X-90.5704 Y65.6831 
G01 X-90.7166 Y65.7576 
G01 X-90.8494 Y65.8541 
G01 X-90.9655 Y65.9702 
G01 X-91.0620 Y66.1030 
G01 X-91.1365 Y66.2492 
G01 X-91.1873 Y66.4054 
G01 X-91.2129 Y66.5675 
G01 X-91.2129 Y68.0525 
G01 X-91.1873 Y68.2146 
G01 X-91.1365 Y68.3708 
G01 X-91.0620 Y68.5170 
G01 X-90.9655 Y68.6498 
G01 X-90.8494 Y68.7659 
G01 X-90.7557 Y68.8340 
G01 X-90.7557 Y72.3888 
G01 X-90.9030 Y72.4639 
G01 X-91.0811 Y72.5933 
G01 X-91.2367 Y72.7489 
G01 X-91.3661 Y72.9270 
G01 X-91.4661 Y73.1231 
G01 X-91.5341 Y73.3325 
G01 X-91.5685 Y73.5499 
G00 Z0.5080 
G00 X-84.0471 Y60.4325 
G01 Z-0.2540 F150.00 
G01 X-84.0471 Y58.9475 
G01 X-84.0727 Y58.7854 
G01 X-84.1235 Y58.6292 
G01 X-84.1980 Y58.4830 
G01 X-84.2945 Y58.3502 
G01 X-84.4106 Y58.2341 
G01 X-84.5434 Y58.1376 
G01 X-84.6896 Y58.0631 
G01 X-84.8458 Y58.0123 
G01 X-85.0079 Y57.9867 
G01 X-85.1721 Y57.9867 
G01 X-85.3342 Y58.0123 
G01 X-85.4904 Y58.0631 
G01 X-85.6366 Y58.1376 
G01 X-85.7694 Y58.2341 
G01 X-85.8855 Y58.3502 
G01 X-85.9820 Y58.4830 
G01 X-86.0565 Y58.6292 
G01 X-86.1073 Y58.7854 
G01 X-86.1329 Y58.9475 
G01 X-86.1329 Y60.4325 
G01 X-86.1073 Y60.5946 
G01 X-86.0565 Y60.7508 
G01 X-85.9820 Y60.8970 
G01 X-85.8855 Y61.0298 
G01 X-85.7694 Y61.1459 
G01 X-85.6366 Y61.2424 
G01 X-85.4904 Y61.3169 
G01 X-85.3342 Y61.3677 
G01 X-85.1721 Y61.3933 
G01 X-85.0079 Y61.3933 
G01 X-84.8458 Y61.3677 
G01 X-84.6896 Y61.3169 
G01 X-84.5434 Y61.2424 
G01 X-84.4106 Y61.1459 
G01 X-84.2945 Y61.0298 
G01 X-84.1980 Y60.8970 
G01 X-84.1235 Y60.7508 
G01 X-84.0727 Y60.5946 
G01 X-84.0471 Y60.4325 
G00 Z0.5080 
G00 X-86.5871 Y60.4325 
G01 Z-0.2540 F150.00 
G01 X-86.5871 Y58.9475 
G01 X-86.6127 Y58.7854 
G01 X-86.6635 Y58.6292 
G01 X-86.7380 Y58.4830 
G01 X-86.8345 Y58.3502 
G01 X-86.9506 Y58.2341 
G01 X-87.0834 Y58.1376 
G01 X-87.2296 Y58.0631 
G01 X-87.3858 Y58.0123 
G01 X-87.5479 Y57.9867 
G01 X-87.7121 Y57.9867 
G01 X-87.8742 Y58.0123 
G01 X-88.0303 Y58.0631 
G01 X-88.1766 Y58.1376 
G01 X-88.3094 Y58.2341 
G01 X-88.4255 Y58.3502 
G01 X-88.5220 Y58.4830 
G01 X-88.5965 Y58.6292 
G01 X-88.6473 Y58.7854 
G01 X-88.6729 Y58.9475 
G01 X-88.6729 Y60.4325 
G01 X-88.6473 Y60.5946 
G01 X-88.5965 Y60.7508 
G01 X-88.5220 Y60.8970 
G01 X-88.4255 Y61.0298 
G01 X-88.3094 Y61.1459 
G01 X-88.1766 Y61.2424 
G01 X-88.0303 Y61.3169 
G01 X-87.8742 Y61.3677 
G01 X-87.7121 Y61.3933 
G01 X-87.5479 Y61.3933 
G01 X-87.3858 Y61.3677 
G01 X-87.2296 Y61.3169 
G01 X-87.0834 Y61.2424 
G01 X-86.9506 Y61.1459 
G01 X-86.8345 Y61.0298 
G01 X-86.7380 Y60.8970 
G01 X-86.6635 Y60.7508 
G01 X-86.6127 Y60.5946 
G01 X-86.5871 Y60.4325 
G00 Z0.5080 
G00 X-99.2871 Y68.0525 
G01 Z-0.2540 F150.00 
G01 X-99.2871 Y66.5675 
G01 X-99.3127 Y66.4054 
G01 X-99.3635 Y66.2492 
G01 X-99.4380 Y66.1030 
G01 X-99.5345 Y65.9702 
G01 X-99.6506 Y65.8541 
G01 X-99.7834 Y65.7576 
G01 X-99.9296 Y65.6831 
G01 X-100.0858 Y65.6323 
G01 X-100.2479 Y65.6067 
G01 X-100.4121 Y65.6067 
G01 X-100.5742 Y65.6323 
G01 X-100.7304 Y65.6831 
G01 X-100.8766 Y65.7576 
G01 X-101.0094 Y65.8541 
G01 X-101.1255 Y65.9702 
G01 X-101.2220 Y66.1030 
G01 X-101.2965 Y66.2492 
G01 X-101.3473 Y66.4054 
G01 X-101.3729 Y66.5675 
G01 X-101.3729 Y68.0525 
G01 X-101.3473 Y68.2146 
G01 X-101.2965 Y68.3708 
G01 X-101.2220 Y68.5170 
G01 X-101.1255 Y68.6498 
G01 X-101.0094 Y68.7659 
G01 X-100.8766 Y68.8624 
G01 X-100.7304 Y68.9369 
G01 X-100.5742 Y68.9877 
G01 X-100.4121 Y69.0133 
G01 X-100.2479 Y69.0133 
G01 X-100.0858 Y68.9877 
G01 X-99.9296 Y68.9369 
G01 X-99.7834 Y68.8624 
G01 X-99.6506 Y68.7659 
G01 X-99.5345 Y68.6498 
G01 X-99.4380 Y68.5170 
G01 X-99.3635 Y68.3708 
G01 X-99.3127 Y68.2146 
G01 X-99.2871 Y68.0525 
G00 Z0.5080 
G00 X-89.1271 Y60.4325 
G01 Z-0.2540 F150.00 
G01 X-89.1271 Y58.9475 
G01 X-89.1527 Y58.7854 
G01 X-89.2035 Y58.6292 
G01 X-89.2780 Y58.4830 
G01 X-89.3745 Y58.3502 
G01 X-89.4906 Y58.2341 
G01 X-89.6234 Y58.1376 
G01 X-89.7696 Y58.0631 
G01 X-89.9258 Y58.0123 
G01 X-90.0879 Y57.9867 
G01 X-90.2521 Y57.9867 
G01 X-90.4142 Y58.0123 
G01 X-90.5704 Y58.0631 
G01 X-90.7166 Y58.1376 
G01 X-90.8494 Y58.2341 
G01 X-90.9655 Y58.3502 
G01 X-91.0620 Y58.4830 
G01 X-91.1365 Y58.6292 
G01 X-91.1873 Y58.7854 
G01 X-91.2129 Y58.9475 
G01 X-91.2129 Y60.4325 
G01 X-91.1873 Y60.5946 
G01 X-91.1365 Y60.7508 
G01 X-91.0620 Y60.8970 
G01 X-90.9655 Y61.0298 
G01 X-90.8494 Y61.1459 
G01 X-90.7166 Y61.2424 
G01 X-90.5704 Y61.3169 
G01 X-90.4142 Y61.3677 
G01 X-90.2521 Y61.3933 
G01 X-90.0879 Y61.3933 
G01 X-89.9258 Y61.3677 
G01 X-89.7696 Y61.3169 
G01 X-89.6234 Y61.2424 
G01 X-89.4906 Y61.1459 
G01 X-89.3745 Y61.0298 
G01 X-89.2780 Y60.8970 
G01 X-89.2035 Y60.7508 
G01 X-89.1527 Y60.5946 
G01 X-89.1271 Y60.4325 
G00 Z0.5080 
G00 X-91.6671 Y60.4325 
G01 Z-0.2540 F150.00 
G01 X-91.6671 Y58.9475 
G01 X-91.6927 Y58.7854 
G01 X-91.7435 Y58.6292 
G01 X-91.8180 Y58.4830 
G01 X-91.9145 Y58.3502 
G01 X-92.0306 Y58.2341 
G01 X-92.1634 Y58.1376 
G01 X-92.3096 Y58.0631 
G01 X-92.4658 Y58.0123 
G01 X-92.6279 Y57.9867 
G01 X-92.7921 Y57.9867 
G01 X-92.9542 Y58.0123 
G01 X-93.1104 Y58.0631 
G01 X-93.2566 Y58.1376 
G01 X-93.3894 Y58.2341 
G01 X-93.5055 Y58.3502 
G01 X-93.6020 Y58.4830 
G01 X-93.6765 Y58.6292 
G01 X-93.7273 Y58.7854 
G01 X-93.7529 Y58.9475 
G01 X-93.7529 Y60.4325 
G01 X-93.7273 Y60.5946 
G01 X-93.6765 Y60.7508 
G01 X-93.6020 Y60.8970 
G01 X-93.5055 Y61.0298 
G01 X-93.3894 Y61.1459 
G01 X-93.2566 Y61.2424 
G01 X-93.1104 Y61.3169 
G01 X-92.9542 Y61.3677 
G01 X-92.7921 Y61.3933 
G01 X-92.6279 Y61.3933 
G01 X-92.4658 Y61.3677 
G01 X-92.3096 Y61.3169 
G01 X-92.1634 Y61.2424 
G01 X-92.0306 Y61.1459 
G01 X-91.9145 Y61.0298 
G01 X-91.8180 Y60.8970 
G01 X-91.7435 Y60.7508 
G01 X-91.6927 Y60.5946 
G01 X-91.6671 Y60.4325 
G00 Z0.5080 
G00 X-96.7471 Y60.4325 
G01 Z-0.2540 F150.00 
G01 X-96.7471 Y58.9475 
G01 X-96.7727 Y58.7854 
G01 X-96.8235 Y58.6292 
G01 X-96.8980 Y58.4830 
G01 X-96.9945 Y58.3502 
G01 X-97.1106 Y58.2341 
G01 X-97.2434 Y58.1376 
G01 X-97.3896 Y58.0631 
G01 X-97.5458 Y58.0123 
G01 X-97.7079 Y57.9867 
G01 X-97.8721 Y57.9867 
G01 X-98.0342 Y58.0123 
G01 X-98.1904 Y58.0631 
G01 X-98.3366 Y58.1376 
G01 X-98.4694 Y58.2341 
G01 X-98.5855 Y58.3502 
G01 X-98.6820 Y58.4830 
G01 X-98.7565 Y58.6292 
G01 X-98.8073 Y58.7854 
G01 X-98.8329 Y58.9475 
G01 X-98.8329 Y60.4325 
G01 X-98.8073 Y60.5946 
G01 X-98.7565 Y60.7508 
G01 X-98.6820 Y60.8970 
G01 X-98.5855 Y61.0298 
G01 X-98.4694 Y61.1459 
G01 X-98.3366 Y61.2424 
G01 X-98.1904 Y61.3169 
G01 X-98.0342 Y61.3677 
G01 X-97.8721 Y61.3933 
G01 X-97.7079 Y61.3933 
G01 X-97.5458 Y61.3677 
G01 X-97.3896 Y61.3169 
G01 X-97.2434 Y61.2424 
G01 X-97.1106 Y61.1459 
G01 X-96.9945 Y61.0298 
G01 X-96.8980 Y60.8970 
G01 X-96.8235 Y60.7508 
G01 X-96.7727 Y60.5946 
G01 X-96.7471 Y60.4325 
G00 Z0.5080 
G00 X-94.2071 Y60.4325 
G01 Z-0.2540 F150.00 
G01 X-94.2071 Y58.9475 
G01 X-94.2327 Y58.7854 
G01 X-94.2835 Y58.6292 
G01 X-94.3580 Y58.4830 
G01 X-94.4545 Y58.3502 
G01 X-94.5706 Y58.2341 
G01 X-94.7034 Y58.1376 
G01 X-94.8496 Y58.0631 
G01 X-95.0058 Y58.0123 
G01 X-95.1679 Y57.9867 
G01 X-95.3321 Y57.9867 
G01 X-95.4942 Y58.0123 
G01 X-95.6504 Y58.0631 
G01 X-95.7966 Y58.1376 
G01 X-95.9294 Y58.2341 
G01 X-96.0455 Y58.3502 
G01 X-96.1420 Y58.4830 
G01 X-96.2165 Y58.6292 
G01 X-96.2673 Y58.7854 
G01 X-96.2929 Y58.9475 
G01 X-96.2929 Y60.4325 
G01 X-96.2673 Y60.5946 
G01 X-96.2165 Y60.7508 
G01 X-96.1420 Y60.8970 
G01 X-96.0455 Y61.0298 
G01 X-95.9294 Y61.1459 
G01 X-95.7966 Y61.2424 
G01 X-95.6504 Y61.3169 
G01 X-95.4942 Y61.3677 
G01 X-95.3321 Y61.3933 
G01 X-95.1679 Y61.3933 
G01 X-95.0058 Y61.3677 
G01 X-94.8496 Y61.3169 
G01 X-94.7034 Y61.2424 
G01 X-94.5706 Y61.1459 
G01 X-94.4545 Y61.0298 
G01 X-94.3580 Y60.8970 
G01 X-94.2835 Y60.7508 
G01 X-94.2327 Y60.5946 
G01 X-94.2071 Y60.4325 
G00 Z0.5080 
G00 X-96.7471 Y68.0525 
G01 Z-0.2540 F150.00 
G01 X-96.7471 Y66.5675 
G01 X-96.7727 Y66.4054 
G01 X-96.8235 Y66.2492 
G01 X-96.8980 Y66.1030 
G01 X-96.9945 Y65.9702 
G01 X-97.1106 Y65.8541 
G01 X-97.2434 Y65.7576 
G01 X-97.3896 Y65.6831 
G01 X-97.5458 Y65.6323 
G01 X-97.7079 Y65.6067 
G01 X-97.8721 Y65.6067 
G01 X-98.0342 Y65.6323 
G01 X-98.1904 Y65.6831 
G01 X-98.3366 Y65.7576 
G01 X-98.4694 Y65.8541 
G01 X-98.5855 Y65.9702 
G01 X-98.6820 Y66.1030 
G01 X-98.7565 Y66.2492 
G01 X-98.8073 Y66.4054 
G01 X-98.8329 Y66.5675 
G01 X-98.8329 Y68.0525 
G01 X-98.8073 Y68.2146 
G01 X-98.7565 Y68.3708 
G01 X-98.6820 Y68.5170 
G01 X-98.5855 Y68.6498 
G01 X-98.4694 Y68.7659 
G01 X-98.3366 Y68.8624 
G01 X-98.1904 Y68.9369 
G01 X-98.0342 Y68.9877 
G01 X-97.8721 Y69.0133 
G01 X-97.7079 Y69.0133 
G01 X-97.5458 Y68.9877 
G01 X-97.3896 Y68.9369 
G01 X-97.2434 Y68.8624 
G01 X-97.1106 Y68.7659 
G01 X-96.9945 Y68.6498 
G01 X-96.8980 Y68.5170 
G01 X-96.8235 Y68.3708 
G01 X-96.7727 Y68.2146 
G01 X-96.7471 Y68.0525 
G00 Z0.5080 
G00 X-91.6671 Y68.0525 
G01 Z-0.2540 F150.00 
G01 X-91.6671 Y66.5675 
G01 X-91.6927 Y66.4054 
G01 X-91.7435 Y66.2492 
G01 X-91.8180 Y66.1030 
G01 X-91.9145 Y65.9702 
G01 X-92.0306 Y65.8541 
G01 X-92.1634 Y65.7576 
G01 X-92.3096 Y65.6831 
G01 X-92.4658 Y65.6323 
G01 X-92.6279 Y65.6067 
G01 X-92.7921 Y65.6067 
G01 X-92.9542 Y65.6323 
G01 X-93.1104 Y65.6831 
G01 X-93.2566 Y65.7576 
G01 X-93.3894 Y65.8541 
G01 X-93.5055 Y65.9702 
G01 X-93.6020 Y66.1030 
G01 X-93.6765 Y66.2492 
G01 X-93.7273 Y66.4054 
G01 X-93.7529 Y66.5675 
G01 X-93.7529 Y68.0525 
G01 X-93.7273 Y68.2146 
G01 X-93.6765 Y68.3708 
G01 X-93.6020 Y68.5170 
G01 X-93.5055 Y68.6498 
G01 X-93.3894 Y68.7659 
G01 X-93.2957 Y68.8340 
G01 X-93.2957 Y70.5343 
G01 X-103.5543 Y70.5343 
G01 X-103.5543 Y68.5815 
G01 X-103.2006 Y68.5815 
G01 X-103.1033 Y68.5555 
G01 X-103.0161 Y68.5051 
G01 X-102.9449 Y68.4339 
G01 X-102.8945 Y68.3467 
G01 X-102.8685 Y68.2494 
G01 X-102.8685 Y66.3706 
G01 X-102.8945 Y66.2733 
G01 X-102.9449 Y66.1861 
G01 X-103.0161 Y66.1149 
G01 X-103.1033 Y66.0645 
G01 X-103.2006 Y66.0385 
G01 X-105.0794 Y66.0385 
G01 X-105.1767 Y66.0645 
G01 X-105.2639 Y66.1149 
G01 X-105.3351 Y66.1861 
G01 X-105.3855 Y66.2733 
G01 X-105.4115 Y66.3706 
G01 X-105.4115 Y68.2494 
G01 X-105.3855 Y68.3467 
G01 X-105.3351 Y68.4339 
G01 X-105.2639 Y68.5051 
G01 X-105.1767 Y68.5555 
G01 X-105.0794 Y68.5815 
G01 X-104.7257 Y68.5815 
G01 X-104.7257 Y71.1777 
G01 X-104.7032 Y71.2909 
G01 X-104.6591 Y71.3975 
G01 X-104.5950 Y71.4934 
G01 X-104.5134 Y71.5750 
G01 X-104.4175 Y71.6391 
G01 X-104.3109 Y71.6832 
G01 X-104.1977 Y71.7057 
G01 X-92.6523 Y71.7057 
G01 X-92.5391 Y71.6832 
G01 X-92.4325 Y71.6391 
G01 X-92.3366 Y71.5750 
G01 X-92.2550 Y71.4934 
G01 X-92.1909 Y71.3975 
G01 X-92.1468 Y71.2909 
G01 X-92.1243 Y71.1777 
G01 X-92.1243 Y68.8340 
G01 X-92.0306 Y68.7659 
G01 X-91.9145 Y68.6498 
G01 X-91.8180 Y68.5170 
G01 X-91.7435 Y68.3708 
G01 X-91.6927 Y68.2146 
G01 X-91.6671 Y68.0525 
G00 Z0.5080 
G00 X-86.5871 Y68.0525 
G01 Z-0.2540 F150.00 
G01 X-86.5871 Y66.5675 
G01 X-86.6127 Y66.4054 
G01 X-86.6635 Y66.2492 
G01 X-86.7380 Y66.1030 
G01 X-86.8345 Y65.9702 
G01 X-86.9506 Y65.8541 
G01 X-87.0443 Y65.7860 
G01 X-87.0443 Y64.7123 
G01 X-87.0668 Y64.5991 
G01 X-87.1109 Y64.4925 
G01 X-87.1750 Y64.3966 
G01 X-87.2566 Y64.3150 
G01 X-87.3525 Y64.2509 
G01 X-87.4591 Y64.2068 
G01 X-87.5723 Y64.1843 
G01 X-95.3077 Y64.1843 
G01 X-95.4209 Y64.2068 
G01 X-95.5275 Y64.2509 
G01 X-95.6234 Y64.3150 
G01 X-95.7050 Y64.3966 
G01 X-95.7691 Y64.4925 
G01 X-95.8132 Y64.5991 
G01 X-95.8357 Y64.7123 
G01 X-95.8357 Y65.7860 
G01 X-95.9294 Y65.8541 
G01 X-96.0455 Y65.9702 
G01 X-96.1420 Y66.1030 
G01 X-96.2165 Y66.2492 
G01 X-96.2673 Y66.4054 
G01 X-96.2929 Y66.5675 
G01 X-96.2929 Y68.0525 
G01 X-96.2673 Y68.2146 
G01 X-96.2165 Y68.3708 
G01 X-96.1420 Y68.5170 
G01 X-96.0455 Y68.6498 
G01 X-95.9294 Y68.7659 
G01 X-95.7966 Y68.8624 
G01 X-95.6504 Y68.9369 
G01 X-95.4942 Y68.9877 
G01 X-95.3321 Y69.0133 
G01 X-95.1679 Y69.0133 
G01 X-95.0058 Y68.9877 
G01 X-94.8496 Y68.9369 
G01 X-94.7034 Y68.8624 
G01 X-94.5706 Y68.7659 
G01 X-94.4545 Y68.6498 
G01 X-94.3580 Y68.5170 
G01 X-94.2835 Y68.3708 
G01 X-94.2327 Y68.2146 
G01 X-94.2071 Y68.0525 
G01 X-94.2071 Y66.5675 
G01 X-94.2327 Y66.4054 
G01 X-94.2835 Y66.2492 
G01 X-94.3580 Y66.1030 
G01 X-94.4545 Y65.9702 
G01 X-94.5706 Y65.8541 
G01 X-94.6643 Y65.7860 
G01 X-94.6643 Y65.3557 
G01 X-88.2157 Y65.3557 
G01 X-88.2157 Y65.7860 
G01 X-88.3094 Y65.8541 
G01 X-88.4255 Y65.9702 
G01 X-88.5220 Y66.1030 
G01 X-88.5965 Y66.2492 
G01 X-88.6473 Y66.4054 
G01 X-88.6729 Y66.5675 
G01 X-88.6729 Y68.0525 
G01 X-88.6473 Y68.2146 
G01 X-88.5965 Y68.3708 
G01 X-88.5220 Y68.5170 
G01 X-88.4255 Y68.6498 
G01 X-88.3094 Y68.7659 
G01 X-88.1766 Y68.8624 
G01 X-88.0303 Y68.9369 
G01 X-87.8742 Y68.9877 
G01 X-87.7121 Y69.0133 
G01 X-87.5479 Y69.0133 
G01 X-87.3858 Y68.9877 
G01 X-87.2296 Y68.9369 
G01 X-87.0834 Y68.8624 
G01 X-86.9506 Y68.7659 
G01 X-86.8345 Y68.6498 
G01 X-86.7380 Y68.5170 
G01 X-86.6635 Y68.3708 
G01 X-86.6127 Y68.2146 
G01 X-86.5871 Y68.0525 
G00 Z0.5080 
G00 X-55.0279 Y33.1455 
G01 Z-0.2540 F150.00 
G01 X-55.2943 Y33.1455 
G01 X-55.2943 Y31.7515 
G01 X-54.9406 Y31.7515 
G01 X-54.8433 Y31.7255 
G01 X-54.7561 Y31.6751 
G01 X-54.6849 Y31.6039 
G01 X-54.6345 Y31.5167 
G01 X-54.6085 Y31.4194 
G01 X-54.6085 Y29.5406 
G01 X-54.6345 Y29.4433 
G01 X-54.6849 Y29.3561 
G01 X-54.7561 Y29.2849 
G01 X-54.8433 Y29.2345 
G01 X-54.9406 Y29.2085 
G01 X-56.8194 Y29.2085 
G01 X-56.9167 Y29.2345 
G01 X-57.0039 Y29.2849 
G01 X-57.0751 Y29.3561 
G01 X-57.1255 Y29.4433 
G01 X-57.1515 Y29.5406 
G01 X-57.1515 Y31.4194 
G01 X-57.1255 Y31.5167 
G01 X-57.0751 Y31.6039 
G01 X-57.0039 Y31.6751 
G01 X-56.9167 Y31.7255 
G01 X-56.8194 Y31.7515 
G01 X-56.4657 Y31.7515 
G01 X-56.4657 Y33.1455 
G01 X-56.7321 Y33.1455 
G01 X-56.9100 Y33.1736 
G01 X-57.0814 Y33.2293 
G01 X-57.2419 Y33.3111 
G01 X-57.3876 Y33.4170 
G01 X-57.5150 Y33.5444 
G01 X-57.6209 Y33.6901 
G01 X-57.7027 Y33.8506 
G01 X-57.7584 Y34.0220 
G01 X-57.7865 Y34.1999 
G01 X-57.7865 Y34.3801 
G01 X-57.7584 Y34.5580 
G01 X-57.7027 Y34.7294 
G01 X-57.6209 Y34.8899 
G01 X-57.5150 Y35.0356 
G01 X-57.3876 Y35.1630 
G01 X-57.2419 Y35.2689 
G01 X-57.0814 Y35.3507 
G01 X-56.9100 Y35.4064 
G01 X-56.7321 Y35.4345 
G01 X-55.0279 Y35.4345 
G01 X-54.8500 Y35.4064 
G01 X-54.6786 Y35.3507 
G01 X-54.5181 Y35.2689 
G01 X-54.3724 Y35.1630 
G01 X-54.2450 Y35.0356 
G01 X-54.1391 Y34.8899 
G01 X-54.0573 Y34.7294 
G01 X-54.0016 Y34.5580 
G01 X-53.9735 Y34.3801 
G01 X-53.9735 Y34.1999 
G01 X-54.0016 Y34.0220 
G01 X-54.0573 Y33.8506 
G01 X-54.1391 Y33.6901 
G01 X-54.2450 Y33.5444 
G01 X-54.3724 Y33.4170 
G01 X-54.5181 Y33.3111 
G01 X-54.6786 Y33.2293 
G01 X-54.8500 Y33.1736 
G01 X-55.0279 Y33.1455 
G00 Z0.5080 
G00 X-73.7304 Y4.5451 
G01 Z-0.2540 F150.00 
G01 X-73.8665 Y4.5815 
G01 X-73.9885 Y4.6519 
G01 X-74.0881 Y4.7515 
G01 X-74.1585 Y4.8735 
G01 X-74.1949 Y5.0096 
G01 X-74.1949 Y5.2150 
G01 X-74.3823 Y5.0277 
G01 X-74.3951 Y5.0277 
G01 X-74.3951 Y4.3449 
G01 X-72.3196 Y4.3449 
G01 X-72.1835 Y4.3085 
G01 X-72.0615 Y4.2381 
G01 X-71.9619 Y4.1385 
G01 X-71.8915 Y4.0165 
G01 X-71.8551 Y3.8804 
G01 X-71.8551 Y0.5040 
G01 X-71.7901 Y0.4709 
G01 X-71.6549 Y0.3727 
G01 X-71.6549 Y4.5451 
G01 X-73.7304 Y4.5451 
G00 Z0.5080 
G00 X-84.0471 Y68.0525 
G01 Z-0.2540 F150.00 
G01 X-84.0471 Y66.5675 
G01 X-84.0727 Y66.4054 
G01 X-84.1235 Y66.2492 
G01 X-84.1980 Y66.1030 
G01 X-84.2945 Y65.9702 
G01 X-84.4106 Y65.8541 
G01 X-84.5043 Y65.7860 
G01 X-84.5043 Y64.0857 
G01 X-65.3557 Y64.0857 
G01 X-65.3557 Y64.8277 
G01 X-65.3332 Y64.9409 
G01 X-65.2891 Y65.0474 
G01 X-65.2250 Y65.1434 
G01 X-65.1434 Y65.2250 
G01 X-65.0474 Y65.2891 
G01 X-64.9409 Y65.3332 
G01 X-64.8277 Y65.3557 
G01 X-63.4156 Y65.3557 
G01 X-63.3610 Y65.4631 
G01 X-63.2386 Y65.6314 
G01 X-63.0914 Y65.7786 
G01 X-62.9231 Y65.9010 
G01 X-62.7376 Y65.9955 
G01 X-62.6005 Y66.0400 
G01 X-62.7376 Y66.0845 
G01 X-62.9231 Y66.1790 
G01 X-63.0914 Y66.3014 
G01 X-63.2386 Y66.4486 
G01 X-63.3610 Y66.6169 
G01 X-63.4555 Y66.8024 
G01 X-63.5198 Y67.0003 
G01 X-63.5523 Y67.2059 
G01 X-63.5523 Y67.4141 
G01 X-63.5198 Y67.6196 
G01 X-63.4555 Y67.8176 
G01 X-63.3610 Y68.0031 
G01 X-63.2386 Y68.1714 
G01 X-63.0914 Y68.3186 
G01 X-62.9231 Y68.4410 
G01 X-62.7376 Y68.5355 
G01 X-62.6005 Y68.5800 
G01 X-62.7376 Y68.6245 
G01 X-62.9231 Y68.7190 
G01 X-63.0914 Y68.8414 
G01 X-63.2386 Y68.9886 
G01 X-63.3610 Y69.1569 
G01 X-63.4555 Y69.3424 
G01 X-63.5198 Y69.5404 
G01 X-63.5523 Y69.7459 
G01 X-63.5523 Y69.9541 
G01 X-63.5198 Y70.1596 
G01 X-63.4555 Y70.3576 
G01 X-63.3610 Y70.5431 
G01 X-63.2386 Y70.7114 
G01 X-63.0914 Y70.8586 
G01 X-62.9231 Y70.9810 
G01 X-62.7376 Y71.0755 
G01 X-62.5396 Y71.1398 
G01 X-62.3341 Y71.1723 
G01 X-62.1259 Y71.1723 
G01 X-61.9204 Y71.1398 
G01 X-61.7224 Y71.0755 
G01 X-61.5369 Y70.9810 
G01 X-61.3686 Y70.8586 
G01 X-61.2214 Y70.7114 
G01 X-61.0990 Y70.5431 
G01 X-61.0045 Y70.3576 
G01 X-60.9402 Y70.1596 
G01 X-60.9077 Y69.9541 
G01 X-60.9077 Y69.7459 
G01 X-60.9402 Y69.5404 
G01 X-61.0045 Y69.3424 
G01 X-61.0990 Y69.1569 
G01 X-61.2214 Y68.9886 
G01 X-61.3686 Y68.8414 
G01 X-61.5369 Y68.7190 
G01 X-61.7224 Y68.6245 
G01 X-61.8595 Y68.5800 
G01 X-61.7224 Y68.5355 
G01 X-61.5369 Y68.4410 
G01 X-61.3686 Y68.3186 
G01 X-61.2214 Y68.1714 
G01 X-61.0990 Y68.0031 
G01 X-61.0045 Y67.8176 
G01 X-60.9402 Y67.6196 
G01 X-60.9077 Y67.4141 
G01 X-60.9077 Y67.2059 
G01 X-60.9402 Y67.0003 
G01 X-61.0045 Y66.8024 
G01 X-61.0990 Y66.6169 
G01 X-61.2214 Y66.4486 
G01 X-61.3686 Y66.3014 
G01 X-61.5369 Y66.1790 
G01 X-61.7224 Y66.0845 
G01 X-61.8595 Y66.0400 
G01 X-61.7224 Y65.9955 
G01 X-61.5369 Y65.9010 
G01 X-61.3686 Y65.7786 
G01 X-61.2214 Y65.6314 
G01 X-61.0990 Y65.4631 
G01 X-61.0444 Y65.3557 
G01 X-56.4657 Y65.3557 
G01 X-56.4657 Y71.9119 
G01 X-56.4799 Y71.9191 
G01 X-56.6256 Y72.0250 
G01 X-56.7530 Y72.1524 
G01 X-56.8589 Y72.2981 
G01 X-56.9407 Y72.4586 
G01 X-56.9964 Y72.6300 
G01 X-57.0245 Y72.8079 
G01 X-57.0245 Y74.5121 
G01 X-56.9964 Y74.6900 
G01 X-56.9407 Y74.8614 
G01 X-56.8589 Y75.0219 
G01 X-56.7530 Y75.1676 
G01 X-56.6256 Y75.2950 
G01 X-56.4799 Y75.4009 
G01 X-56.4657 Y75.4081 
G01 X-56.4657 Y76.9919 
G01 X-56.4799 Y76.9991 
G01 X-56.6256 Y77.1050 
G01 X-56.7530 Y77.2324 
G01 X-56.8589 Y77.3781 
G01 X-56.9407 Y77.5386 
G01 X-56.9964 Y77.7100 
G01 X-57.0245 Y77.8879 
G01 X-57.0245 Y79.5921 
G01 X-56.9964 Y79.7700 
G01 X-56.9407 Y79.9413 
G01 X-56.8589 Y80.1019 
G01 X-56.7530 Y80.2476 
G01 X-56.6256 Y80.3750 
G01 X-56.4799 Y80.4809 
G01 X-56.4657 Y80.4881 
G01 X-56.4657 Y83.3419 
G01 X-56.4799 Y83.3491 
G01 X-56.6256 Y83.4550 
G01 X-56.7530 Y83.5824 
G01 X-56.8589 Y83.7281 
G01 X-56.9407 Y83.8886 
G01 X-56.9964 Y84.0600 
G01 X-57.0245 Y84.2379 
G01 X-57.0245 Y85.9421 
G01 X-56.9964 Y86.1200 
G01 X-56.9407 Y86.2914 
G01 X-56.8589 Y86.4519 
G01 X-56.7530 Y86.5976 
G01 X-56.6256 Y86.7250 
G01 X-56.4799 Y86.8309 
G01 X-56.4657 Y86.8381 
G01 X-56.4657 Y89.6919 
G01 X-56.4799 Y89.6991 
G01 X-56.6256 Y89.8050 
G01 X-56.7530 Y89.9324 
G01 X-56.8589 Y90.0781 
G01 X-56.9407 Y90.2386 
G01 X-56.9964 Y90.4100 
G01 X-57.0245 Y90.5879 
G01 X-57.0245 Y92.2921 
G01 X-56.9964 Y92.4700 
G01 X-56.9407 Y92.6414 
G01 X-56.8589 Y92.8019 
G01 X-56.7530 Y92.9476 
G01 X-56.6256 Y93.0750 
G01 X-56.4799 Y93.1809 
G01 X-56.3194 Y93.2627 
G01 X-56.1480 Y93.3184 
G01 X-55.9701 Y93.3465 
G01 X-55.7899 Y93.3465 
G01 X-55.6120 Y93.3184 
G01 X-55.4406 Y93.2627 
G01 X-55.2801 Y93.1809 
G01 X-55.1344 Y93.0750 
G01 X-55.0070 Y92.9476 
G01 X-54.9011 Y92.8019 
G01 X-54.8193 Y92.6414 
G01 X-54.7636 Y92.4700 
G01 X-54.7355 Y92.2921 
G01 X-54.7355 Y90.5879 
G01 X-54.7636 Y90.4100 
G01 X-54.8193 Y90.2386 
G01 X-54.9011 Y90.0781 
G01 X-55.0070 Y89.9324 
G01 X-55.1344 Y89.8050 
G01 X-55.2801 Y89.6991 
G01 X-55.2943 Y89.6919 
G01 X-55.2943 Y86.8381 
G01 X-55.2801 Y86.8309 
G01 X-55.1344 Y86.7250 
G01 X-55.0070 Y86.5976 
G01 X-54.9011 Y86.4519 
G01 X-54.8193 Y86.2914 
G01 X-54.7636 Y86.1200 
G01 X-54.7355 Y85.9421 
G01 X-54.7355 Y84.2379 
G01 X-54.7636 Y84.0600 
G01 X-54.8193 Y83.8886 
G01 X-54.9011 Y83.7281 
G01 X-55.0070 Y83.5824 
G01 X-55.1344 Y83.4550 
G01 X-55.2801 Y83.3491 
G01 X-55.2943 Y83.3419 
G01 X-55.2943 Y80.4881 
G01 X-55.2801 Y80.4809 
G01 X-55.1344 Y80.3750 
G01 X-55.0070 Y80.2476 
G01 X-54.9011 Y80.1019 
G01 X-54.8193 Y79.9413 
G01 X-54.7636 Y79.7700 
G01 X-54.7355 Y79.5921 
G01 X-54.7355 Y77.8879 
G01 X-54.7636 Y77.7100 
G01 X-54.8193 Y77.5386 
G01 X-54.9011 Y77.3781 
G01 X-55.0070 Y77.2324 
G01 X-55.1344 Y77.1050 
G01 X-55.2801 Y76.9991 
G01 X-55.2943 Y76.9919 
G01 X-55.2943 Y75.4081 
G01 X-55.2801 Y75.4009 
G01 X-55.1344 Y75.2950 
G01 X-55.0070 Y75.1676 
G01 X-54.9011 Y75.0219 
G01 X-54.8193 Y74.8614 
G01 X-54.7636 Y74.6900 
G01 X-54.7355 Y74.5121 
G01 X-54.7355 Y72.8079 
G01 X-54.7636 Y72.6300 
G01 X-54.8193 Y72.4586 
G01 X-54.9011 Y72.2981 
G01 X-55.0070 Y72.1524 
G01 X-55.1344 Y72.0250 
G01 X-55.2801 Y71.9191 
G01 X-55.2943 Y71.9119 
G01 X-55.2943 Y64.7123 
G01 X-55.3168 Y64.5991 
G01 X-55.3609 Y64.4925 
G01 X-55.4250 Y64.3966 
G01 X-55.5066 Y64.3150 
G01 X-55.6025 Y64.2509 
G01 X-55.7091 Y64.2068 
G01 X-55.8223 Y64.1843 
G01 X-61.0444 Y64.1843 
G01 X-61.0990 Y64.0769 
G01 X-61.2214 Y63.9086 
G01 X-61.3686 Y63.7614 
G01 X-61.5369 Y63.6390 
G01 X-61.7224 Y63.5445 
G01 X-61.8595 Y63.5000 
G01 X-61.7224 Y63.4555 
G01 X-61.5369 Y63.3610 
G01 X-61.3686 Y63.2386 
G01 X-61.2214 Y63.0914 
G01 X-61.0990 Y62.9231 
G01 X-61.0444 Y62.8157 
G01 X-53.9257 Y62.8157 
G01 X-53.9257 Y71.9119 
G01 X-53.9399 Y71.9191 
G01 X-54.0856 Y72.0250 
G01 X-54.2130 Y72.1524 
G01 X-54.3189 Y72.2981 
G01 X-54.4007 Y72.4586 
G01 X-54.4564 Y72.6300 
G01 X-54.4845 Y72.8079 
G01 X-54.4845 Y74.5121 
G01 X-54.4564 Y74.6900 
G01 X-54.4007 Y74.8614 
G01 X-54.3189 Y75.0219 
G01 X-54.2130 Y75.1676 
G01 X-54.0856 Y75.2950 
G01 X-53.9399 Y75.4009 
G01 X-53.9257 Y75.4081 
G01 X-53.9257 Y76.9919 
G01 X-53.9399 Y76.9991 
G01 X-54.0856 Y77.1050 
G01 X-54.2130 Y77.2324 
G01 X-54.3189 Y77.3781 
G01 X-54.4007 Y77.5386 
G01 X-54.4564 Y77.7100 
G01 X-54.4845 Y77.8879 
G01 X-54.4845 Y79.5921 
G01 X-54.4564 Y79.7700 
G01 X-54.4007 Y79.9413 
G01 X-54.3189 Y80.1019 
G01 X-54.2130 Y80.2476 
G01 X-54.0856 Y80.3750 
G01 X-53.9399 Y80.4809 
G01 X-53.9257 Y80.4881 
