( This gcode generated by C:/Program Files (x86)/EAGLE-6.4.0/ulp/pcb-gcode.ulp )
( Copyright 2005 by John Johnson. See readme.txt for licensing terms. )

( T01 3.200000 )
( T02 0.600000 )
( T03 0.812800 )
( T04 1.016000 )
( T05 1.400000 )
G21

G90
M05
G00 X139.7000 Y86.3600 Z193.0400 
M06 T01  ; 3.2000 
G00 Z0.5080 
M03
G04 P3.000000
G00 Z0.508000
G00 X-62.2300 Y6.3500 
G01 Z-3.0480 F50.00 
G01 Z0.508000
(R0.5080  P10.000000)
(G00 Z0.508000)
G00 X-62.2300 Y88.9000 
G01 Z-3.048000
G01 Z0.508000
(G00 Z0.508000)
G00 X-67.3100 Y36.8300 
G01 Z-3.048000
G01 Z0.508000
(G00 Z0.508000)
G00 X-95.2500 Y36.8300 
G01 Z-3.048000
G01 Z0.508000
(G00 Z0.508000)
G00 X-110.4900 Y87.6300 
G01 Z-3.048000
G01 Z0.508000
(G00 Z0.508000)
G00 X-110.4900 Y12.7000 
G01 Z-3.048000
G01 Z0.508000
M05
G00 X139.7000 Y86.3600 Z193.0400 
M06 T02  ; 0.6000 
G00 Z0.5080 
M03
G04 P3.000000
G00 Z0.508000
G00 X-55.8800 Y30.4800 
G01 Z-3.0480 F50.00 
G01 Z0.508000
(R0.5080  P10.000000)
(G00 Z0.508000)
G00 X-55.8800 Y30.4800 
G01 Z-3.048000
G01 Z0.508000
(G00 Z0.508000)
G00 X-67.3100 Y30.4800 
G01 Z-3.048000
G01 Z0.508000
(G00 Z0.508000)
G00 X-67.3100 Y30.4800 
G01 Z-3.048000
G01 Z0.508000
(G00 Z0.508000)
G00 X-81.2800 Y55.8800 
G01 Z-3.048000
G01 Z0.508000
(G00 Z0.508000)
G00 X-81.2800 Y66.0400 
G01 Z-3.048000
G01 Z0.508000
(G00 Z0.508000)
G00 X-104.1400 Y57.1500 
G01 Z-3.048000
G01 Z0.508000
(G00 Z0.508000)
G00 X-104.1400 Y67.3100 
G01 Z-3.048000
G01 Z0.508000
M05
G00 X139.7000 Y86.3600 Z193.0400 
M06 T03  ; 0.8128 
G00 Z0.5080 
M03
G04 P3.000000
G00 Z0.508000
G00 X-66.0400 Y71.1200 
G01 Z-3.0480 F50.00 
G01 Z0.508000
(R0.5080  P10.000000)
(G00 Z0.508000)
G00 X-66.0400 Y78.7400 
G01 Z-3.048000
G01 Z0.508000
(G00 Z0.508000)
G00 X-67.3100 Y82.5500 
G01 Z-3.048000
G01 Z0.508000
(G00 Z0.508000)
G00 X-68.5800 Y71.1200 
G01 Z-3.048000
G01 Z0.508000
(G00 Z0.508000)
G00 X-68.5800 Y78.7400 
G01 Z-3.048000
G01 Z0.508000
(G00 Z0.508000)
G00 X-71.1200 Y71.1200 
G01 Z-3.048000
G01 Z0.508000
(G00 Z0.508000)
G00 X-71.1200 Y78.7400 
G01 Z-3.048000
G01 Z0.508000
(G00 Z0.508000)
G00 X-73.6600 Y71.1200 
G01 Z-3.048000
G01 Z0.508000
(G00 Z0.508000)
G00 X-73.6600 Y78.7400 
G01 Z-3.048000
G01 Z0.508000
(G00 Z0.508000)
G00 X-74.9300 Y82.5500 
G01 Z-3.048000
G01 Z0.508000
(G00 Z0.508000)
G00 X-81.2800 Y21.5900 
G01 Z-3.048000
G01 Z0.508000
(G00 Z0.508000)
G00 X-81.2800 Y29.2100 
G01 Z-3.048000
G01 Z0.508000
(G00 Z0.508000)
G00 X-83.8200 Y21.5900 
G01 Z-3.048000
G01 Z0.508000
(G00 Z0.508000)
G00 X-83.8200 Y29.2100 
G01 Z-3.048000
G01 Z0.508000
(G00 Z0.508000)
G00 X-85.0900 Y59.6900 
G01 Z-3.048000
G01 Z0.508000
(G00 Z0.508000)
G00 X-85.0900 Y67.3100 
G01 Z-3.048000
G01 Z0.508000
(G00 Z0.508000)
G00 X-86.3600 Y21.5900 
G01 Z-3.048000
G01 Z0.508000
(G00 Z0.508000)
G00 X-86.3600 Y29.2100 
G01 Z-3.048000
G01 Z0.508000
(G00 Z0.508000)
G00 X-87.6300 Y59.6900 
G01 Z-3.048000
G01 Z0.508000
(G00 Z0.508000)
G00 X-87.6300 Y67.3100 
G01 Z-3.048000
G01 Z0.508000
(G00 Z0.508000)
G00 X-88.9000 Y21.5900 
G01 Z-3.048000
G01 Z0.508000
(G00 Z0.508000)
G00 X-88.9000 Y29.2100 
G01 Z-3.048000
G01 Z0.508000
(G00 Z0.508000)
G00 X-90.1700 Y59.6900 
G01 Z-3.048000
G01 Z0.508000
(G00 Z0.508000)
G00 X-90.1700 Y67.3100 
G01 Z-3.048000
G01 Z0.508000
(G00 Z0.508000)
G00 X-92.7100 Y59.6900 
G01 Z-3.048000
G01 Z0.508000
(G00 Z0.508000)
G00 X-92.7100 Y67.3100 
G01 Z-3.048000
G01 Z0.508000
(G00 Z0.508000)
G00 X-95.2500 Y59.6900 
G01 Z-3.048000
G01 Z0.508000
(G00 Z0.508000)
G00 X-95.2500 Y67.3100 
G01 Z-3.048000
G01 Z0.508000
(G00 Z0.508000)
G00 X-97.7900 Y59.6900 
G01 Z-3.048000
G01 Z0.508000
(G00 Z0.508000)
G00 X-97.7900 Y67.3100 
G01 Z-3.048000
G01 Z0.508000
(G00 Z0.508000)
G00 X-100.3300 Y59.6900 
G01 Z-3.048000
G01 Z0.508000
(G00 Z0.508000)
G00 X-100.3300 Y67.3100 
G01 Z-3.048000
G01 Z0.508000
M05
G00 X139.7000 Y86.3600 Z193.0400 
M06 T04  ; 1.0160 
G00 Z0.5080 
M03
G04 P3.000000
G00 Z0.508000
G00 X-53.3400 Y73.6600 
G01 Z-3.0480 F50.00 
G01 Z0.508000
(R0.5080  P10.000000)
(G00 Z0.508000)
G00 X-53.3400 Y78.7400 
G01 Z-3.048000
G01 Z0.508000
(G00 Z0.508000)
G00 X-53.3400 Y85.0900 
G01 Z-3.048000
G01 Z0.508000
(G00 Z0.508000)
G00 X-53.3400 Y91.4400 
G01 Z-3.048000
G01 Z0.508000
(G00 Z0.508000)
G00 X-55.8800 Y34.2900 
G01 Z-3.048000
G01 Z0.508000
(G00 Z0.508000)
G00 X-55.8800 Y36.8300 
G01 Z-3.048000
G01 Z0.508000
(G00 Z0.508000)
G00 X-55.8800 Y39.3700 
G01 Z-3.048000
G01 Z0.508000
(G00 Z0.508000)
G00 X-55.8800 Y41.9100 
G01 Z-3.048000
G01 Z0.508000
(G00 Z0.508000)
G00 X-55.8800 Y44.4500 
G01 Z-3.048000
G01 Z0.508000
(G00 Z0.508000)
G00 X-55.8800 Y46.9900 
G01 Z-3.048000
G01 Z0.508000
(G00 Z0.508000)
G00 X-55.8800 Y49.5300 
G01 Z-3.048000
G01 Z0.508000
(G00 Z0.508000)
G00 X-55.8800 Y52.0700 
G01 Z-3.048000
G01 Z0.508000
(G00 Z0.508000)
G00 X-55.8800 Y73.6600 
G01 Z-3.048000
G01 Z0.508000
(G00 Z0.508000)
G00 X-55.8800 Y78.7400 
G01 Z-3.048000
G01 Z0.508000
(G00 Z0.508000)
G00 X-55.8800 Y85.0900 
G01 Z-3.048000
G01 Z0.508000
(G00 Z0.508000)
G00 X-55.8800 Y91.4400 
G01 Z-3.048000
G01 Z0.508000
(G00 Z0.508000)
G00 X-59.6900 Y-1.2700 
G01 Z-3.048000
G01 Z0.508000
(G00 Z0.508000)
G00 X-62.2300 Y-1.2700 
G01 Z-3.048000
G01 Z0.508000
(G00 Z0.508000)
G00 X-62.2300 Y34.2900 
G01 Z-3.048000
G01 Z0.508000
(G00 Z0.508000)
G00 X-62.2300 Y36.8300 
G01 Z-3.048000
G01 Z0.508000
(G00 Z0.508000)
G00 X-62.2300 Y39.3700 
G01 Z-3.048000
G01 Z0.508000
(G00 Z0.508000)
G00 X-62.2300 Y41.9100 
G01 Z-3.048000
G01 Z0.508000
(G00 Z0.508000)
G00 X-62.2300 Y44.4500 
G01 Z-3.048000
G01 Z0.508000
(G00 Z0.508000)
G00 X-62.2300 Y46.9900 
G01 Z-3.048000
G01 Z0.508000
(G00 Z0.508000)
G00 X-62.2300 Y49.5300 
G01 Z-3.048000
G01 Z0.508000
(G00 Z0.508000)
G00 X-62.2300 Y52.0700 
G01 Z-3.048000
G01 Z0.508000
(G00 Z0.508000)
G00 X-62.2300 Y57.1500 
G01 Z-3.048000
G01 Z0.508000
(G00 Z0.508000)
G00 X-62.2300 Y59.6900 
G01 Z-3.048000
G01 Z0.508000
(G00 Z0.508000)
G00 X-62.2300 Y62.2300 
G01 Z-3.048000
G01 Z0.508000
(G00 Z0.508000)
G00 X-62.2300 Y64.7700 
G01 Z-3.048000
G01 Z0.508000
(G00 Z0.508000)
G00 X-62.2300 Y67.3100 
G01 Z-3.048000
G01 Z0.508000
(G00 Z0.508000)
G00 X-62.2300 Y69.8500 
G01 Z-3.048000
G01 Z0.508000
(G00 Z0.508000)
G00 X-62.2300 Y11.4300 
G01 Z-3.048000
G01 Z0.508000
(G00 Z0.508000)
G00 X-62.2300 Y13.9700 
G01 Z-3.048000
G01 Z0.508000
(G00 Z0.508000)
G00 X-62.2300 Y16.5100 
G01 Z-3.048000
G01 Z0.508000
(G00 Z0.508000)
G00 X-62.2300 Y19.0500 
G01 Z-3.048000
G01 Z0.508000
(G00 Z0.508000)
G00 X-62.2300 Y21.5900 
G01 Z-3.048000
G01 Z0.508000
(G00 Z0.508000)
G00 X-62.2300 Y24.1300 
G01 Z-3.048000
G01 Z0.508000
(G00 Z0.508000)
G00 X-62.2300 Y26.6700 
G01 Z-3.048000
G01 Z0.508000
(G00 Z0.508000)
G00 X-62.2300 Y29.2100 
G01 Z-3.048000
G01 Z0.508000
(G00 Z0.508000)
G00 X-64.7700 Y-1.2700 
G01 Z-3.048000
G01 Z0.508000
(G00 Z0.508000)
G00 X-67.3100 Y-1.2700 
G01 Z-3.048000
G01 Z0.508000
(G00 Z0.508000)
G00 X-67.3100 Y6.3500 
G01 Z-3.048000
G01 Z0.508000
(G00 Z0.508000)
G00 X-67.3100 Y66.0400 
G01 Z-3.048000
G01 Z0.508000
(G00 Z0.508000)
G00 X-67.3100 Y8.8900 
G01 Z-3.048000
G01 Z0.508000
(G00 Z0.508000)
G00 X-69.8500 Y-1.2700 
G01 Z-3.048000
G01 Z0.508000
(G00 Z0.508000)
G00 X-69.8500 Y6.3500 
G01 Z-3.048000
G01 Z0.508000
(G00 Z0.508000)
G00 X-69.8500 Y8.8900 
G01 Z-3.048000
G01 Z0.508000
(G00 Z0.508000)
G00 X-72.3900 Y-1.2700 
G01 Z-3.048000
G01 Z0.508000
(G00 Z0.508000)
G00 X-72.3900 Y6.3500 
G01 Z-3.048000
G01 Z0.508000
(G00 Z0.508000)
G00 X-72.3900 Y8.8900 
G01 Z-3.048000
G01 Z0.508000
(G00 Z0.508000)
G00 X-74.9300 Y-1.2700 
G01 Z-3.048000
G01 Z0.508000
(G00 Z0.508000)
G00 X-74.9300 Y6.3500 
G01 Z-3.048000
G01 Z0.508000
(G00 Z0.508000)
G00 X-74.9300 Y66.0400 
G01 Z-3.048000
G01 Z0.508000
(G00 Z0.508000)
G00 X-74.9300 Y8.8900 
G01 Z-3.048000
G01 Z0.508000
(G00 Z0.508000)
G00 X-77.4700 Y-1.2700 
G01 Z-3.048000
G01 Z0.508000
(G00 Z0.508000)
G00 X-77.4700 Y6.3500 
G01 Z-3.048000
G01 Z0.508000
(G00 Z0.508000)
G00 X-77.4700 Y8.8900 
G01 Z-3.048000
G01 Z0.508000
(G00 Z0.508000)
G00 X-78.7400 Y74.9300 
G01 Z-3.048000
G01 Z0.508000
(G00 Z0.508000)
G00 X-78.7400 Y82.5500 
G01 Z-3.048000
G01 Z0.508000
(G00 Z0.508000)
G00 X-80.0100 Y6.3500 
G01 Z-3.048000
G01 Z0.508000
(G00 Z0.508000)
G00 X-80.0100 Y8.8900 
G01 Z-3.048000
G01 Z0.508000
(G00 Z0.508000)
G00 X-82.5500 Y6.3500 
G01 Z-3.048000
G01 Z0.508000
(G00 Z0.508000)
G00 X-82.5500 Y8.8900 
G01 Z-3.048000
G01 Z0.508000
(G00 Z0.508000)
G00 X-85.0900 Y6.3500 
G01 Z-3.048000
G01 Z0.508000
(G00 Z0.508000)
G00 X-85.0900 Y8.8900 
G01 Z-3.048000
G01 Z0.508000
(G00 Z0.508000)
G00 X-87.6300 Y6.3500 
G01 Z-3.048000
G01 Z0.508000
(G00 Z0.508000)
G00 X-87.6300 Y8.8900 
G01 Z-3.048000
G01 Z0.508000
(G00 Z0.508000)
G00 X-90.1700 Y-1.2700 
G01 Z-3.048000
G01 Z0.508000
(G00 Z0.508000)
G00 X-90.1700 Y6.3500 
G01 Z-3.048000
G01 Z0.508000
(G00 Z0.508000)
G00 X-90.1700 Y73.6600 
G01 Z-3.048000
G01 Z0.508000
(G00 Z0.508000)
G00 X-90.1700 Y81.2800 
G01 Z-3.048000
G01 Z0.508000
(G00 Z0.508000)
G00 X-90.1700 Y8.8900 
G01 Z-3.048000
G01 Z0.508000
(G00 Z0.508000)
G00 X-92.7100 Y-1.2700 
G01 Z-3.048000
G01 Z0.508000
(G00 Z0.508000)
G00 X-92.7100 Y6.3500 
G01 Z-3.048000
G01 Z0.508000
(G00 Z0.508000)
G00 X-92.7100 Y8.8900 
G01 Z-3.048000
G01 Z0.508000
(G00 Z0.508000)
G00 X-95.2500 Y-1.2700 
G01 Z-3.048000
G01 Z0.508000
(G00 Z0.508000)
G00 X-95.2500 Y6.3500 
G01 Z-3.048000
G01 Z0.508000
(G00 Z0.508000)
G00 X-95.2500 Y8.8900 
G01 Z-3.048000
G01 Z0.508000
(G00 Z0.508000)
G00 X-97.7900 Y-1.2700 
G01 Z-3.048000
G01 Z0.508000
(G00 Z0.508000)
G00 X-97.7900 Y6.3500 
G01 Z-3.048000
G01 Z0.508000
(G00 Z0.508000)
G00 X-97.7900 Y8.8900 
G01 Z-3.048000
G01 Z0.508000
(G00 Z0.508000)
G00 X-99.0600 Y73.6600 
G01 Z-3.048000
G01 Z0.508000
(G00 Z0.508000)
G00 X-99.0600 Y81.2800 
G01 Z-3.048000
G01 Z0.508000
(G00 Z0.508000)
G00 X-100.3300 Y-1.2700 
G01 Z-3.048000
G01 Z0.508000
(G00 Z0.508000)
G00 X-100.3300 Y6.3500 
G01 Z-3.048000
G01 Z0.508000
(G00 Z0.508000)
G00 X-100.3300 Y8.8900 
G01 Z-3.048000
G01 Z0.508000
(G00 Z0.508000)
G00 X-102.8700 Y-1.2700 
G01 Z-3.048000
G01 Z0.508000
(G00 Z0.508000)
G00 X-102.8700 Y6.3500 
G01 Z-3.048000
G01 Z0.508000
(G00 Z0.508000)
G00 X-102.8700 Y8.8900 
G01 Z-3.048000
G01 Z0.508000
(G00 Z0.508000)
G00 X-105.4100 Y-1.2700 
G01 Z-3.048000
G01 Z0.508000
(G00 Z0.508000)
G00 X-105.4100 Y6.3500 
G01 Z-3.048000
G01 Z0.508000
(G00 Z0.508000)
G00 X-105.4100 Y8.8900 
G01 Z-3.048000
G01 Z0.508000
(G00 Z0.508000)
G00 X-107.9500 Y-1.2700 
G01 Z-3.048000
G01 Z0.508000
(G00 Z0.508000)
G00 X-107.9500 Y6.3500 
G01 Z-3.048000
G01 Z0.508000
(G00 Z0.508000)
G00 X-107.9500 Y8.8900 
G01 Z-3.048000
G01 Z0.508000
(G00 Z0.508000)
G00 X-110.4900 Y31.7500 
G01 Z-3.048000
G01 Z0.508000
(G00 Z0.508000)
G00 X-110.4900 Y34.2900 
G01 Z-3.048000
G01 Z0.508000
(G00 Z0.508000)
G00 X-110.4900 Y39.3700 
G01 Z-3.048000
G01 Z0.508000
(G00 Z0.508000)
G00 X-110.4900 Y41.9100 
G01 Z-3.048000
G01 Z0.508000
(G00 Z0.508000)
G00 X-110.4900 Y44.4500 
G01 Z-3.048000
G01 Z0.508000
(G00 Z0.508000)
G00 X-110.4900 Y46.9900 
G01 Z-3.048000
G01 Z0.508000
(G00 Z0.508000)
G00 X-110.4900 Y49.5300 
G01 Z-3.048000
G01 Z0.508000
(G00 Z0.508000)
G00 X-110.4900 Y52.0700 
G01 Z-3.048000
G01 Z0.508000
(G00 Z0.508000)
G00 X-110.4900 Y54.6100 
G01 Z-3.048000
G01 Z0.508000
(G00 Z0.508000)
G00 X-110.4900 Y57.1500 
G01 Z-3.048000
G01 Z0.508000
(G00 Z0.508000)
G00 X-110.4900 Y61.2140 
G01 Z-3.048000
G01 Z0.508000
(G00 Z0.508000)
G00 X-110.4900 Y6.3500 
G01 Z-3.048000
G01 Z0.508000
(G00 Z0.508000)
G00 X-110.4900 Y63.7540 
G01 Z-3.048000
G01 Z0.508000
(G00 Z0.508000)
G00 X-110.4900 Y66.2940 
G01 Z-3.048000
G01 Z0.508000
(G00 Z0.508000)
G00 X-110.4900 Y68.8340 
G01 Z-3.048000
G01 Z0.508000
(G00 Z0.508000)
G00 X-110.4900 Y71.3740 
G01 Z-3.048000
G01 Z0.508000
(G00 Z0.508000)
G00 X-110.4900 Y73.9140 
G01 Z-3.048000
G01 Z0.508000
(G00 Z0.508000)
G00 X-110.4900 Y76.4540 
G01 Z-3.048000
G01 Z0.508000
(G00 Z0.508000)
G00 X-110.4900 Y78.9940 
G01 Z-3.048000
G01 Z0.508000
(G00 Z0.508000)
G00 X-110.4900 Y8.8900 
G01 Z-3.048000
G01 Z0.508000
(G00 Z0.508000)
G00 X-110.4900 Y16.5100 
G01 Z-3.048000
G01 Z0.508000
(G00 Z0.508000)
G00 X-110.4900 Y19.0500 
G01 Z-3.048000
G01 Z0.508000
(G00 Z0.508000)
G00 X-110.4900 Y21.5900 
G01 Z-3.048000
G01 Z0.508000
(G00 Z0.508000)
G00 X-110.4900 Y24.1300 
G01 Z-3.048000
G01 Z0.508000
(G00 Z0.508000)
G00 X-110.4900 Y26.6700 
G01 Z-3.048000
G01 Z0.508000
(G00 Z0.508000)
G00 X-110.4900 Y29.2100 
G01 Z-3.048000
G01 Z0.508000
(G00 Z0.508000)
G00 X-116.8400 Y33.0200 
G01 Z-3.048000
G01 Z0.508000
(G00 Z0.508000)
G00 X-116.8400 Y13.9700 
G01 Z-3.048000
G01 Z0.508000
(G00 Z0.508000)
G00 X-116.8400 Y20.3200 
G01 Z-3.048000
G01 Z0.508000
(G00 Z0.508000)
G00 X-116.8400 Y26.6700 
G01 Z-3.048000
G01 Z0.508000
(G00 Z0.508000)
G00 X-118.1100 Y44.4500 
G01 Z-3.048000
G01 Z0.508000
(G00 Z0.508000)
G00 X-118.1100 Y46.9900 
G01 Z-3.048000
G01 Z0.508000
(G00 Z0.508000)
G00 X-118.1100 Y49.5300 
G01 Z-3.048000
G01 Z0.508000
(G00 Z0.508000)
G00 X-118.1100 Y52.0700 
G01 Z-3.048000
G01 Z0.508000
(G00 Z0.508000)
G00 X-118.1100 Y54.6100 
G01 Z-3.048000
G01 Z0.508000
(G00 Z0.508000)
G00 X-118.1100 Y57.1500 
G01 Z-3.048000
G01 Z0.508000
(G00 Z0.508000)
G00 X-118.1100 Y59.6900 
G01 Z-3.048000
G01 Z0.508000
(G00 Z0.508000)
G00 X-118.1100 Y62.2300 
G01 Z-3.048000
G01 Z0.508000
(G00 Z0.508000)
G00 X-119.3800 Y33.0200 
G01 Z-3.048000
G01 Z0.508000
(G00 Z0.508000)
G00 X-119.3800 Y13.9700 
G01 Z-3.048000
G01 Z0.508000
(G00 Z0.508000)
G00 X-119.3800 Y20.3200 
G01 Z-3.048000
G01 Z0.508000
(G00 Z0.508000)
G00 X-119.3800 Y26.6700 
G01 Z-3.048000
G01 Z0.508000
(G00 Z0.508000)
G00 X-120.6500 Y44.4500 
G01 Z-3.048000
G01 Z0.508000
(G00 Z0.508000)
G00 X-120.6500 Y46.9900 
G01 Z-3.048000
G01 Z0.508000
(G00 Z0.508000)
G00 X-120.6500 Y49.5300 
G01 Z-3.048000
G01 Z0.508000
(G00 Z0.508000)
G00 X-120.6500 Y52.0700 
G01 Z-3.048000
G01 Z0.508000
(G00 Z0.508000)
G00 X-120.6500 Y54.6100 
G01 Z-3.048000
G01 Z0.508000
(G00 Z0.508000)
G00 X-120.6500 Y57.1500 
G01 Z-3.048000
G01 Z0.508000
(G00 Z0.508000)
G00 X-120.6500 Y59.6900 
G01 Z-3.048000
G01 Z0.508000
(G00 Z0.508000)
G00 X-120.6500 Y62.2300 
G01 Z-3.048000
G01 Z0.508000
(G00 Z0.508000)
G00 X-121.9200 Y33.0200 
G01 Z-3.048000
G01 Z0.508000
(G00 Z0.508000)
G00 X-121.9200 Y13.9700 
G01 Z-3.048000
G01 Z0.508000
(G00 Z0.508000)
G00 X-121.9200 Y20.3200 
G01 Z-3.048000
G01 Z0.508000
(G00 Z0.508000)
G00 X-121.9200 Y26.6700 
G01 Z-3.048000
G01 Z0.508000
(G00 Z0.508000)
G00 X-124.4600 Y33.0200 
G01 Z-3.048000
G01 Z0.508000
(G00 Z0.508000)
G00 X-124.4600 Y13.9700 
G01 Z-3.048000
G01 Z0.508000
(G00 Z0.508000)
G00 X-124.4600 Y20.3200 
G01 Z-3.048000
G01 Z0.508000
(G00 Z0.508000)
G00 X-124.4600 Y26.6700 
G01 Z-3.048000
G01 Z0.508000
M05
G00 X139.7000 Y86.3600 Z193.0400 
M06 T05  ; 1.4000 
G00 Z0.5080 
M03
G04 P3.000000
G00 Z0.508000
G00 X-63.1800 Y87.8400 
G01 Z-3.0480 F50.00 
G01 Z0.508000
(R0.5080  P10.000000)
(G00 Z0.508000)
G00 X-65.6424 Y97.8222 
G01 Z-3.048000
G01 Z0.508000
(G00 Z0.508000)
G00 X-65.6500 Y85.3100 
G01 Z-3.048000
G01 Z0.508000
(G00 Z0.508000)
G00 X-70.6600 Y87.8300 
G01 Z-3.048000
G01 Z0.508000
(G00 Z0.508000)
G00 X-75.6500 Y85.3200 
G01 Z-3.048000
G01 Z0.508000
(G00 Z0.508000)
G00 X-75.6500 Y97.8222 
G01 Z-3.048000
G01 Z0.508000
(G00 Z0.508000)
G00 X-78.1900 Y87.8400 
G01 Z-3.048000
G01 Z0.508000
(G00 Z0.508000)
G00 X-87.3100 Y87.8400 
G01 Z-3.048000
G01 Z0.508000
(G00 Z0.508000)
G00 X-89.7724 Y97.8222 
G01 Z-3.048000
G01 Z0.508000
(G00 Z0.508000)
G00 X-89.7800 Y85.3100 
G01 Z-3.048000
G01 Z0.508000
(G00 Z0.508000)
G00 X-94.7900 Y87.8300 
G01 Z-3.048000
G01 Z0.508000
(G00 Z0.508000)
G00 X-99.7800 Y85.3200 
G01 Z-3.048000
G01 Z0.508000
(G00 Z0.508000)
G00 X-99.7800 Y97.8222 
G01 Z-3.048000
G01 Z0.508000
(G00 Z0.508000)
G00 X-102.3200 Y87.8400 
G01 Z-3.048000
G01 Z0.508000
(File Footer)
T01 
G00 Z12.7000 
M05
M02
