( Made using CamBam - http://www.cambam.co.uk )
( bblaze_mainboardbot 8/2/2013 3:24:31 PM )
( T0 : 0.0 )
G21 G90  G40
( T0 : 0.0 )
T0 M6
( bblaze_mainboardbot.gcode )
( This gcode generated by C:/Program Files (x86)/EAGLE-6.4.0/ulp/pcb-gcode.ulp )
( Copyright 2005 by John Johnson. See readme.txt for licensing terms. )
G21
G90
G00 Z12.7000
G00 X0 Y0
M03
G04 P3.000000
G00 Z0.5080
G00 X-74.4871 Y7.8207
G01 Z-0.2540 F254.00
G01 X-75.3729 Y7.8207
G01 X-75.9435 Y8.3912
G01 X-75.9435 Y6.8488
G01 X-75.3729 Y7.4193
G01 X-74.4871 Y7.4193
G01 X-73.9419 Y6.8742
G01 X-73.9419 Y8.3658
G01 X-74.4871 Y7.8207
G00 Z0.5080
G00 X-72.8329 Y7.4193
G01 Z-0.2540 F254.00
G01 X-72.6719 Y7.4193
G01 X-72.6719 Y7.6571
G01 X-72.6527 Y7.7288
G01 X-72.6156 Y7.7931
G01 X-72.5881 Y7.8207
G01 X-72.8329 Y7.8207
G01 X-73.3781 Y8.3658
G01 X-73.3781 Y6.8742
G01 X-72.8329 Y7.4193
G00 Z0.5080
G00 X-73.3781 Y5.8258
G01 Z-0.2540 F254.00
G01 X-73.3781 Y5.3619
G01 X-72.9142 Y5.3619
G01 X-73.3781 Y5.8258
G00 Z0.5080
G00 X-68.8365 Y6.8488
G01 Z-0.2540 F254.00
G01 X-68.8365 Y7.3635
G01 X-69.3512 Y7.3635
G01 X-68.8365 Y6.8488
G00 Z0.5080
G00 X-82.2985 Y54.9652
G01 Z-0.2540 F254.00
G01 X-82.2985 Y55.5473
G01 X-101.2673 Y55.5473
G01 X-101.2673 Y21.5462
G01 X-101.2899 Y21.4616
G01 X-101.3337 Y21.3857
G01 X-101.3957 Y21.3237
G01 X-101.4716 Y21.2799
G01 X-101.5562 Y21.2573
G01 X-109.4737 Y21.2573
G01 X-109.4990 Y21.1795
G01 X-109.5754 Y21.0295
G01 X-109.6744 Y20.8934
G01 X-109.7934 Y20.7744
G01 X-109.9295 Y20.6754
G01 X-110.0795 Y20.5990
G01 X-110.2396 Y20.5470
G01 X-110.4058 Y20.5207
G01 X-110.5742 Y20.5207
G01 X-110.7404 Y20.5470
G01 X-110.9005 Y20.5990
G01 X-111.0505 Y20.6754
G01 X-111.1866 Y20.7744
G01 X-111.3056 Y20.8934
G01 X-111.4046 Y21.0295
G01 X-111.4810 Y21.1795
G01 X-111.5330 Y21.3396
G01 X-111.5593 Y21.5058
G01 X-111.5593 Y21.6742
G01 X-111.5330 Y21.8404
G01 X-111.4810 Y22.0005
G01 X-111.4046 Y22.1505
G01 X-111.3056 Y22.2866
G01 X-111.1866 Y22.4056
G01 X-111.0505 Y22.5046
G01 X-110.9005 Y22.5810
G01 X-110.7404 Y22.6330
G01 X-110.5742 Y22.6593
G01 X-110.4058 Y22.6593
G01 X-110.2396 Y22.6330
G01 X-110.0795 Y22.5810
G01 X-109.9295 Y22.5046
G01 X-109.7934 Y22.4056
G01 X-109.6744 Y22.2866
G01 X-109.5754 Y22.1505
G01 X-109.4990 Y22.0005
G01 X-109.4737 Y21.9227
G01 X-101.9327 Y21.9227
G01 X-101.9327 Y55.9238
G01 X-101.9101 Y56.0084
G01 X-101.8663 Y56.0843
G01 X-101.8043 Y56.1463
G01 X-101.7284 Y56.1901
G01 X-101.6438 Y56.2127
G01 X-82.2985 Y56.2127
G01 X-82.2985 Y56.7948
G01 X-82.2788 Y56.8424
G01 X-82.2424 Y56.8788
G01 X-82.1948 Y56.8985
G01 X-80.3652 Y56.8985
G01 X-80.3176 Y56.8788
G01 X-80.2812 Y56.8424
G01 X-80.2615 Y56.7948
G01 X-80.2615 Y54.9652
G01 X-80.2812 Y54.9176
G01 X-80.3176 Y54.8812
G01 X-80.3652 Y54.8615
G01 X-82.1948 Y54.8615
G01 X-82.2424 Y54.8812
G01 X-82.2788 Y54.9176
G01 X-82.2985 Y54.9652
G00 Z0.5080
G00 X-107.0585 Y-0.4202
G01 Z-0.2540 F254.00
G01 X-107.0585 Y-2.1198
G01 X-107.0927 Y-2.2921
G01 X-107.1599 Y-2.4543
G01 X-107.2575 Y-2.6003
G01 X-107.3817 Y-2.7245
G01 X-107.5277 Y-2.8221
G01 X-107.6899 Y-2.8893
G01 X-107.8622 Y-2.9235
G01 X-108.0378 Y-2.9235
G01 X-108.2101 Y-2.8893
G01 X-108.3723 Y-2.8221
G01 X-108.5183 Y-2.7245
G01 X-108.6425 Y-2.6003
G01 X-108.7401 Y-2.4543
G01 X-108.8073 Y-2.2921
G01 X-108.8415 Y-2.1198
G01 X-108.8415 Y-0.4202
G01 X-108.8073 Y-0.2479
G01 X-108.7401 Y-0.0857
G01 X-108.6425 Y0.0603
G01 X-108.5183 Y0.1845
G01 X-108.3723 Y0.2821
G01 X-108.2827 Y0.3192
G01 X-108.2827 Y5.2807
G01 X-108.3929 Y5.2807
G01 X-109.0193 Y5.9071
G01 X-109.0193 Y6.7929
G01 X-108.3929 Y7.4193
G01 X-107.5071 Y7.4193
G01 X-106.8807 Y6.7929
G01 X-106.8807 Y5.9071
G01 X-107.5071 Y5.2807
G01 X-107.6173 Y5.2807
G01 X-107.6173 Y0.3192
G01 X-107.5277 Y0.2821
G01 X-107.3817 Y0.1845
G01 X-107.2575 Y0.0603
G01 X-107.1599 Y-0.0857
G01 X-107.0927 Y-0.2479
G01 X-107.0585 Y-0.4202
G00 Z0.5080
G00 X-101.9785 Y-0.4202
G01 Z-0.2540 F254.00
G01 X-101.9785 Y-2.1198
G01 X-102.0127 Y-2.2921
G01 X-102.0799 Y-2.4543
G01 X-102.1775 Y-2.6003
G01 X-102.3017 Y-2.7245
G01 X-102.4477 Y-2.8221
G01 X-102.6099 Y-2.8893
G01 X-102.7822 Y-2.9235
G01 X-102.9578 Y-2.9235
G01 X-103.1301 Y-2.8893
G01 X-103.2923 Y-2.8221
G01 X-103.4383 Y-2.7245
G01 X-103.5625 Y-2.6003
G01 X-103.6601 Y-2.4543
G01 X-103.7273 Y-2.2921
G01 X-103.7615 Y-2.1198
G01 X-103.7615 Y-0.4202
G01 X-103.7273 Y-0.2479
G01 X-103.6601 Y-0.0857
G01 X-103.5625 Y0.0603
G01 X-103.4383 Y0.1845
G01 X-103.2923 Y0.2821
G01 X-103.2027 Y0.3192
G01 X-103.2027 Y5.2807
G01 X-103.3129 Y5.2807
G01 X-103.9393 Y5.9071
G01 X-103.9393 Y6.7929
G01 X-103.3129 Y7.4193
G01 X-102.4271 Y7.4193
G01 X-101.8007 Y6.7929
G01 X-101.8007 Y5.9071
G01 X-102.4271 Y5.2807
G01 X-102.5373 Y5.2807
G01 X-102.5373 Y0.3192
G01 X-102.4477 Y0.2821
G01 X-102.3017 Y0.1845
G01 X-102.1775 Y0.0603
G01 X-102.0799 Y-0.0857
G01 X-102.0127 Y-0.2479
G01 X-101.9785 Y-0.4202
G00 Z0.5080
G00 X-96.8985 Y-0.4202
G01 Z-0.2540 F254.00
G01 X-96.8985 Y-2.1198
G01 X-96.9327 Y-2.2921
G01 X-96.9999 Y-2.4543
G01 X-97.0975 Y-2.6003
G01 X-97.2217 Y-2.7245
G01 X-97.3677 Y-2.8221
G01 X-97.5299 Y-2.8893
G01 X-97.7022 Y-2.9235
G01 X-97.8778 Y-2.9235
G01 X-98.0501 Y-2.8893
G01 X-98.2123 Y-2.8221
G01 X-98.3583 Y-2.7245
G01 X-98.4825 Y-2.6003
G01 X-98.5801 Y-2.4543
G01 X-98.6473 Y-2.2921
G01 X-98.6815 Y-2.1198
G01 X-98.6815 Y-0.4202
G01 X-98.6473 Y-0.2479
G01 X-98.5801 Y-0.0857
G01 X-98.4825 Y0.0603
G01 X-98.3583 Y0.1845
G01 X-98.2123 Y0.2821
G01 X-98.1227 Y0.3192
G01 X-98.1227 Y5.2807
G01 X-98.2329 Y5.2807
G01 X-98.8593 Y5.9071
G01 X-98.8593 Y6.7929
G01 X-98.2329 Y7.4193
G01 X-97.3471 Y7.4193
G01 X-96.7207 Y6.7929
G01 X-96.7207 Y5.9071
G01 X-97.3471 Y5.2807
G01 X-97.4573 Y5.2807
G01 X-97.4573 Y0.3192
G01 X-97.3677 Y0.2821
G01 X-97.2217 Y0.1845
G01 X-97.0975 Y0.0603
G01 X-96.9999 Y-0.0857
G01 X-96.9327 Y-0.2479
G01 X-96.8985 Y-0.4202
G00 Z0.5080
G00 X-55.0302 Y51.1785
G01 Z-0.2540 F254.00
G01 X-56.7298 Y51.1785
G01 X-56.9021 Y51.2127
G01 X-57.0643 Y51.2799
G01 X-57.2103 Y51.3775
G01 X-57.3345 Y51.5017
G01 X-57.4321 Y51.6477
G01 X-57.4692 Y51.7373
G01 X-61.2137 Y51.7373
G01 X-61.2390 Y51.6595
G01 X-61.3154 Y51.5095
G01 X-61.4144 Y51.3734
G01 X-61.5334 Y51.2544
G01 X-61.6695 Y51.1554
G01 X-61.8195 Y51.0790
G01 X-61.9796 Y51.0270
G01 X-62.1458 Y51.0007
G01 X-62.3142 Y51.0007
G01 X-62.4804 Y51.0270
G01 X-62.6405 Y51.0790
G01 X-62.7905 Y51.1554
G01 X-62.9266 Y51.2544
G01 X-63.0456 Y51.3734
G01 X-63.1446 Y51.5095
G01 X-63.2210 Y51.6595
G01 X-63.2730 Y51.8196
G01 X-63.2993 Y51.9858
G01 X-63.2993 Y52.1542
G01 X-63.2730 Y52.3204
G01 X-63.2210 Y52.4805
G01 X-63.1446 Y52.6305
G01 X-63.0456 Y52.7666
G01 X-62.9266 Y52.8856
G01 X-62.7905 Y52.9846
G01 X-62.6405 Y53.0610
G01 X-62.4804 Y53.1130
G01 X-62.3142 Y53.1393
G01 X-62.1458 Y53.1393
G01 X-61.9796 Y53.1130
G01 X-61.8195 Y53.0610
G01 X-61.6695 Y52.9846
G01 X-61.5334 Y52.8856
G01 X-61.4144 Y52.7666
G01 X-61.3154 Y52.6305
G01 X-61.2390 Y52.4805
G01 X-61.2137 Y52.4027
G01 X-57.4692 Y52.4027
G01 X-57.4321 Y52.4923
G01 X-57.3345 Y52.6383
G01 X-57.2103 Y52.7625
G01 X-57.0643 Y52.8601
G01 X-56.9021 Y52.9273
G01 X-56.7298 Y52.9615
G01 X-55.0302 Y52.9615
G01 X-54.8579 Y52.9273
G01 X-54.6957 Y52.8601
G01 X-54.5497 Y52.7625
G01 X-54.4255 Y52.6383
G01 X-54.3279 Y52.4923
G01 X-54.2607 Y52.3301
G01 X-54.2265 Y52.1578
G01 X-54.2265 Y51.9822
G01 X-54.2607 Y51.8099
G01 X-54.3279 Y51.6477
G01 X-54.4255 Y51.5017
G01 X-54.5497 Y51.3775
G01 X-54.6957 Y51.2799
G01 X-54.8579 Y51.2127
G01 X-55.0302 Y51.1785
G00 Z0.5080
G00 X-55.0302 Y46.0985
G01 Z-0.2540 F254.00
G01 X-56.7298 Y46.0985
G01 X-56.9021 Y46.1327
G01 X-57.0643 Y46.1999
G01 X-57.2103 Y46.2975
G01 X-57.3345 Y46.4217
G01 X-57.4321 Y46.5677
G01 X-57.4692 Y46.6573
G01 X-61.2137 Y46.6573
G01 X-61.2390 Y46.5795
G01 X-61.3154 Y46.4295
G01 X-61.4144 Y46.2934
G01 X-61.5334 Y46.1744
G01 X-61.6695 Y46.0754
G01 X-61.8195 Y45.9990
G01 X-61.9796 Y45.9470
G01 X-62.1458 Y45.9207
G01 X-62.3142 Y45.9207
G01 X-62.4804 Y45.9470
G01 X-62.6405 Y45.9990
G01 X-62.7905 Y46.0754
G01 X-62.9266 Y46.1744
G01 X-63.0456 Y46.2934
G01 X-63.1446 Y46.4295
G01 X-63.2210 Y46.5795
G01 X-63.2730 Y46.7396
G01 X-63.2993 Y46.9058
G01 X-63.2993 Y47.0742
G01 X-63.2730 Y47.2404
G01 X-63.2210 Y47.4005
G01 X-63.1446 Y47.5505
G01 X-63.0456 Y47.6866
G01 X-62.9266 Y47.8056
G01 X-62.7905 Y47.9046
G01 X-62.6405 Y47.9810
G01 X-62.4804 Y48.0330
G01 X-62.3142 Y48.0593
G01 X-62.1458 Y48.0593
G01 X-61.9796 Y48.0330
G01 X-61.8195 Y47.9810
G01 X-61.6695 Y47.9046
G01 X-61.5334 Y47.8056
G01 X-61.4144 Y47.6866
G01 X-61.3154 Y47.5505
G01 X-61.2390 Y47.4005
G01 X-61.2137 Y47.3227
G01 X-57.4692 Y47.3227
G01 X-57.4321 Y47.4123
G01 X-57.3345 Y47.5583
G01 X-57.2103 Y47.6825
G01 X-57.0643 Y47.7801
G01 X-56.9021 Y47.8473
G01 X-56.7298 Y47.8815
G01 X-55.0302 Y47.8815
G01 X-54.8579 Y47.8473
G01 X-54.6957 Y47.7801
G01 X-54.5497 Y47.6825
G01 X-54.4255 Y47.5583
G01 X-54.3279 Y47.4123
G01 X-54.2607 Y47.2501
G01 X-54.2265 Y47.0778
G01 X-54.2265 Y46.9022
G01 X-54.2607 Y46.7299
G01 X-54.3279 Y46.5677
G01 X-54.4255 Y46.4217
G01 X-54.5497 Y46.2975
G01 X-54.6957 Y46.1999
G01 X-54.8579 Y46.1327
G01 X-55.0302 Y46.0985
G00 Z0.5080
G00 X-55.0302 Y41.0185
G01 Z-0.2540 F254.00
G01 X-56.7298 Y41.0185
G01 X-56.9021 Y41.0527
G01 X-57.0643 Y41.1199
G01 X-57.2103 Y41.2175
G01 X-57.3345 Y41.3417
G01 X-57.4321 Y41.4877
G01 X-57.4692 Y41.5773
G01 X-61.2137 Y41.5773
G01 X-61.2390 Y41.4995
G01 X-61.3154 Y41.3495
G01 X-61.4144 Y41.2134
G01 X-61.5334 Y41.0944
G01 X-61.6695 Y40.9954
G01 X-61.8195 Y40.9190
G01 X-61.9796 Y40.8670
G01 X-62.1458 Y40.8407
G01 X-62.3142 Y40.8407
G01 X-62.4804 Y40.8670
G01 X-62.6405 Y40.9190
G01 X-62.7905 Y40.9954
G01 X-62.9266 Y41.0944
G01 X-63.0456 Y41.2134
G01 X-63.1446 Y41.3495
G01 X-63.2210 Y41.4995
G01 X-63.2730 Y41.6596
G01 X-63.2993 Y41.8258
G01 X-63.2993 Y41.9942
G01 X-63.2730 Y42.1604
G01 X-63.2210 Y42.3205
G01 X-63.1446 Y42.4705
G01 X-63.0456 Y42.6066
G01 X-62.9266 Y42.7256
G01 X-62.7905 Y42.8246
G01 X-62.6405 Y42.9010
G01 X-62.4804 Y42.9530
G01 X-62.3142 Y42.9793
G01 X-62.1458 Y42.9793
G01 X-61.9796 Y42.9530
G01 X-61.8195 Y42.9010
G01 X-61.6695 Y42.8246
G01 X-61.5334 Y42.7256
G01 X-61.4144 Y42.6066
G01 X-61.3154 Y42.4705
G01 X-61.2390 Y42.3205
G01 X-61.2137 Y42.2427
G01 X-57.4692 Y42.2427
G01 X-57.4321 Y42.3323
G01 X-57.3345 Y42.4783
G01 X-57.2103 Y42.6025
G01 X-57.0643 Y42.7001
G01 X-56.9021 Y42.7673
G01 X-56.7298 Y42.8015
G01 X-55.0302 Y42.8015
G01 X-54.8579 Y42.7673
G01 X-54.6957 Y42.7001
G01 X-54.5497 Y42.6025
G01 X-54.4255 Y42.4783
G01 X-54.3279 Y42.3323
G01 X-54.2607 Y42.1701
G01 X-54.2265 Y41.9978
G01 X-54.2265 Y41.8222
G01 X-54.2607 Y41.6499
G01 X-54.3279 Y41.4877
G01 X-54.4255 Y41.3417
G01 X-54.5497 Y41.2175
G01 X-54.6957 Y41.1199
G01 X-54.8579 Y41.0527
G01 X-55.0302 Y41.0185
G00 Z0.5080
G00 X-55.0302 Y33.3985
G01 Z-0.2540 F254.00
G01 X-55.5473 Y33.3985
G01 X-55.5473 Y31.4985
G01 X-54.9652 Y31.4985
G01 X-54.9176 Y31.4788
G01 X-54.8812 Y31.4424
G01 X-54.8615 Y31.3948
G01 X-54.8615 Y29.5652
G01 X-54.8812 Y29.5176
G01 X-54.9176 Y29.4812
G01 X-54.9652 Y29.4615
G01 X-56.7948 Y29.4615
G01 X-56.8424 Y29.4812
G01 X-56.8788 Y29.5176
G01 X-56.8985 Y29.5652
G01 X-56.8985 Y31.3948
G01 X-56.8788 Y31.4424
G01 X-56.8424 Y31.4788
G01 X-56.7948 Y31.4985
G01 X-56.2127 Y31.4985
G01 X-56.2127 Y33.3985
G01 X-56.7298 Y33.3985
G01 X-56.9021 Y33.4327
G01 X-57.0643 Y33.4999
G01 X-57.2103 Y33.5975
G01 X-57.3345 Y33.7217
G01 X-57.4321 Y33.8677
G01 X-57.4993 Y34.0299
G01 X-57.5335 Y34.2022
G01 X-57.5335 Y34.3778
G01 X-57.4993 Y34.5501
G01 X-57.4321 Y34.7123
G01 X-57.3345 Y34.8583
G01 X-57.2103 Y34.9825
G01 X-57.0643 Y35.0801
G01 X-56.9021 Y35.1473
G01 X-56.7298 Y35.1815
G01 X-55.0302 Y35.1815
G01 X-54.8579 Y35.1473
G01 X-54.6957 Y35.0801
G01 X-54.5497 Y34.9825
G01 X-54.4255 Y34.8583
G01 X-54.3279 Y34.7123
G01 X-54.2607 Y34.5501
G01 X-54.2265 Y34.3778
G01 X-54.2265 Y34.2022
G01 X-54.2607 Y34.0299
G01 X-54.3279 Y33.8677
G01 X-54.4255 Y33.7217
G01 X-54.5497 Y33.5975
G01 X-54.6957 Y33.4999
G01 X-54.8579 Y33.4327
G01 X-55.0302 Y33.3985
G00 Z0.5080
G00 X-84.3001 Y68.0482
G01 Z-0.2540 F254.00
G01 X-84.3001 Y66.5718
G01 X-84.3304 Y66.4192
G01 X-84.3900 Y66.2754
G01 X-84.4764 Y66.1460
G01 X-84.5864 Y66.0360
G01 X-84.7158 Y65.9496
G01 X-84.7573 Y65.9324
G01 X-84.7573 Y63.8327
G01 X-65.1027 Y63.8327
G01 X-65.1027 Y64.8138
G01 X-65.0801 Y64.8984
G01 X-65.0363 Y64.9743
G01 X-64.9743 Y65.0363
G01 X-64.8984 Y65.0801
G01 X-64.8138 Y65.1027
G01 X-63.2463 Y65.1027
G01 X-63.2210 Y65.1805
G01 X-63.1446 Y65.3305
G01 X-63.0456 Y65.4666
G01 X-62.9266 Y65.5856
G01 X-62.7905 Y65.6846
G01 X-62.6405 Y65.7610
G01 X-62.4804 Y65.8130
G01 X-62.3142 Y65.8393
G01 X-62.1458 Y65.8393
G01 X-61.9796 Y65.8130
G01 X-61.8195 Y65.7610
G01 X-61.6695 Y65.6846
G01 X-61.5334 Y65.5856
G01 X-61.4144 Y65.4666
G01 X-61.3154 Y65.3305
G01 X-61.2390 Y65.1805
G01 X-61.2137 Y65.1027
G01 X-56.2127 Y65.1027
G01 X-56.2127 Y72.0708
G01 X-56.3023 Y72.1079
G01 X-56.4483 Y72.2055
G01 X-56.5725 Y72.3297
G01 X-56.6701 Y72.4757
G01 X-56.7373 Y72.6379
G01 X-56.7715 Y72.8102
G01 X-56.7715 Y74.5098
G01 X-56.7373 Y74.6821
G01 X-56.6701 Y74.8443
G01 X-56.5725 Y74.9903
G01 X-56.4483 Y75.1145
G01 X-56.3023 Y75.2121
G01 X-56.2127 Y75.2492
G01 X-56.2127 Y77.1508
G01 X-56.3023 Y77.1879
G01 X-56.4483 Y77.2855
G01 X-56.5725 Y77.4097
G01 X-56.6701 Y77.5557
G01 X-56.7373 Y77.7179
G01 X-56.7715 Y77.8902
G01 X-56.7715 Y79.5898
G01 X-56.7373 Y79.7621
G01 X-56.6701 Y79.9243
G01 X-56.5725 Y80.0703
G01 X-56.4483 Y80.1945
G01 X-56.3023 Y80.2921
G01 X-56.2127 Y80.3292
G01 X-56.2127 Y83.5008
G01 X-56.3023 Y83.5379
G01 X-56.4483 Y83.6355
G01 X-56.5725 Y83.7597
G01 X-56.6701 Y83.9057
G01 X-56.7373 Y84.0679
G01 X-56.7715 Y84.2402
G01 X-56.7715 Y85.9398
G01 X-56.7373 Y86.1121
G01 X-56.6701 Y86.2743
G01 X-56.5725 Y86.4203
G01 X-56.4483 Y86.5445
G01 X-56.3023 Y86.6421
G01 X-56.2127 Y86.6792
G01 X-56.2127 Y89.8508
G01 X-56.3023 Y89.8879
G01 X-56.4483 Y89.9855
G01 X-56.5725 Y90.1097
G01 X-56.6701 Y90.2557
G01 X-56.7373 Y90.4179
G01 X-56.7715 Y90.5902
G01 X-56.7715 Y92.2898
G01 X-56.7373 Y92.4621
G01 X-56.6701 Y92.6243
G01 X-56.5725 Y92.7703
G01 X-56.4483 Y92.8945
G01 X-56.3023 Y92.9921
G01 X-56.1401 Y93.0593
G01 X-55.9678 Y93.0935
G01 X-55.7922 Y93.0935
G01 X-55.6199 Y93.0593
G01 X-55.4577 Y92.9921
G01 X-55.3117 Y92.8945
G01 X-55.1875 Y92.7703
G01 X-55.0899 Y92.6243
G01 X-55.0227 Y92.4621
G01 X-54.9885 Y92.2898
G01 X-54.9885 Y90.5902
G01 X-55.0227 Y90.4179
G01 X-55.0899 Y90.2557
G01 X-55.1875 Y90.1097
G01 X-55.3117 Y89.9855
G01 X-55.4577 Y89.8879
G01 X-55.5473 Y89.8508
G01 X-55.5473 Y86.6792
G01 X-55.4577 Y86.6421
G01 X-55.3117 Y86.5445
G01 X-55.1875 Y86.4203
G01 X-55.0899 Y86.2743
G01 X-55.0227 Y86.1121
G01 X-54.9885 Y85.9398
G01 X-54.9885 Y84.2402
G01 X-55.0227 Y84.0679
G01 X-55.0899 Y83.9057
G01 X-55.1875 Y83.7597
G01 X-55.3117 Y83.6355
G01 X-55.4577 Y83.5379
G01 X-55.5473 Y83.5008
G01 X-55.5473 Y80.3292
G01 X-55.4577 Y80.2921
G01 X-55.3117 Y80.1945
G01 X-55.1875 Y80.0703
G01 X-55.0899 Y79.9243
G01 X-55.0227 Y79.7621
G01 X-54.9885 Y79.5898
G01 X-54.9885 Y77.8902
G01 X-55.0227 Y77.7179
G01 X-55.0899 Y77.5557
G01 X-55.1875 Y77.4097
G01 X-55.3117 Y77.2855
G01 X-55.4577 Y77.1879
G01 X-55.5473 Y77.1508
G01 X-55.5473 Y75.2492
G01 X-55.4577 Y75.2121
G01 X-55.3117 Y75.1145
G01 X-55.1875 Y74.9903
G01 X-55.0899 Y74.8443
G01 X-55.0227 Y74.6821
G01 X-54.9885 Y74.5098
G01 X-54.9885 Y72.8102
G01 X-55.0227 Y72.6379
G01 X-55.0899 Y72.4757
G01 X-55.1875 Y72.3297
G01 X-55.3117 Y72.2055
G01 X-55.4577 Y72.1079
G01 X-55.5473 Y72.0708
G01 X-55.5473 Y64.7262
G01 X-55.5699 Y64.6416
G01 X-55.6137 Y64.5657
G01 X-55.6757 Y64.5037
G01 X-55.7516 Y64.4599
G01 X-55.8362 Y64.4373
G01 X-61.2137 Y64.4373
G01 X-61.2390 Y64.3595
G01 X-61.3154 Y64.2095
G01 X-61.4144 Y64.0734
G01 X-61.5334 Y63.9544
G01 X-61.6695 Y63.8554
G01 X-61.8195 Y63.7790
G01 X-61.9796 Y63.7270
G01 X-62.1458 Y63.7007
G01 X-62.3142 Y63.7007
G01 X-62.4804 Y63.7270
G01 X-62.6405 Y63.7790
G01 X-62.7905 Y63.8554
G01 X-62.9266 Y63.9544
G01 X-63.0456 Y64.0734
G01 X-63.1446 Y64.2095
G01 X-63.2210 Y64.3595
G01 X-63.2463 Y64.4373
G01 X-64.4373 Y64.4373
G01 X-64.4373 Y63.4562
G01 X-64.4599 Y63.3716
G01 X-64.5037 Y63.2957
G01 X-64.5657 Y63.2337
G01 X-64.6416 Y63.1899
G01 X-64.7262 Y63.1673
G01 X-85.1338 Y63.1673
G01 X-85.2184 Y63.1899
G01 X-85.2943 Y63.2337
G01 X-85.3563 Y63.2957
G01 X-85.4001 Y63.3716
G01 X-85.4227 Y63.4562
G01 X-85.4227 Y65.9324
G01 X-85.4642 Y65.9496
G01 X-85.5936 Y66.0360
G01 X-85.7036 Y66.1460
G01 X-85.7900 Y66.2754
G01 X-85.8496 Y66.4192
G01 X-85.8799 Y66.5718
G01 X-85.8799 Y68.0482
G01 X-85.8496 Y68.2008
G01 X-85.7900 Y68.3446
G01 X-85.7036 Y68.4740
G01 X-85.5936 Y68.5840
G01 X-85.4642 Y68.6704
G01 X-85.4227 Y68.6876
G01 X-85.4227 Y75.8673
G01 X-98.7273 Y75.8673
G01 X-98.7273 Y74.7564
G01 X-98.6203 Y74.7216
G01 X-98.4596 Y74.6398
G01 X-98.3137 Y74.5338
G01 X-98.1862 Y74.4063
G01 X-98.0802 Y74.2604
G01 X-97.9984 Y74.0997
G01 X-97.9427 Y73.9282
G01 X-97.9145 Y73.7502
G01 X-97.9145 Y73.5698
G01 X-97.9427 Y73.3918
G01 X-97.9984 Y73.2203
G01 X-98.0802 Y73.0596
G01 X-98.1862 Y72.9137
G01 X-98.3137 Y72.7862
G01 X-98.4596 Y72.6802
G01 X-98.6203 Y72.5984
G01 X-98.7918 Y72.5427
G01 X-98.9698 Y72.5145
G01 X-99.1502 Y72.5145
G01 X-99.3282 Y72.5427
G01 X-99.4997 Y72.5984
G01 X-99.6604 Y72.6802
G01 X-99.8063 Y72.7862
G01 X-99.9338 Y72.9137
G01 X-100.0397 Y73.0596
G01 X-100.1216 Y73.2203
G01 X-100.1773 Y73.3918
G01 X-100.2055 Y73.5698
G01 X-100.2055 Y73.7502
G01 X-100.1773 Y73.9282
G01 X-100.1216 Y74.0997
G01 X-100.0397 Y74.2604
G01 X-99.9338 Y74.4063
G01 X-99.8063 Y74.5338
G01 X-99.6604 Y74.6398
G01 X-99.4997 Y74.7216
G01 X-99.3927 Y74.7564
G01 X-99.3927 Y76.2438
G01 X-99.3701 Y76.3284
G01 X-99.3263 Y76.4043
G01 X-99.2643 Y76.4663
G01 X-99.1884 Y76.5101
G01 X-99.1038 Y76.5327
G01 X-85.0462 Y76.5327
G01 X-84.9616 Y76.5101
G01 X-84.8857 Y76.4663
G01 X-84.8237 Y76.4043
G01 X-84.7799 Y76.3284
G01 X-84.7573 Y76.2438
G01 X-84.7573 Y68.6876
G01 X-84.7158 Y68.6704
G01 X-84.5864 Y68.5840
G01 X-84.4764 Y68.4740
G01 X-84.3900 Y68.3446
G01 X-84.3304 Y68.2008
G01 X-84.3001 Y68.0482
G00 Z0.5080
G00 X-86.8401 Y68.0482
G01 Z-0.2540 F254.00
G01 X-86.8401 Y66.5718
G01 X-86.8704 Y66.4192
G01 X-86.9300 Y66.2754
G01 X-87.0164 Y66.1460
G01 X-87.1264 Y66.0360
G01 X-87.2558 Y65.9496
G01 X-87.2973 Y65.9324
G01 X-87.2973 Y64.7262
G01 X-87.3199 Y64.6416
G01 X-87.3637 Y64.5657
G01 X-87.4257 Y64.5037
G01 X-87.5016 Y64.4599
G01 X-87.5862 Y64.4373
G01 X-95.2938 Y64.4373
G01 X-95.3784 Y64.4599
G01 X-95.4543 Y64.5037
G01 X-95.5163 Y64.5657
G01 X-95.5601 Y64.6416
G01 X-95.5827 Y64.7262
G01 X-95.5827 Y65.9324
G01 X-95.6242 Y65.9496
G01 X-95.7536 Y66.0360
G01 X-95.8636 Y66.1460
G01 X-95.9500 Y66.2754
G01 X-96.0096 Y66.4192
G01 X-96.0399 Y66.5718
G01 X-96.0399 Y68.0482
G01 X-96.0096 Y68.2008
G01 X-95.9500 Y68.3446
G01 X-95.8636 Y68.4740
G01 X-95.7536 Y68.5840
G01 X-95.6242 Y68.6704
G01 X-95.4804 Y68.7300
G01 X-95.3278 Y68.7603
G01 X-95.1722 Y68.7603
G01 X-95.0196 Y68.7300
G01 X-94.8758 Y68.6704
G01 X-94.7464 Y68.5840
G01 X-94.6364 Y68.4740
G01 X-94.5500 Y68.3446
G01 X-94.4904 Y68.2008
G01 X-94.4601 Y68.0482
G01 X-94.4601 Y66.5718
G01 X-94.4904 Y66.4192
G01 X-94.5500 Y66.2754
G01 X-94.6364 Y66.1460
G01 X-94.7464 Y66.0360
G01 X-94.8758 Y65.9496
G01 X-94.9173 Y65.9324
G01 X-94.9173 Y65.1027
G01 X-87.9627 Y65.1027
G01 X-87.9627 Y65.9324
G01 X-88.0042 Y65.9496
G01 X-88.1336 Y66.0360
G01 X-88.2436 Y66.1460
G01 X-88.3300 Y66.2754
G01 X-88.3896 Y66.4192
G01 X-88.4199 Y66.5718
G01 X-88.4199 Y68.0482
G01 X-88.3896 Y68.2008
G01 X-88.3300 Y68.3446
G01 X-88.2436 Y68.4740
G01 X-88.1336 Y68.5840
G01 X-88.0042 Y68.6704
G01 X-87.8604 Y68.7300
G01 X-87.7078 Y68.7603
G01 X-87.5522 Y68.7603
G01 X-87.3996 Y68.7300
G01 X-87.2558 Y68.6704
G01 X-87.1264 Y68.5840
G01 X-87.0164 Y68.4740
G01 X-86.9300 Y68.3446
G01 X-86.8704 Y68.2008
G01 X-86.8401 Y68.0482
G00 Z0.5080
G00 X-91.9201 Y68.0482
G01 Z-0.2540 F254.00
G01 X-91.9201 Y66.5718
G01 X-91.9504 Y66.4192
G01 X-92.0100 Y66.2754
G01 X-92.0964 Y66.1460
G01 X-92.2064 Y66.0360
G01 X-92.3358 Y65.9496
G01 X-92.4796 Y65.8900
G01 X-92.6322 Y65.8597
G01 X-92.7878 Y65.8597
G01 X-92.9404 Y65.8900
G01 X-93.0842 Y65.9496
G01 X-93.2136 Y66.0360
G01 X-93.3236 Y66.1460
G01 X-93.4100 Y66.2754
G01 X-93.4696 Y66.4192
G01 X-93.4999 Y66.5718
G01 X-93.4999 Y68.0482
G01 X-93.4696 Y68.2008
G01 X-93.4100 Y68.3446
G01 X-93.3236 Y68.4740
G01 X-93.2136 Y68.5840
G01 X-93.0842 Y68.6704
G01 X-93.0427 Y68.6876
G01 X-93.0427 Y70.7873
G01 X-103.8073 Y70.7873
G01 X-103.8073 Y68.3285
G01 X-103.2252 Y68.3285
G01 X-103.1776 Y68.3088
G01 X-103.1412 Y68.2724
G01 X-103.1215 Y68.2248
G01 X-103.1215 Y66.3952
G01 X-103.1412 Y66.3476
G01 X-103.1776 Y66.3112
G01 X-103.2252 Y66.2915
G01 X-105.0548 Y66.2915
G01 X-105.1024 Y66.3112
G01 X-105.1388 Y66.3476
G01 X-105.1585 Y66.3952
G01 X-105.1585 Y68.2248
G01 X-105.1388 Y68.2724
G01 X-105.1024 Y68.3088
G01 X-105.0548 Y68.3285
G01 X-104.4727 Y68.3285
G01 X-104.4727 Y71.1638
G01 X-104.4501 Y71.2484
G01 X-104.4063 Y71.3243
G01 X-104.3443 Y71.3863
G01 X-104.2684 Y71.4301
G01 X-104.1838 Y71.4527
G01 X-92.6662 Y71.4527
G01 X-92.5816 Y71.4301
G01 X-92.5057 Y71.3863
G01 X-92.4437 Y71.3243
G01 X-92.3999 Y71.2484
G01 X-92.3773 Y71.1638
G01 X-92.3773 Y68.6876
G01 X-92.3358 Y68.6704
G01 X-92.2064 Y68.5840
G01 X-92.0964 Y68.4740
G01 X-92.0100 Y68.3446
G01 X-91.9504 Y68.2008
G01 X-91.9201 Y68.0482
G00 Z0.5080
G00 X-97.0001 Y68.0482
G01 Z-0.2540 F254.00
G01 X-97.0001 Y66.5718
G01 X-97.0304 Y66.4192
G01 X-97.0900 Y66.2754
G01 X-97.1764 Y66.1460
G01 X-97.2864 Y66.0360
G01 X-97.4158 Y65.9496
G01 X-97.5596 Y65.8900
G01 X-97.7122 Y65.8597
G01 X-97.8678 Y65.8597
G01 X-98.0204 Y65.8900
G01 X-98.1642 Y65.9496
G01 X-98.2936 Y66.0360
G01 X-98.4036 Y66.1460
G01 X-98.4900 Y66.2754
G01 X-98.5496 Y66.4192
G01 X-98.5799 Y66.5718
G01 X-98.5799 Y68.0482
G01 X-98.5496 Y68.2008
G01 X-98.4900 Y68.3446
G01 X-98.4036 Y68.4740
G01 X-98.2936 Y68.5840
G01 X-98.1642 Y68.6704
G01 X-98.0204 Y68.7300
G01 X-97.8678 Y68.7603
G01 X-97.7122 Y68.7603
G01 X-97.5596 Y68.7300
G01 X-97.4158 Y68.6704
G01 X-97.2864 Y68.5840
G01 X-97.1764 Y68.4740
G01 X-97.0900 Y68.3446
G01 X-97.0304 Y68.2008
G01 X-97.0001 Y68.0482
G00 Z0.5080
G00 X-94.4601 Y60.4282
G01 Z-0.2540 F254.00
G01 X-94.4601 Y58.9518
G01 X-94.4904 Y58.7992
G01 X-94.5500 Y58.6554
G01 X-94.6364 Y58.5260
G01 X-94.7464 Y58.4160
G01 X-94.8758 Y58.3296
G01 X-95.0196 Y58.2700
G01 X-95.1722 Y58.2397
G01 X-95.3278 Y58.2397
G01 X-95.4804 Y58.2700
G01 X-95.6242 Y58.3296
G01 X-95.7536 Y58.4160
G01 X-95.8636 Y58.5260
G01 X-95.9500 Y58.6554
G01 X-96.0096 Y58.7992
G01 X-96.0399 Y58.9518
G01 X-96.0399 Y60.4282
G01 X-96.0096 Y60.5808
G01 X-95.9500 Y60.7246
G01 X-95.8636 Y60.8540
G01 X-95.7536 Y60.9640
G01 X-95.6242 Y61.0504
G01 X-95.4804 Y61.1100
G01 X-95.3278 Y61.1403
G01 X-95.1722 Y61.1403
G01 X-95.0196 Y61.1100
G01 X-94.8758 Y61.0504
G01 X-94.7464 Y60.9640
G01 X-94.6364 Y60.8540
G01 X-94.5500 Y60.7246
G01 X-94.4904 Y60.5808
G01 X-94.4601 Y60.4282
G00 Z0.5080
G00 X-97.0001 Y60.4282
G01 Z-0.2540 F254.00
G01 X-97.0001 Y58.9518
G01 X-97.0304 Y58.7992
G01 X-97.0900 Y58.6554
G01 X-97.1764 Y58.5260
G01 X-97.2864 Y58.4160
G01 X-97.4158 Y58.3296
G01 X-97.5596 Y58.2700
G01 X-97.7122 Y58.2397
G01 X-97.8678 Y58.2397
G01 X-98.0204 Y58.2700
G01 X-98.1642 Y58.3296
G01 X-98.2936 Y58.4160
G01 X-98.4036 Y58.5260
G01 X-98.4900 Y58.6554
G01 X-98.5496 Y58.7992
G01 X-98.5799 Y58.9518
G01 X-98.5799 Y60.4282
G01 X-98.5496 Y60.5808
G01 X-98.4900 Y60.7246
G01 X-98.4036 Y60.8540
G01 X-98.2936 Y60.9640
G01 X-98.1642 Y61.0504
G01 X-98.0204 Y61.1100
G01 X-97.8678 Y61.1403
G01 X-97.7122 Y61.1403
G01 X-97.5596 Y61.1100
G01 X-97.4158 Y61.0504
G01 X-97.2864 Y60.9640
G01 X-97.1764 Y60.8540
G01 X-97.0900 Y60.7246
G01 X-97.0304 Y60.5808
G01 X-97.0001 Y60.4282
G00 Z0.5080
G00 X-91.9201 Y60.4282
G01 Z-0.2540 F254.00
G01 X-91.9201 Y58.9518
G01 X-91.9504 Y58.7992
G01 X-92.0100 Y58.6554
G01 X-92.0964 Y58.5260
G01 X-92.2064 Y58.4160
G01 X-92.3358 Y58.3296
G01 X-92.4796 Y58.2700
G01 X-92.6322 Y58.2397
G01 X-92.7878 Y58.2397
G01 X-92.9404 Y58.2700
G01 X-93.0842 Y58.3296
G01 X-93.2136 Y58.4160
G01 X-93.3236 Y58.5260
G01 X-93.4100 Y58.6554
G01 X-93.4696 Y58.7992
G01 X-93.4999 Y58.9518
G01 X-93.4999 Y60.4282
G01 X-93.4696 Y60.5808
G01 X-93.4100 Y60.7246
G01 X-93.3236 Y60.8540
G01 X-93.2136 Y60.9640
G01 X-93.0842 Y61.0504
G01 X-92.9404 Y61.1100
G01 X-92.7878 Y61.1403
G01 X-92.6322 Y61.1403
G01 X-92.4796 Y61.1100
G01 X-92.3358 Y61.0504
G01 X-92.2064 Y60.9640
G01 X-92.0964 Y60.8540
G01 X-92.0100 Y60.7246
G01 X-91.9504 Y60.5808
G01 X-91.9201 Y60.4282
G00 Z0.5080
G00 X-89.3801 Y60.4282
G01 Z-0.2540 F254.00
G01 X-89.3801 Y58.9518
G01 X-89.4104 Y58.7992
G01 X-89.4700 Y58.6554
G01 X-89.5564 Y58.5260
G01 X-89.6664 Y58.4160
G01 X-89.7958 Y58.3296
G01 X-89.9396 Y58.2700
G01 X-90.0922 Y58.2397
G01 X-90.2478 Y58.2397
G01 X-90.4004 Y58.2700
G01 X-90.5442 Y58.3296
G01 X-90.6736 Y58.4160
G01 X-90.7836 Y58.5260
G01 X-90.8700 Y58.6554
G01 X-90.9296 Y58.7992
G01 X-90.9599 Y58.9518
G01 X-90.9599 Y60.4282
G01 X-90.9296 Y60.5808
G01 X-90.8700 Y60.7246
G01 X-90.7836 Y60.8540
G01 X-90.6736 Y60.9640
G01 X-90.5442 Y61.0504
G01 X-90.4004 Y61.1100
G01 X-90.2478 Y61.1403
G01 X-90.0922 Y61.1403
G01 X-89.9396 Y61.1100
G01 X-89.7958 Y61.0504
G01 X-89.6664 Y60.9640
G01 X-89.5564 Y60.8540
G01 X-89.4700 Y60.7246
G01 X-89.4104 Y60.5808
G01 X-89.3801 Y60.4282
G00 Z0.5080
G00 X-99.5401 Y68.0482
G01 Z-0.2540 F254.00
G01 X-99.5401 Y66.5718
G01 X-99.5704 Y66.4192
G01 X-99.6300 Y66.2754
G01 X-99.7164 Y66.1460
G01 X-99.8264 Y66.0360
G01 X-99.9558 Y65.9496
G01 X-100.0996 Y65.8900
G01 X-100.2522 Y65.8597
G01 X-100.4078 Y65.8597
G01 X-100.5604 Y65.8900
G01 X-100.7042 Y65.9496
G01 X-100.8336 Y66.0360
G01 X-100.9436 Y66.1460
G01 X-101.0300 Y66.2754
G01 X-101.0896 Y66.4192
G01 X-101.1199 Y66.5718
G01 X-101.1199 Y68.0482
G01 X-101.0896 Y68.2008
G01 X-101.0300 Y68.3446
G01 X-100.9436 Y68.4740
G01 X-100.8336 Y68.5840
G01 X-100.7042 Y68.6704
G01 X-100.5604 Y68.7300
G01 X-100.4078 Y68.7603
G01 X-100.2522 Y68.7603
G01 X-100.0996 Y68.7300
G01 X-99.9558 Y68.6704
G01 X-99.8264 Y68.5840
G01 X-99.7164 Y68.4740
G01 X-99.6300 Y68.3446
G01 X-99.5704 Y68.2008
G01 X-99.5401 Y68.0482
G00 Z0.5080
G00 X-86.8401 Y60.4282
G01 Z-0.2540 F254.00
G01 X-86.8401 Y58.9518
G01 X-86.8704 Y58.7992
G01 X-86.9300 Y58.6554
G01 X-87.0164 Y58.5260
G01 X-87.1264 Y58.4160
G01 X-87.2558 Y58.3296
G01 X-87.3996 Y58.2700
G01 X-87.5522 Y58.2397
G01 X-87.7078 Y58.2397
G01 X-87.8604 Y58.2700
G01 X-88.0042 Y58.3296
G01 X-88.1336 Y58.4160
G01 X-88.2436 Y58.5260
G01 X-88.3300 Y58.6554
G01 X-88.3896 Y58.7992
G01 X-88.4199 Y58.9518
G01 X-88.4199 Y60.4282
G01 X-88.3896 Y60.5808
G01 X-88.3300 Y60.7246
G01 X-88.2436 Y60.8540
G01 X-88.1336 Y60.9640
G01 X-88.0042 Y61.0504
G01 X-87.8604 Y61.1100
G01 X-87.7078 Y61.1403
G01 X-87.5522 Y61.1403
G01 X-87.3996 Y61.1100
G01 X-87.2558 Y61.0504
G01 X-87.1264 Y60.9640
G01 X-87.0164 Y60.8540
G01 X-86.9300 Y60.7246
G01 X-86.8704 Y60.5808
G01 X-86.8401 Y60.4282
G00 Z0.5080
G00 X-84.3001 Y60.4282
G01 Z-0.2540 F254.00
G01 X-84.3001 Y58.9518
G01 X-84.3304 Y58.7992
G01 X-84.3900 Y58.6554
G01 X-84.4764 Y58.5260
G01 X-84.5864 Y58.4160
G01 X-84.7158 Y58.3296
G01 X-84.8596 Y58.2700
G01 X-85.0122 Y58.2397
G01 X-85.1678 Y58.2397
G01 X-85.3204 Y58.2700
G01 X-85.4642 Y58.3296
G01 X-85.5936 Y58.4160
G01 X-85.7036 Y58.5260
G01 X-85.7900 Y58.6554
G01 X-85.8496 Y58.7992
G01 X-85.8799 Y58.9518
G01 X-85.8799 Y60.4282
G01 X-85.8496 Y60.5808
G01 X-85.7900 Y60.7246
G01 X-85.7036 Y60.8540
G01 X-85.5936 Y60.9640
G01 X-85.4642 Y61.0504
G01 X-85.3204 Y61.1100
G01 X-85.1678 Y61.1403
G01 X-85.0122 Y61.1403
G01 X-84.8596 Y61.1100
G01 X-84.7158 Y61.0504
G01 X-84.5864 Y60.9640
G01 X-84.4764 Y60.8540
G01 X-84.3900 Y60.7246
G01 X-84.3304 Y60.5808
G01 X-84.3001 Y60.4282
G00 Z0.5080
G00 X-91.3155 Y73.5698
G01 Z-0.2540 F254.00
G01 X-91.3155 Y73.7502
G01 X-91.2873 Y73.9282
G01 X-91.2316 Y74.0997
G01 X-91.1497 Y74.2604
G01 X-91.0438 Y74.4063
G01 X-90.9163 Y74.5338
G01 X-90.7704 Y74.6398
G01 X-90.6097 Y74.7216
G01 X-90.4382 Y74.7773
G01 X-90.2602 Y74.8055
G01 X-90.0798 Y74.8055
G01 X-89.9018 Y74.7773
G01 X-89.7303 Y74.7216
G01 X-89.5696 Y74.6398
G01 X-89.4237 Y74.5338
G01 X-89.2962 Y74.4063
G01 X-89.1902 Y74.2604
G01 X-89.1084 Y74.0997
G01 X-89.0527 Y73.9282
G01 X-89.0245 Y73.7502
G01 X-89.0245 Y73.5698
G01 X-89.0527 Y73.3918
G01 X-89.1084 Y73.2203
G01 X-89.1902 Y73.0596
G01 X-89.2962 Y72.9137
G01 X-89.4237 Y72.7862
G01 X-89.5696 Y72.6802
G01 X-89.7303 Y72.5984
G01 X-89.8373 Y72.5636
G01 X-89.8373 Y68.6876
G01 X-89.7958 Y68.6704
G01 X-89.6664 Y68.5840
G01 X-89.5564 Y68.4740
G01 X-89.4700 Y68.3446
G01 X-89.4104 Y68.2008
G01 X-89.3801 Y68.0482
G01 X-89.3801 Y66.5718
G01 X-89.4104 Y66.4192
G01 X-89.4700 Y66.2754
G01 X-89.5564 Y66.1460
G01 X-89.6664 Y66.0360
G01 X-89.7958 Y65.9496
G01 X-89.9396 Y65.8900
G01 X-90.0922 Y65.8597
G01 X-90.2478 Y65.8597
G01 X-90.4004 Y65.8900
G01 X-90.5442 Y65.9496
G01 X-90.6736 Y66.0360
G01 X-90.7836 Y66.1460
G01 X-90.8700 Y66.2754
G01 X-90.9296 Y66.4192
G01 X-90.9599 Y66.5718
G01 X-90.9599 Y68.0482
G01 X-90.9296 Y68.2008
G01 X-90.8700 Y68.3446
G01 X-90.7836 Y68.4740
G01 X-90.6736 Y68.5840
G01 X-90.5442 Y68.6704
G01 X-90.5027 Y68.6876
G01 X-90.5027 Y72.5636
G01 X-90.6097 Y72.5984
G01 X-90.7704 Y72.6802
G01 X-90.9163 Y72.7862
G01 X-91.0438 Y72.9137
G01 X-91.1497 Y73.0596
G01 X-91.2316 Y73.2203
G01 X-91.2873 Y73.3918
G01 X-91.3155 Y73.5698
G00 Z0.5080
G00 X-91.3155 Y81.1898
G01 Z-0.2540 F254.00
G01 X-91.3155 Y81.3702
G01 X-91.2873 Y81.5482
G01 X-91.2316 Y81.7197
G01 X-91.1497 Y81.8804
G01 X-91.0438 Y82.0263
G01 X-90.9163 Y82.1538
G01 X-90.7704 Y82.2598
G01 X-90.6097 Y82.3416
G01 X-90.5027 Y82.3764
G01 X-90.5027 Y84.2622
G01 X-90.6090 Y84.3394
G01 X-90.7506 Y84.4810
G01 X-90.8684 Y84.6430
G01 X-90.9593 Y84.8215
G01 X-91.0212 Y85.0120
G01 X-91.0525 Y85.2098
G01 X-91.0525 Y85.4102
G01 X-91.0212 Y85.6080
G01 X-90.9593 Y85.7985
G01 X-90.8684 Y85.9770
G01 X-90.7506 Y86.1390
G01 X-90.6090 Y86.2806
G01 X-90.4470 Y86.3984
G01 X-90.2685 Y86.4893
G01 X-90.0780 Y86.5512
G01 X-89.8802 Y86.5825
G01 X-89.6798 Y86.5825
G01 X-89.4820 Y86.5512
G01 X-89.2915 Y86.4893
G01 X-89.1130 Y86.3984
G01 X-88.9510 Y86.2806
G01 X-88.8094 Y86.1390
G01 X-88.6916 Y85.9770
G01 X-88.6007 Y85.7985
G01 X-88.5388 Y85.6080
G01 X-88.5075 Y85.4102
G01 X-88.5075 Y85.2098
G01 X-88.5388 Y85.0120
G01 X-88.6007 Y84.8215
G01 X-88.6916 Y84.6430
G01 X-88.8094 Y84.4810
G01 X-88.9510 Y84.3394
G01 X-89.1130 Y84.2216
G01 X-89.2915 Y84.1307
G01 X-89.4820 Y84.0688
G01 X-89.6798 Y84.0375
G01 X-89.8373 Y84.0375
G01 X-89.8373 Y82.3764
G01 X-89.7303 Y82.3416
G01 X-89.5696 Y82.2598
G01 X-89.4237 Y82.1538
G01 X-89.2962 Y82.0263
G01 X-89.1902 Y81.8804
G01 X-89.1084 Y81.7197
G01 X-89.0527 Y81.5482
G01 X-89.0245 Y81.3702
G01 X-89.0245 Y81.1898
G01 X-89.0527 Y81.0118
G01 X-89.1084 Y80.8403
G01 X-89.1902 Y80.6796
G01 X-89.2962 Y80.5337
G01 X-89.4237 Y80.4062
G01 X-89.5696 Y80.3002
G01 X-89.7303 Y80.2184
G01 X-89.9018 Y80.1627
G01 X-90.0798 Y80.1345
G01 X-90.2602 Y80.1345
G01 X-90.4382 Y80.1627
G01 X-90.6097 Y80.2184
G01 X-90.7704 Y80.3002
G01 X-90.9163 Y80.4062
G01 X-91.0438 Y80.5337
G01 X-91.1497 Y80.6796
G01 X-91.2316 Y80.8403
G01 X-91.2873 Y81.0118
G01 X-91.3155 Y81.1898
G00 Z0.5080
G00 X-91.0449 Y97.7220
G01 Z-0.2540 F254.00
G01 X-91.0449 Y97.9224
G01 X-91.0136 Y98.1202
G01 X-90.9517 Y98.3107
G01 X-90.8608 Y98.4892
G01 X-90.7430 Y98.6512
G01 X-90.6014 Y98.7928
G01 X-90.4394 Y98.9106
G01 X-90.2609 Y99.0015
G01 X-90.0704 Y99.0634
G01 X-89.8726 Y99.0947
G01 X-89.6722 Y99.0947
G01 X-89.4744 Y99.0634
G01 X-89.2839 Y99.0015
G01 X-89.1054 Y98.9106
G01 X-88.9434 Y98.7928
G01 X-88.8018 Y98.6512
G01 X-88.6840 Y98.4892
G01 X-88.5931 Y98.3107
G01 X-88.5312 Y98.1202
G01 X-88.4999 Y97.9224
G01 X-88.4999 Y97.7220
G01 X-88.5312 Y97.5242
G01 X-88.5931 Y97.3337
G01 X-88.6840 Y97.1552
G01 X-88.8018 Y96.9932
G01 X-88.9434 Y96.8516
G01 X-89.1054 Y96.7338
G01 X-89.2839 Y96.6429
G01 X-89.4744 Y96.5810
G01 X-89.6722 Y96.5497
G01 X-89.8726 Y96.5497
G01 X-90.0704 Y96.5810
G01 X-90.2609 Y96.6429
G01 X-90.4394 Y96.7338
G01 X-90.6014 Y96.8516
G01 X-90.7430 Y96.9932
G01 X-90.8608 Y97.1552
G01 X-90.9517 Y97.3337
G01 X-91.0136 Y97.5242
G01 X-91.0449 Y97.7220
G00 Z0.5080
G00 X-101.0525 Y97.7220
G01 Z-0.2540 F254.00
G01 X-101.0525 Y97.9224
G01 X-101.0212 Y98.1202
G01 X-100.9593 Y98.3107
G01 X-100.8684 Y98.4892
G01 X-100.7506 Y98.6512
G01 X-100.6090 Y98.7928
G01 X-100.4470 Y98.9106
G01 X-100.2685 Y99.0015
G01 X-100.0780 Y99.0634
G01 X-99.8802 Y99.0947
G01 X-99.6798 Y99.0947
G01 X-99.4820 Y99.0634
G01 X-99.2915 Y99.0015
G01 X-99.1130 Y98.9106
G01 X-98.9510 Y98.7928
G01 X-98.8094 Y98.6512
G01 X-98.6916 Y98.4892
G01 X-98.6007 Y98.3107
G01 X-98.5388 Y98.1202
G01 X-98.5075 Y97.9224
G01 X-98.5075 Y97.7220
G01 X-98.5388 Y97.5242
G01 X-98.6007 Y97.3337
G01 X-98.6916 Y97.1552
G01 X-98.8094 Y96.9932
G01 X-98.9510 Y96.8516
G01 X-99.1130 Y96.7338
G01 X-99.2915 Y96.6429
G01 X-99.4820 Y96.5810
G01 X-99.6798 Y96.5497
G01 X-99.8802 Y96.5497
G01 X-100.0780 Y96.5810
G01 X-100.2685 Y96.6429
G01 X-100.4470 Y96.7338
G01 X-100.6090 Y96.8516
G01 X-100.7506 Y96.9932
G01 X-100.8684 Y97.1552
G01 X-100.9593 Y97.3337
G01 X-101.0212 Y97.5242
G01 X-101.0525 Y97.7220
G00 Z0.5080
G00 X-101.0525 Y85.2198
G01 Z-0.2540 F254.00
G01 X-101.0525 Y85.4202
G01 X-101.0212 Y85.6180
G01 X-100.9593 Y85.8085
G01 X-100.8684 Y85.9870
G01 X-100.7506 Y86.1490
G01 X-100.6090 Y86.2906
G01 X-100.4470 Y86.4084
G01 X-100.2685 Y86.4993
G01 X-100.0780 Y86.5612
G01 X-99.8802 Y86.5925
G01 X-99.6798 Y86.5925
G01 X-99.4820 Y86.5612
G01 X-99.2915 Y86.4993
G01 X-99.1130 Y86.4084
G01 X-98.9510 Y86.2906
G01 X-98.8094 Y86.1490
G01 X-98.6916 Y85.9870
G01 X-98.6007 Y85.8085
G01 X-98.5388 Y85.6180
G01 X-98.5075 Y85.4202
G01 X-98.5075 Y85.2198
G01 X-98.5388 Y85.0220
G01 X-98.6007 Y84.8315
G01 X-98.6916 Y84.6530
G01 X-98.7273 Y84.6040
G01 X-98.7273 Y82.3764
G01 X-98.6203 Y82.3416
G01 X-98.4596 Y82.2598
G01 X-98.3137 Y82.1538
G01 X-98.1862 Y82.0263
G01 X-98.0802 Y81.8804
G01 X-97.9984 Y81.7197
G01 X-97.9427 Y81.5482
G01 X-97.9145 Y81.3702
G01 X-97.9145 Y81.1898
G01 X-97.9427 Y81.0118
G01 X-97.9984 Y80.8403
G01 X-98.0802 Y80.6796
G01 X-98.1862 Y80.5337
G01 X-98.3137 Y80.4062
G01 X-98.4596 Y80.3002
G01 X-98.6203 Y80.2184
G01 X-98.7918 Y80.1627
G01 X-98.9698 Y80.1345
G01 X-99.1502 Y80.1345
G01 X-99.3282 Y80.1627
G01 X-99.4997 Y80.2184
G01 X-99.6604 Y80.3002
G01 X-99.8063 Y80.4062
G01 X-99.9338 Y80.5337
G01 X-100.0397 Y80.6796
G01 X-100.1216 Y80.8403
G01 X-100.1773 Y81.0118
G01 X-100.2055 Y81.1898
G01 X-100.2055 Y81.3702
G01 X-100.1773 Y81.5482
G01 X-100.1216 Y81.7197
G01 X-100.0397 Y81.8804
G01 X-99.9338 Y82.0263
G01 X-99.8063 Y82.1538
G01 X-99.6604 Y82.2598
G01 X-99.4997 Y82.3416
G01 X-99.3927 Y82.3764
G01 X-99.3927 Y84.1078
G01 X-99.4820 Y84.0788
G01 X-99.6798 Y84.0475
G01 X-99.8802 Y84.0475
G01 X-100.0780 Y84.0788
G01 X-100.2685 Y84.1407
G01 X-100.4470 Y84.2316
G01 X-100.6090 Y84.3494
G01 X-100.7506 Y84.4910
G01 X-100.8684 Y84.6530
G01 X-100.9593 Y84.8315
G01 X-101.0212 Y85.0220
G01 X-101.0525 Y85.2198
G00 Z0.5080
G00 X-103.5925 Y87.7398
G01 Z-0.2540 F254.00
G01 X-103.5925 Y87.9402
G01 X-103.5612 Y88.1380
G01 X-103.4993 Y88.3285
G01 X-103.4084 Y88.5070
G01 X-103.2906 Y88.6690
G01 X-103.1490 Y88.8106
G01 X-102.9870 Y88.9284
G01 X-102.8085 Y89.0193
G01 X-102.6180 Y89.0812
G01 X-102.4202 Y89.1125
G01 X-102.2198 Y89.1125
G01 X-102.0220 Y89.0812
G01 X-101.8315 Y89.0193
G01 X-101.6530 Y88.9284
G01 X-101.4910 Y88.8106
G01 X-101.3494 Y88.6690
G01 X-101.2316 Y88.5070
G01 X-101.1407 Y88.3285
G01 X-101.0788 Y88.1380
G01 X-101.0475 Y87.9402
G01 X-101.0475 Y87.7398
G01 X-101.0788 Y87.5420
G01 X-101.1407 Y87.3515
G01 X-101.2316 Y87.1730
G01 X-101.3494 Y87.0110
G01 X-101.4910 Y86.8694
G01 X-101.6530 Y86.7516
G01 X-101.8315 Y86.6607
G01 X-102.0220 Y86.5988
G01 X-102.2198 Y86.5675
G01 X-102.4202 Y86.5675
G01 X-102.6180 Y86.5988
G01 X-102.8085 Y86.6607
G01 X-102.9870 Y86.7516
G01 X-103.1490 Y86.8694
G01 X-103.2906 Y87.0110
G01 X-103.4084 Y87.1730
G01 X-103.4993 Y87.3515
G01 X-103.5612 Y87.5420
G01 X-103.5925 Y87.7398
G00 Z0.5080
G00 X-88.5825 Y87.7398
G01 Z-0.2540 F254.00
G01 X-88.5825 Y87.9402
G01 X-88.5512 Y88.1380
G01 X-88.4893 Y88.3285
G01 X-88.3984 Y88.5070
G01 X-88.2806 Y88.6690
G01 X-88.1390 Y88.8106
G01 X-87.9770 Y88.9284
G01 X-87.7985 Y89.0193
G01 X-87.6080 Y89.0812
G01 X-87.4102 Y89.1125
G01 X-87.2098 Y89.1125
G01 X-87.0120 Y89.0812
G01 X-86.8215 Y89.0193
G01 X-86.6430 Y88.9284
G01 X-86.4810 Y88.8106
G01 X-86.3394 Y88.6690
G01 X-86.2216 Y88.5070
G01 X-86.1307 Y88.3285
G01 X-86.0688 Y88.1380
G01 X-86.0375 Y87.9402
G01 X-86.0375 Y87.7398
G01 X-86.0688 Y87.5420
G01 X-86.1307 Y87.3515
G01 X-86.2216 Y87.1730
G01 X-86.3394 Y87.0110
G01 X-86.4810 Y86.8694
G01 X-86.6430 Y86.7516
G01 X-86.8215 Y86.6607
G01 X-87.0120 Y86.5988
G01 X-87.2098 Y86.5675
G01 X-87.4102 Y86.5675
G01 X-87.6080 Y86.5988
G01 X-87.7985 Y86.6607
G01 X-87.9770 Y86.7516
G01 X-88.1390 Y86.8694
G01 X-88.2806 Y87.0110
G01 X-88.3984 Y87.1730
G01 X-88.4893 Y87.3515
G01 X-88.5512 Y87.5420
G01 X-88.5825 Y87.7398
G00 Z0.5080
G00 X-96.0625 Y87.7298
G01 Z-0.2540 F254.00
G01 X-96.0625 Y87.9301
G01 X-96.0312 Y88.1280
G01 X-95.9693 Y88.3185
G01 X-95.8784 Y88.4970
G01 X-95.7606 Y88.6590
G01 X-95.6190 Y88.8006
G01 X-95.4570 Y88.9184
G01 X-95.2785 Y89.0093
G01 X-95.0880 Y89.0712
G01 X-94.8902 Y89.1025
G01 X-94.6898 Y89.1025
G01 X-94.4920 Y89.0712
G01 X-94.3015 Y89.0093
G01 X-94.1230 Y88.9184
G01 X-93.9610 Y88.8006
G01 X-93.8194 Y88.6590
G01 X-93.7016 Y88.4970
G01 X-93.6107 Y88.3185
G01 X-93.5488 Y88.1280
G01 X-93.5175 Y87.9301
G01 X-93.5175 Y87.7298
G01 X-93.5488 Y87.5320
G01 X-93.6107 Y87.3415
G01 X-93.7016 Y87.1630
G01 X-93.8194 Y87.0010
G01 X-93.9610 Y86.8594
G01 X-94.1230 Y86.7416
G01 X-94.3015 Y86.6507
G01 X-94.4920 Y86.5888
G01 X-94.6898 Y86.5575
G01 X-94.8902 Y86.5575
G01 X-95.0880 Y86.5888
G01 X-95.2785 Y86.6507
G01 X-95.4570 Y86.7416
G01 X-95.6190 Y86.8594
G01 X-95.7606 Y87.0010
G01 X-95.8784 Y87.1630
G01 X-95.9693 Y87.3415
G01 X-96.0312 Y87.5320
G01 X-96.0625 Y87.7298
G00 Z0.5080
G00 X-119.0015 Y44.0807
G01 Z-0.2540 F254.00
G01 X-119.0015 Y44.8193
G01 X-118.4793 Y45.3415
G01 X-117.7407 Y45.3415
G01 X-117.2185 Y44.8193
G01 X-117.2185 Y44.7827
G01 X-111.5063 Y44.7827
G01 X-111.4810 Y44.8605
G01 X-111.4046 Y45.0105
G01 X-111.3056 Y45.1466
G01 X-111.1866 Y45.2656
G01 X-111.0505 Y45.3646
G01 X-110.9005 Y45.4410
G01 X-110.7404 Y45.4930
G01 X-110.5742 Y45.5193
G01 X-110.4058 Y45.5193
G01 X-110.2396 Y45.4930
G01 X-110.0795 Y45.4410
G01 X-109.9295 Y45.3646
G01 X-109.7934 Y45.2656
G01 X-109.6744 Y45.1466
G01 X-109.5754 Y45.0105
G01 X-109.4990 Y44.8605
G01 X-109.4470 Y44.7004
G01 X-109.4207 Y44.5342
G01 X-109.4207 Y44.3658
G01 X-109.4470 Y44.1996
G01 X-109.4990 Y44.0395
G01 X-109.5754 Y43.8895
G01 X-109.6744 Y43.7534
G01 X-109.7934 Y43.6344
G01 X-109.9295 Y43.5354
G01 X-110.0795 Y43.4590
G01 X-110.2396 Y43.4070
G01 X-110.4058 Y43.3807
G01 X-110.5742 Y43.3807
G01 X-110.7404 Y43.4070
G01 X-110.9005 Y43.4590
G01 X-111.0505 Y43.5354
G01 X-111.1866 Y43.6344
G01 X-111.3056 Y43.7534
G01 X-111.4046 Y43.8895
G01 X-111.4810 Y44.0395
G01 X-111.5063 Y44.1173
G01 X-117.2185 Y44.1173
G01 X-117.2185 Y44.0807
G01 X-117.7407 Y43.5585
G01 X-118.4793 Y43.5585
G01 X-119.0015 Y44.0807
G00 Z0.5080
G00 X-119.0015 Y49.1607
G01 Z-0.2540 F254.00
G01 X-119.0015 Y49.8993
G01 X-118.4793 Y50.4215
G01 X-117.7407 Y50.4215
G01 X-117.2185 Y49.8993
G01 X-117.2185 Y49.8627
G01 X-111.5063 Y49.8627
G01 X-111.4810 Y49.9405
G01 X-111.4046 Y50.0905
G01 X-111.3056 Y50.2266
G01 X-111.1866 Y50.3456
G01 X-111.0505 Y50.4446
G01 X-110.9005 Y50.5210
G01 X-110.7404 Y50.5730
G01 X-110.5742 Y50.5993
G01 X-110.4058 Y50.5993
G01 X-110.2396 Y50.5730
G01 X-110.0795 Y50.5210
G01 X-109.9295 Y50.4446
G01 X-109.7934 Y50.3456
G01 X-109.6744 Y50.2266
G01 X-109.5754 Y50.0905
G01 X-109.4990 Y49.9405
G01 X-109.4470 Y49.7804
G01 X-109.4207 Y49.6142
G01 X-109.4207 Y49.4458
G01 X-109.4470 Y49.2796
G01 X-109.4990 Y49.1195
G01 X-109.5754 Y48.9695
G01 X-109.6744 Y48.8334
G01 X-109.7934 Y48.7144
G01 X-109.9295 Y48.6154
G01 X-110.0795 Y48.5390
G01 X-110.2396 Y48.4870
G01 X-110.4058 Y48.4607
G01 X-110.5742 Y48.4607
G01 X-110.7404 Y48.4870
G01 X-110.9005 Y48.5390
G01 X-111.0505 Y48.6154
G01 X-111.1866 Y48.7144
G01 X-111.3056 Y48.8334
G01 X-111.4046 Y48.9695
G01 X-111.4810 Y49.1195
G01 X-111.5063 Y49.1973
G01 X-117.2185 Y49.1973
G01 X-117.2185 Y49.1607
G01 X-117.7407 Y48.6385
G01 X-118.4793 Y48.6385
G01 X-119.0015 Y49.1607
G00 Z0.5080
G00 X-119.0015 Y54.2407
G01 Z-0.2540 F254.00
G01 X-119.0015 Y54.9793
G01 X-118.4793 Y55.5015
G01 X-117.7407 Y55.5015
G01 X-117.2185 Y54.9793
G01 X-117.2185 Y54.9427
G01 X-111.5063 Y54.9427
G01 X-111.4810 Y55.0205
G01 X-111.4046 Y55.1705
G01 X-111.3056 Y55.3066
G01 X-111.1866 Y55.4256
G01 X-111.0505 Y55.5246
G01 X-110.9005 Y55.6010
G01 X-110.7404 Y55.6530
G01 X-110.5742 Y55.6793
G01 X-110.4058 Y55.6793
G01 X-110.2396 Y55.6530
G01 X-110.0795 Y55.6010
G01 X-109.9295 Y55.5246
G01 X-109.7934 Y55.4256
G01 X-109.6744 Y55.3066
G01 X-109.5754 Y55.1705
G01 X-109.4990 Y55.0205
G01 X-109.4470 Y54.8604
G01 X-109.4207 Y54.6942
G01 X-109.4207 Y54.5258
G01 X-109.4470 Y54.3596
G01 X-109.4990 Y54.1995
G01 X-109.5754 Y54.0495
G01 X-109.6744 Y53.9134
G01 X-109.7934 Y53.7944
G01 X-109.9295 Y53.6954
G01 X-110.0795 Y53.6190
G01 X-110.2396 Y53.5670
G01 X-110.4058 Y53.5407
G01 X-110.5742 Y53.5407
G01 X-110.7404 Y53.5670
G01 X-110.9005 Y53.6190
G01 X-111.0505 Y53.6954
G01 X-111.1866 Y53.7944
G01 X-111.3056 Y53.9134
G01 X-111.4046 Y54.0495
G01 X-111.4810 Y54.1995
G01 X-111.5063 Y54.2773
G01 X-117.2185 Y54.2773
G01 X-117.2185 Y54.2407
G01 X-117.7407 Y53.7185
G01 X-118.4793 Y53.7185
G01 X-119.0015 Y54.2407
G00 Z0.5080
G00 X-119.0015 Y59.3207
G01 Z-0.2540 F254.00
G01 X-119.0015 Y60.0593
G01 X-118.4793 Y60.5815
G01 X-117.7407 Y60.5815
G01 X-117.2185 Y60.0593
G01 X-117.2185 Y60.0227
G01 X-117.1727 Y60.0227
G01 X-117.1727 Y61.2578
G01 X-117.1501 Y61.3424
G01 X-117.1063 Y61.4183
G01 X-117.0443 Y61.4803
G01 X-116.9684 Y61.5241
G01 X-116.8838 Y61.5467
G01 X-111.5063 Y61.5467
G01 X-111.4810 Y61.6245
G01 X-111.4046 Y61.7745
G01 X-111.3056 Y61.9106
G01 X-111.1866 Y62.0296
G01 X-111.0505 Y62.1286
G01 X-110.9005 Y62.2050
G01 X-110.7404 Y62.2570
G01 X-110.5742 Y62.2833
G01 X-110.4058 Y62.2833
G01 X-110.2396 Y62.2570
G01 X-110.0795 Y62.2050
G01 X-109.9295 Y62.1286
G01 X-109.7934 Y62.0296
G01 X-109.6744 Y61.9106
G01 X-109.5754 Y61.7745
G01 X-109.4990 Y61.6245
G01 X-109.4470 Y61.4644
G01 X-109.4207 Y61.2982
G01 X-109.4207 Y61.1298
G01 X-109.4470 Y60.9636
G01 X-109.4990 Y60.8035
G01 X-109.5754 Y60.6535
G01 X-109.6744 Y60.5174
G01 X-109.7934 Y60.3984
G01 X-109.9295 Y60.2994
G01 X-110.0795 Y60.2230
G01 X-110.2396 Y60.1710
G01 X-110.4058 Y60.1447
G01 X-110.5742 Y60.1447
G01 X-110.7404 Y60.1710
G01 X-110.9005 Y60.2230
G01 X-111.0505 Y60.2994
G01 X-111.1866 Y60.3984
G01 X-111.3056 Y60.5174
G01 X-111.4046 Y60.6535
G01 X-111.4810 Y60.8035
G01 X-111.5063 Y60.8813
G01 X-116.5073 Y60.8813
G01 X-116.5073 Y59.6462
G01 X-116.5299 Y59.5616
G01 X-116.5737 Y59.4857
G01 X-116.6357 Y59.4237
G01 X-116.7116 Y59.3799
G01 X-116.7962 Y59.3573
G01 X-117.2185 Y59.3573
G01 X-117.2185 Y59.3207
G01 X-117.7407 Y58.7985
G01 X-118.4793 Y58.7985
G01 X-119.0015 Y59.3207
G00 Z0.5080
G00 X-119.0015 Y61.8607
G01 Z-0.2540 F254.00
G01 X-119.0015 Y62.5993
G01 X-118.4793 Y63.1215
G01 X-118.4427 Y63.1215
G01 X-118.4427 Y63.7978
G01 X-118.4201 Y63.8824
G01 X-118.3763 Y63.9583
G01 X-118.3143 Y64.0203
G01 X-118.2384 Y64.0641
G01 X-118.1538 Y64.0867
G01 X-111.5063 Y64.0867
G01 X-111.4810 Y64.1645
G01 X-111.4046 Y64.3145
G01 X-111.3056 Y64.4506
G01 X-111.1866 Y64.5696
G01 X-111.0505 Y64.6686
G01 X-110.9005 Y64.7450
G01 X-110.7404 Y64.7970
G01 X-110.5742 Y64.8233
G01 X-110.4058 Y64.8233
G01 X-110.2396 Y64.7970
G01 X-110.0795 Y64.7450
G01 X-109.9295 Y64.6686
G01 X-109.7934 Y64.5696
G01 X-109.6744 Y64.4506
G01 X-109.5754 Y64.3145
G01 X-109.4990 Y64.1645
G01 X-109.4470 Y64.0044
G01 X-109.4207 Y63.8382
G01 X-109.4207 Y63.6698
G01 X-109.4470 Y63.5036
G01 X-109.4990 Y63.3435
G01 X-109.5754 Y63.1935
G01 X-109.6744 Y63.0574
G01 X-109.7934 Y62.9384
G01 X-109.9295 Y62.8394
G01 X-110.0795 Y62.7630
G01 X-110.2396 Y62.7110
G01 X-110.4058 Y62.6847
G01 X-110.5742 Y62.6847
G01 X-110.7404 Y62.7110
G01 X-110.9005 Y62.7630
G01 X-111.0505 Y62.8394
G01 X-111.1866 Y62.9384
G01 X-111.3056 Y63.0574
G01 X-111.4046 Y63.1935
G01 X-111.4810 Y63.3435
G01 X-111.5063 Y63.4213
G01 X-117.7773 Y63.4213
G01 X-117.7773 Y63.1215
G01 X-117.7407 Y63.1215
G01 X-117.2185 Y62.5993
G01 X-117.2185 Y61.8607
G01 X-117.7407 Y61.3385
G01 X-118.4793 Y61.3385
G01 X-119.0015 Y61.8607
G00 Z0.5080
G00 X-115.9485 Y21.1698
G01 Z-0.2540 F254.00
G01 X-115.9485 Y19.4702
G01 X-115.9827 Y19.2979
G01 X-116.0499 Y19.1357
G01 X-116.1475 Y18.9897
G01 X-116.2717 Y18.8655
G01 X-116.4177 Y18.7679
G01 X-116.5073 Y18.7308
G01 X-116.5073 Y15.5592
G01 X-116.4177 Y15.5221
G01 X-116.2717 Y15.4245
G01 X-116.1475 Y15.3003
G01 X-116.0499 Y15.1543
G01 X-115.9827 Y14.9921
G01 X-115.9485 Y14.8198
G01 X-115.9485 Y14.3027
G01 X-110.8227 Y14.3027
G01 X-110.8227 Y15.4937
G01 X-110.9005 Y15.5190
G01 X-111.0505 Y15.5954
G01 X-111.1866 Y15.6944
G01 X-111.3056 Y15.8134
G01 X-111.4046 Y15.9495
G01 X-111.4810 Y16.0995
G01 X-111.5330 Y16.2596
G01 X-111.5593 Y16.4258
G01 X-111.5593 Y16.5942
G01 X-111.5330 Y16.7604
G01 X-111.4810 Y16.9205
G01 X-111.4046 Y17.0705
G01 X-111.3056 Y17.2066
G01 X-111.1866 Y17.3256
G01 X-111.0505 Y17.4246
G01 X-110.9005 Y17.5010
G01 X-110.7404 Y17.5530
G01 X-110.5742 Y17.5793
G01 X-110.4058 Y17.5793
G01 X-110.2396 Y17.5530
G01 X-110.0795 Y17.5010
G01 X-109.9295 Y17.4246
G01 X-109.7934 Y17.3256
G01 X-109.6744 Y17.2066
G01 X-109.5754 Y17.0705
G01 X-109.4990 Y16.9205
G01 X-109.4737 Y16.8427
G01 X-90.5027 Y16.8427
G01 X-90.5027 Y24.1738
G01 X-90.4801 Y24.2584
G01 X-90.4363 Y24.3343
G01 X-90.3743 Y24.3963
G01 X-90.2984 Y24.4401
G01 X-90.2138 Y24.4627
G01 X-86.6927 Y24.4627
G01 X-86.6927 Y27.8324
G01 X-86.7342 Y27.8496
G01 X-86.8636 Y27.9360
G01 X-86.9736 Y28.0460
G01 X-87.0600 Y28.1754
G01 X-87.1196 Y28.3192
G01 X-87.1499 Y28.4718
G01 X-87.1499 Y29.9482
G01 X-87.1196 Y30.1008
G01 X-87.0600 Y30.2446
G01 X-86.9736 Y30.3740
G01 X-86.8636 Y30.4840
G01 X-86.7342 Y30.5704
G01 X-86.5904 Y30.6300
G01 X-86.4378 Y30.6603
G01 X-86.2822 Y30.6603
G01 X-86.1296 Y30.6300
G01 X-85.9858 Y30.5704
G01 X-85.8564 Y30.4840
G01 X-85.7464 Y30.3740
G01 X-85.6600 Y30.2446
G01 X-85.6004 Y30.1008
G01 X-85.5701 Y29.9482
G01 X-85.5701 Y28.4718
G01 X-85.6004 Y28.3192
G01 X-85.6600 Y28.1754
G01 X-85.7464 Y28.0460
G01 X-85.8564 Y27.9360
G01 X-85.9858 Y27.8496
G01 X-86.0273 Y27.8324
G01 X-86.0273 Y24.0862
G01 X-86.0499 Y24.0016
G01 X-86.0937 Y23.9257
G01 X-86.1557 Y23.8637
G01 X-86.2316 Y23.8199
G01 X-86.3162 Y23.7973
G01 X-89.8373 Y23.7973
G01 X-89.8373 Y16.4662
G01 X-89.8599 Y16.3816
G01 X-89.9037 Y16.3057
G01 X-89.9657 Y16.2437
G01 X-90.0416 Y16.1999
G01 X-90.1262 Y16.1773
G01 X-109.4737 Y16.1773
G01 X-109.4990 Y16.0995
G01 X-109.5754 Y15.9495
G01 X-109.6744 Y15.8134
G01 X-109.7934 Y15.6944
G01 X-109.9295 Y15.5954
G01 X-110.0795 Y15.5190
G01 X-110.1573 Y15.4937
G01 X-110.1573 Y13.9262
G01 X-110.1799 Y13.8416
G01 X-110.2237 Y13.7657
G01 X-110.2857 Y13.7037
G01 X-110.3616 Y13.6599
G01 X-110.4462 Y13.6373
G01 X-115.9485 Y13.6373
G01 X-115.9485 Y13.1202
G01 X-115.9827 Y12.9479
G01 X-116.0499 Y12.7857
G01 X-116.1475 Y12.6397
G01 X-116.2717 Y12.5155
G01 X-116.4177 Y12.4179
G01 X-116.5799 Y12.3507
G01 X-116.7522 Y12.3165
G01 X-116.9278 Y12.3165
G01 X-117.1001 Y12.3507
G01 X-117.2623 Y12.4179
G01 X-117.4083 Y12.5155
G01 X-117.5325 Y12.6397
G01 X-117.6301 Y12.7857
G01 X-117.6973 Y12.9479
G01 X-117.7315 Y13.1202
G01 X-117.7315 Y14.8198
G01 X-117.6973 Y14.9921
G01 X-117.6301 Y15.1543
G01 X-117.5325 Y15.3003
G01 X-117.4083 Y15.4245
G01 X-117.2623 Y15.5221
G01 X-117.1727 Y15.5592
G01 X-117.1727 Y18.7308
G01 X-117.2623 Y18.7679
G01 X-117.4083 Y18.8655
G01 X-117.5325 Y18.9897
G01 X-117.6301 Y19.1357
G01 X-117.6973 Y19.2979
G01 X-117.7315 Y19.4702
G01 X-117.7315 Y21.1698
G01 X-117.6973 Y21.3421
G01 X-117.6301 Y21.5043
G01 X-117.5325 Y21.6503
G01 X-117.4083 Y21.7745
G01 X-117.2623 Y21.8721
G01 X-117.1727 Y21.9092
G01 X-117.1727 Y25.0808
G01 X-117.2623 Y25.1179
G01 X-117.4083 Y25.2155
G01 X-117.5325 Y25.3397
G01 X-117.6301 Y25.4857
G01 X-117.6973 Y25.6479
G01 X-117.7315 Y25.8202
G01 X-117.7315 Y27.5198
G01 X-117.6973 Y27.6921
G01 X-117.6301 Y27.8543
G01 X-117.5325 Y28.0003
G01 X-117.4083 Y28.1245
G01 X-117.2623 Y28.2221
G01 X-117.1727 Y28.2592
G01 X-117.1727 Y31.4308
G01 X-117.2623 Y31.4679
G01 X-117.4083 Y31.5655
G01 X-117.5325 Y31.6897
G01 X-117.6301 Y31.8357
G01 X-117.6973 Y31.9979
G01 X-117.7315 Y32.1702
G01 X-117.7315 Y33.8698
G01 X-117.6973 Y34.0421
G01 X-117.6301 Y34.2043
G01 X-117.5325 Y34.3503
G01 X-117.4083 Y34.4745
G01 X-117.2623 Y34.5721
G01 X-117.1001 Y34.6393
G01 X-116.9278 Y34.6735
G01 X-116.7522 Y34.6735
G01 X-116.5799 Y34.6393
G01 X-116.4177 Y34.5721
G01 X-116.2717 Y34.4745
G01 X-116.1475 Y34.3503
G01 X-116.0499 Y34.2043
G01 X-115.9827 Y34.0421
G01 X-115.9485 Y33.8698
G01 X-115.9485 Y32.1702
G01 X-115.9827 Y31.9979
G01 X-116.0499 Y31.8357
G01 X-116.1475 Y31.6897
G01 X-116.2717 Y31.5655
G01 X-116.4177 Y31.4679
G01 X-116.5073 Y31.4308
G01 X-116.5073 Y28.2592
G01 X-116.4177 Y28.2221
G01 X-116.2717 Y28.1245
G01 X-116.1475 Y28.0003
G01 X-116.0499 Y27.8543
G01 X-115.9827 Y27.6921
G01 X-115.9485 Y27.5198
G01 X-115.9485 Y25.8202
G01 X-115.9827 Y25.6479
G01 X-116.0499 Y25.4857
G01 X-116.1475 Y25.3397
G01 X-116.2717 Y25.2155
G01 X-116.4177 Y25.1179
G01 X-116.5073 Y25.0808
G01 X-116.5073 Y21.9092
G01 X-116.4177 Y21.8721
G01 X-116.2717 Y21.7745
G01 X-116.1475 Y21.6503
G01 X-116.0499 Y21.5043
G01 X-115.9827 Y21.3421
G01 X-115.9485 Y21.1698
G00 Z0.5080
G00 X-66.5718 Y81.7601
G01 Z-0.2540 F254.00
G01 X-68.0482 Y81.7601
G01 X-68.2008 Y81.7904
G01 X-68.2473 Y81.8097
G01 X-68.2473 Y80.7780
G01 X-68.2058 Y80.7608
G01 X-68.0764 Y80.6744
G01 X-67.9664 Y80.5644
G01 X-67.8800 Y80.4350
G01 X-67.8204 Y80.2912
G01 X-67.7901 Y80.1386
G01 X-67.7901 Y78.6622
G01 X-67.8204 Y78.5096
G01 X-67.8800 Y78.3658
G01 X-67.9664 Y78.2364
G01 X-68.0764 Y78.1264
G01 X-68.2058 Y78.0400
G01 X-68.3496 Y77.9804
G01 X-68.5022 Y77.9501
G01 X-68.6578 Y77.9501
G01 X-68.8104 Y77.9804
G01 X-68.9542 Y78.0400
G01 X-69.0836 Y78.1264
G01 X-69.1936 Y78.2364
G01 X-69.2800 Y78.3658
G01 X-69.3396 Y78.5096
G01 X-69.3699 Y78.6622
G01 X-69.3699 Y80.1386
G01 X-69.3396 Y80.2912
G01 X-69.2800 Y80.4350
G01 X-69.1936 Y80.5644
G01 X-69.0836 Y80.6744
G01 X-68.9542 Y80.7608
G01 X-68.9127 Y80.7780
G01 X-68.9127 Y82.5938
G01 X-68.8901 Y82.6784
G01 X-68.8463 Y82.7543
G01 X-68.7843 Y82.8163
G01 X-68.7084 Y82.8601
G01 X-68.6956 Y82.8635
G01 X-68.6704 Y82.9242
G01 X-68.5840 Y83.0536
G01 X-68.4740 Y83.1636
G01 X-68.3446 Y83.2500
G01 X-68.2008 Y83.3096
G01 X-68.0482 Y83.3399
G01 X-67.6427 Y83.3399
G01 X-67.6427 Y85.3538
G01 X-67.6201 Y85.4384
G01 X-67.5763 Y85.5143
G01 X-67.5143 Y85.5763
G01 X-67.4384 Y85.6201
G01 X-67.3538 Y85.6427
G01 X-66.8799 Y85.6427
G01 X-66.8293 Y85.7985
G01 X-66.7384 Y85.9770
G01 X-66.6206 Y86.1390
G01 X-66.4790 Y86.2806
G01 X-66.3170 Y86.3984
G01 X-66.1385 Y86.4893
G01 X-65.9480 Y86.5512
G01 X-65.7502 Y86.5825
G01 X-65.5498 Y86.5825
G01 X-65.3520 Y86.5512
G01 X-65.1615 Y86.4893
G01 X-64.9830 Y86.3984
G01 X-64.8210 Y86.2806
G01 X-64.6794 Y86.1390
G01 X-64.5616 Y85.9770
G01 X-64.4707 Y85.7985
G01 X-64.4088 Y85.6080
G01 X-64.3775 Y85.4102
G01 X-64.3775 Y85.2098
G01 X-64.4088 Y85.0120
G01 X-64.4707 Y84.8215
G01 X-64.5616 Y84.6430
G01 X-64.6794 Y84.4810
G01 X-64.8210 Y84.3394
G01 X-64.9830 Y84.2216
G01 X-65.1615 Y84.1307
G01 X-65.3520 Y84.0688
G01 X-65.5498 Y84.0375
G01 X-65.7502 Y84.0375
G01 X-65.9480 Y84.0688
G01 X-66.1385 Y84.1307
G01 X-66.3170 Y84.2216
G01 X-66.4790 Y84.3394
G01 X-66.6206 Y84.4810
G01 X-66.7384 Y84.6430
G01 X-66.8293 Y84.8215
G01 X-66.8799 Y84.9773
G01 X-66.9773 Y84.9773
G01 X-66.9773 Y83.3399
G01 X-66.5718 Y83.3399
G01 X-66.4192 Y83.3096
G01 X-66.2754 Y83.2500
G01 X-66.1460 Y83.1636
G01 X-66.0360 Y83.0536
G01 X-65.9496 Y82.9242
G01 X-65.8900 Y82.7804
G01 X-65.8597 Y82.6278
G01 X-65.8597 Y82.4722
G01 X-65.8900 Y82.3196
G01 X-65.9496 Y82.1758
G01 X-66.0360 Y82.0464
G01 X-66.1460 Y81.9364
G01 X-66.2754 Y81.8500
G01 X-66.4192 Y81.7904
G01 X-66.5718 Y81.7601
G00 Z0.5080
G00 X-76.0755 Y65.9498
G01 Z-0.2540 F254.00
G01 X-76.0755 Y66.1302
G01 X-76.0473 Y66.3082
G01 X-75.9916 Y66.4797
G01 X-75.9098 Y66.6404
G01 X-75.8038 Y66.7863
G01 X-75.6763 Y66.9138
G01 X-75.5304 Y67.0198
G01 X-75.3697 Y67.1016
G01 X-75.2627 Y67.1364
G01 X-75.2627 Y71.1638
G01 X-75.2401 Y71.2484
G01 X-75.1963 Y71.3243
G01 X-75.1343 Y71.3863
G01 X-75.0584 Y71.4301
G01 X-74.9738 Y71.4527
G01 X-74.3772 Y71.4527
G01 X-74.3600 Y71.4942
G01 X-74.2736 Y71.6236
G01 X-74.1636 Y71.7336
G01 X-74.0342 Y71.8200
G01 X-73.8904 Y71.8796
G01 X-73.7378 Y71.9099
G01 X-73.5822 Y71.9099
G01 X-73.4296 Y71.8796
G01 X-73.2858 Y71.8200
G01 X-73.1564 Y71.7336
G01 X-73.0464 Y71.6236
G01 X-72.9600 Y71.4942
G01 X-72.9004 Y71.3504
G01 X-72.8701 Y71.1978
G01 X-72.8701 Y69.7214
G01 X-72.9004 Y69.5688
G01 X-72.9600 Y69.4250
G01 X-73.0464 Y69.2956
G01 X-73.1564 Y69.1856
G01 X-73.2858 Y69.0992
G01 X-73.4296 Y69.0396
G01 X-73.5822 Y69.0093
G01 X-73.7378 Y69.0093
G01 X-73.8904 Y69.0396
G01 X-74.0342 Y69.0992
G01 X-74.1636 Y69.1856
G01 X-74.2736 Y69.2956
G01 X-74.3600 Y69.4250
G01 X-74.4196 Y69.5688
G01 X-74.4499 Y69.7214
G01 X-74.4499 Y70.7873
G01 X-74.5973 Y70.7873
G01 X-74.5973 Y67.1364
G01 X-74.4903 Y67.1016
G01 X-74.3296 Y67.0198
G01 X-74.1837 Y66.9138
G01 X-74.0562 Y66.7863
G01 X-73.9502 Y66.6404
G01 X-73.8684 Y66.4797
G01 X-73.8127 Y66.3082
G01 X-73.7845 Y66.1302
G01 X-73.7845 Y65.9498
G01 X-73.8127 Y65.7717
G01 X-73.8684 Y65.6003
G01 X-73.9502 Y65.4396
G01 X-74.0562 Y65.2937
G01 X-74.1837 Y65.1662
G01 X-74.3296 Y65.0602
G01 X-74.3459 Y65.0519
G01 X-67.8941 Y65.0519
G01 X-67.9104 Y65.0602
G01 X-68.0563 Y65.1662
G01 X-68.1838 Y65.2937
G01 X-68.2897 Y65.4396
G01 X-68.3716 Y65.6003
G01 X-68.4064 Y65.7073
G01 X-68.6238 Y65.7073
G01 X-68.7084 Y65.7299
G01 X-68.7843 Y65.7737
G01 X-68.8463 Y65.8357
G01 X-68.8901 Y65.9116
G01 X-68.9127 Y65.9962
G01 X-68.9127 Y69.0820
G01 X-68.9542 Y69.0992
G01 X-69.0836 Y69.1856
G01 X-69.1936 Y69.2956
G01 X-69.2800 Y69.4250
G01 X-69.3396 Y69.5688
G01 X-69.3699 Y69.7214
G01 X-69.3699 Y71.1978
G01 X-69.3396 Y71.3504
G01 X-69.2800 Y71.4942
G01 X-69.1936 Y71.6236
G01 X-69.0836 Y71.7336
G01 X-68.9542 Y71.8200
G01 X-68.8104 Y71.8796
G01 X-68.6578 Y71.9099
G01 X-68.5022 Y71.9099
G01 X-68.3496 Y71.8796
G01 X-68.2058 Y71.8200
G01 X-68.0764 Y71.7336
G01 X-67.9664 Y71.6236
G01 X-67.8800 Y71.4942
G01 X-67.8204 Y71.3504
G01 X-67.7901 Y71.1978
G01 X-67.7901 Y69.7214
G01 X-67.8204 Y69.5688
G01 X-67.8800 Y69.4250
G01 X-67.9664 Y69.2956
G01 X-68.0764 Y69.1856
G01 X-68.2058 Y69.0992
G01 X-68.2473 Y69.0820
G01 X-68.2473 Y66.6989
G01 X-68.1838 Y66.7863
G01 X-68.0563 Y66.9138
G01 X-67.9104 Y67.0198
G01 X-67.7497 Y67.1016
G01 X-67.5782 Y67.1573
G01 X-67.4002 Y67.1855
G01 X-67.2198 Y67.1855
G01 X-67.0418 Y67.1573
G01 X-66.8703 Y67.1016
G01 X-66.7096 Y67.0198
G01 X-66.5637 Y66.9138
G01 X-66.4362 Y66.7863
G01 X-66.3302 Y66.6404
G01 X-66.2484 Y66.4797
G01 X-66.1927 Y66.3082
G01 X-66.1645 Y66.1302
G01 X-66.1645 Y65.9498
G01 X-66.1927 Y65.7717
G01 X-66.2484 Y65.6003
G01 X-66.3302 Y65.4396
G01 X-66.4362 Y65.2937
G01 X-66.5637 Y65.1662
G01 X-66.7096 Y65.0602
G01 X-66.8703 Y64.9784
G01 X-66.9773 Y64.9436
G01 X-66.9773 Y64.7262
G01 X-66.9999 Y64.6416
G01 X-67.0437 Y64.5657
G01 X-67.1057 Y64.5037
G01 X-67.1816 Y64.4599
G01 X-67.2662 Y64.4373
G01 X-67.3538 Y64.4373
G01 X-67.4384 Y64.4599
G01 X-67.4871 Y64.4881
G01 X-81.1029 Y64.4881
G01 X-81.1516 Y64.4599
G01 X-81.2362 Y64.4373
G01 X-81.3238 Y64.4373
G01 X-81.4084 Y64.4599
G01 X-81.4843 Y64.5037
G01 X-81.5463 Y64.5657
G01 X-81.5901 Y64.6416
G01 X-81.6127 Y64.7262
G01 X-81.6127 Y65.0215
G01 X-82.1948 Y65.0215
G01 X-82.2424 Y65.0412
G01 X-82.2788 Y65.0776
G01 X-82.2985 Y65.1252
G01 X-82.2985 Y66.9548
G01 X-82.2788 Y67.0024
G01 X-82.2424 Y67.0388
G01 X-82.1948 Y67.0585
G01 X-80.3652 Y67.0585
G01 X-80.3176 Y67.0388
G01 X-80.2812 Y67.0024
G01 X-80.2615 Y66.9548
G01 X-80.2615 Y65.1252
G01 X-80.2812 Y65.0776
G01 X-80.3069 Y65.0519
G01 X-75.5141 Y65.0519
G01 X-75.5304 Y65.0602
G01 X-75.6763 Y65.1662
G01 X-75.8038 Y65.2937
G01 X-75.9098 Y65.4396
G01 X-75.9916 Y65.6003
G01 X-76.0473 Y65.7717
G01 X-76.0755 Y65.9498
G00 Z0.5080
G00 X-79.8855 Y74.8398
G01 Z-0.2540 F254.00
G01 X-79.8855 Y75.0202
G01 X-79.8573 Y75.1982
G01 X-79.8016 Y75.3697
G01 X-79.7198 Y75.5304
G01 X-79.6138 Y75.6763
G01 X-79.4863 Y75.8038
G01 X-79.3404 Y75.9098
G01 X-79.1797 Y75.9916
G01 X-79.0082 Y76.0473
G01 X-78.8302 Y76.0755
G01 X-78.6498 Y76.0755
G01 X-78.4718 Y76.0473
G01 X-78.3003 Y75.9916
G01 X-78.1396 Y75.9098
G01 X-77.9937 Y75.8038
G01 X-77.8662 Y75.6763
G01 X-77.7602 Y75.5304
G01 X-77.6784 Y75.3697
G01 X-77.6436 Y75.2627
G01 X-76.5327 Y75.2627
G01 X-76.5327 Y82.5938
G01 X-76.5101 Y82.6784
G01 X-76.4663 Y82.7543
G01 X-76.4043 Y82.8163
G01 X-76.3284 Y82.8601
G01 X-76.3156 Y82.8635
G01 X-76.2904 Y82.9242
G01 X-76.2040 Y83.0536
G01 X-76.0940 Y83.1636
G01 X-75.9646 Y83.2500
G01 X-75.8208 Y83.3096
G01 X-75.6682 Y83.3399
G01 X-74.1918 Y83.3399
G01 X-74.0392 Y83.3096
G01 X-73.8954 Y83.2500
G01 X-73.7660 Y83.1636
G01 X-73.6560 Y83.0536
G01 X-73.5696 Y82.9242
G01 X-73.5100 Y82.7804
G01 X-73.4797 Y82.6278
G01 X-73.4797 Y82.4722
G01 X-73.5100 Y82.3196
G01 X-73.5696 Y82.1758
G01 X-73.6560 Y82.0464
G01 X-73.7660 Y81.9364
G01 X-73.8954 Y81.8500
G01 X-74.0392 Y81.7904
G01 X-74.1918 Y81.7601
G01 X-75.6682 Y81.7601
G01 X-75.8208 Y81.7904
G01 X-75.8673 Y81.8097
G01 X-75.8673 Y75.2627
G01 X-71.4527 Y75.2627
G01 X-71.4527 Y78.0228
G01 X-71.4942 Y78.0400
G01 X-71.6236 Y78.1264
G01 X-71.7336 Y78.2364
G01 X-71.8200 Y78.3658
G01 X-71.8796 Y78.5096
G01 X-71.9099 Y78.6622
G01 X-71.9099 Y80.1386
G01 X-71.8796 Y80.2912
G01 X-71.8200 Y80.4350
G01 X-71.7336 Y80.5644
G01 X-71.6236 Y80.6744
G01 X-71.4942 Y80.7608
G01 X-71.3504 Y80.8204
G01 X-71.1978 Y80.8507
G01 X-71.0422 Y80.8507
G01 X-70.8896 Y80.8204
G01 X-70.7458 Y80.7608
G01 X-70.6164 Y80.6744
G01 X-70.5064 Y80.5644
G01 X-70.4200 Y80.4350
G01 X-70.3604 Y80.2912
G01 X-70.3301 Y80.1386
G01 X-70.3301 Y78.6622
G01 X-70.3604 Y78.5096
G01 X-70.4200 Y78.3658
G01 X-70.5064 Y78.2364
G01 X-70.6164 Y78.1264
G01 X-70.7458 Y78.0400
G01 X-70.7873 Y78.0228
G01 X-70.7873 Y74.8862
G01 X-70.8099 Y74.8016
G01 X-70.8537 Y74.7257
G01 X-70.9157 Y74.6637
G01 X-70.9916 Y74.6199
G01 X-71.0762 Y74.5973
G01 X-77.6436 Y74.5973
G01 X-77.6784 Y74.4903
G01 X-77.7602 Y74.3296
G01 X-77.8662 Y74.1837
G01 X-77.9937 Y74.0562
G01 X-78.1396 Y73.9502
G01 X-78.3003 Y73.8684
G01 X-78.4718 Y73.8127
G01 X-78.6498 Y73.7845
G01 X-78.8302 Y73.7845
G01 X-79.0082 Y73.8127
G01 X-79.1797 Y73.8684
G01 X-79.3404 Y73.9502
G01 X-79.4863 Y74.0562
G01 X-79.6138 Y74.1837
G01 X-79.7198 Y74.3296
G01 X-79.8016 Y74.4903
G01 X-79.8573 Y74.6617
G01 X-79.8855 Y74.8398
G00 Z0.5080
G00 X-79.8855 Y82.4598
G01 Z-0.2540 F254.00
G01 X-79.8855 Y82.6402
G01 X-79.8573 Y82.8182
G01 X-79.8016 Y82.9897
G01 X-79.7198 Y83.1504
G01 X-79.6138 Y83.2963
G01 X-79.4863 Y83.4238
G01 X-79.3404 Y83.5298
G01 X-79.1797 Y83.6116
G01 X-79.0727 Y83.6464
G01 X-79.0727 Y85.3638
G01 X-79.0501 Y85.4484
G01 X-79.0063 Y85.5243
G01 X-78.9443 Y85.5863
G01 X-78.8684 Y85.6301
G01 X-78.7838 Y85.6527
G01 X-76.8799 Y85.6527
G01 X-76.8293 Y85.8085
G01 X-76.7384 Y85.9870
G01 X-76.6206 Y86.1490
G01 X-76.4790 Y86.2906
G01 X-76.3170 Y86.4084
G01 X-76.1385 Y86.4993
G01 X-75.9480 Y86.5612
G01 X-75.7502 Y86.5925
G01 X-75.5498 Y86.5925
G01 X-75.3520 Y86.5612
G01 X-75.1615 Y86.4993
G01 X-74.9830 Y86.4084
G01 X-74.8210 Y86.2906
G01 X-74.6794 Y86.1490
G01 X-74.5616 Y85.9870
G01 X-74.4707 Y85.8085
G01 X-74.4088 Y85.6180
G01 X-74.3775 Y85.4202
G01 X-74.3775 Y85.2198
G01 X-74.4088 Y85.0220
G01 X-74.4707 Y84.8315
G01 X-74.5616 Y84.6530
G01 X-74.6794 Y84.4910
G01 X-74.8210 Y84.3494
G01 X-74.9830 Y84.2316
G01 X-75.1615 Y84.1407
G01 X-75.3520 Y84.0788
G01 X-75.5498 Y84.0475
G01 X-75.7502 Y84.0475
G01 X-75.9480 Y84.0788
G01 X-76.1385 Y84.1407
G01 X-76.3170 Y84.2316
G01 X-76.4790 Y84.3494
G01 X-76.6206 Y84.4910
G01 X-76.7384 Y84.6530
G01 X-76.8293 Y84.8315
G01 X-76.8799 Y84.9873
G01 X-78.4073 Y84.9873
G01 X-78.4073 Y83.6464
G01 X-78.3003 Y83.6116
G01 X-78.1396 Y83.5298
G01 X-77.9937 Y83.4238
G01 X-77.8662 Y83.2963
G01 X-77.7602 Y83.1504
G01 X-77.6784 Y82.9897
G01 X-77.6227 Y82.8182
G01 X-77.5945 Y82.6402
G01 X-77.5945 Y82.4598
G01 X-77.6227 Y82.2818
G01 X-77.6784 Y82.1103
G01 X-77.7602 Y81.9496
G01 X-77.8662 Y81.8037
G01 X-77.9937 Y81.6762
G01 X-78.1396 Y81.5702
G01 X-78.3003 Y81.4884
G01 X-78.4718 Y81.4327
G01 X-78.6498 Y81.4045
G01 X-78.8302 Y81.4045
G01 X-79.0082 Y81.4327
G01 X-79.1797 Y81.4884
G01 X-79.3404 Y81.5702
G01 X-79.4863 Y81.6762
G01 X-79.6138 Y81.8037
G01 X-79.7198 Y81.9496
G01 X-79.8016 Y82.1103
G01 X-79.8573 Y82.2818
G01 X-79.8855 Y82.4598
G00 Z0.5080
G00 X-66.9149 Y97.7220
G01 Z-0.2540 F254.00
G01 X-66.9149 Y97.9224
G01 X-66.8836 Y98.1202
G01 X-66.8217 Y98.3107
G01 X-66.7308 Y98.4892
G01 X-66.6130 Y98.6512
G01 X-66.4714 Y98.7928
G01 X-66.3094 Y98.9106
G01 X-66.1309 Y99.0015
G01 X-65.9404 Y99.0634
G01 X-65.7426 Y99.0947
G01 X-65.5422 Y99.0947
G01 X-65.3444 Y99.0634
G01 X-65.1539 Y99.0015
G01 X-64.9754 Y98.9106
G01 X-64.8134 Y98.7928
G01 X-64.6718 Y98.6512
G01 X-64.5540 Y98.4892
G01 X-64.4631 Y98.3107
G01 X-64.4012 Y98.1202
G01 X-64.3699 Y97.9224
G01 X-64.3699 Y97.7220
G01 X-64.4012 Y97.5242
G01 X-64.4631 Y97.3337
G01 X-64.5540 Y97.1552
G01 X-64.6718 Y96.9932
G01 X-64.8134 Y96.8516
G01 X-64.9754 Y96.7338
G01 X-65.1539 Y96.6429
G01 X-65.3444 Y96.5810
G01 X-65.5422 Y96.5497
G01 X-65.7426 Y96.5497
G01 X-65.9404 Y96.5810
G01 X-66.1309 Y96.6429
G01 X-66.3094 Y96.7338
G01 X-66.4714 Y96.8516
G01 X-66.6130 Y96.9932
G01 X-66.7308 Y97.1552
G01 X-66.8217 Y97.3337
G01 X-66.8836 Y97.5242
G01 X-66.9149 Y97.7220
G00 Z0.5080
G00 X-76.9225 Y97.7220
G01 Z-0.2540 F254.00
G01 X-76.9225 Y97.9224
G01 X-76.8912 Y98.1202
G01 X-76.8293 Y98.3107
G01 X-76.7384 Y98.4892
G01 X-76.6206 Y98.6512
G01 X-76.4790 Y98.7928
G01 X-76.3170 Y98.9106
G01 X-76.1385 Y99.0015
G01 X-75.9480 Y99.0634
G01 X-75.7502 Y99.0947
G01 X-75.5498 Y99.0947
G01 X-75.3520 Y99.0634
G01 X-75.1615 Y99.0015
G01 X-74.9830 Y98.9106
G01 X-74.8210 Y98.7928
G01 X-74.6794 Y98.6512
G01 X-74.5616 Y98.4892
G01 X-74.4707 Y98.3107
G01 X-74.4088 Y98.1202
G01 X-74.3775 Y97.9224
G01 X-74.3775 Y97.7220
G01 X-74.4088 Y97.5242
G01 X-74.4707 Y97.3337
G01 X-74.5616 Y97.1552
G01 X-74.6794 Y96.9932
G01 X-74.8210 Y96.8516
G01 X-74.9830 Y96.7338
G01 X-75.1615 Y96.6429
G01 X-75.3520 Y96.5810
G01 X-75.5498 Y96.5497
G01 X-75.7502 Y96.5497
G01 X-75.9480 Y96.5810
G01 X-76.1385 Y96.6429
G01 X-76.3170 Y96.7338
G01 X-76.4790 Y96.8516
G01 X-76.6206 Y96.9932
G01 X-76.7384 Y97.1552
G01 X-76.8293 Y97.3337
G01 X-76.8912 Y97.5242
G01 X-76.9225 Y97.7220
G00 Z0.5080
G00 X-79.4625 Y87.7398
G01 Z-0.2540 F254.00
G01 X-79.4625 Y87.9402
G01 X-79.4312 Y88.1380
G01 X-79.3693 Y88.3285
G01 X-79.2784 Y88.5070
G01 X-79.1606 Y88.6690
G01 X-79.0190 Y88.8106
G01 X-78.8570 Y88.9284
G01 X-78.6785 Y89.0193
G01 X-78.4880 Y89.0812
G01 X-78.2901 Y89.1125
G01 X-78.0898 Y89.1125
G01 X-77.8920 Y89.0812
G01 X-77.7015 Y89.0193
G01 X-77.5230 Y88.9284
G01 X-77.3610 Y88.8106
G01 X-77.2194 Y88.6690
G01 X-77.1016 Y88.5070
G01 X-77.0107 Y88.3285
G01 X-76.9488 Y88.1380
G01 X-76.9175 Y87.9402
G01 X-76.9175 Y87.7398
G01 X-76.9488 Y87.5420
G01 X-77.0107 Y87.3515
G01 X-77.1016 Y87.1730
G01 X-77.2194 Y87.0110
G01 X-77.3610 Y86.8694
G01 X-77.5230 Y86.7516
G01 X-77.7015 Y86.6607
G01 X-77.8920 Y86.5988
G01 X-78.0898 Y86.5675
G01 X-78.2901 Y86.5675
G01 X-78.4880 Y86.5988
G01 X-78.6785 Y86.6607
G01 X-78.8570 Y86.7516
G01 X-79.0190 Y86.8694
G01 X-79.1606 Y87.0110
G01 X-79.2784 Y87.1730
G01 X-79.3693 Y87.3515
G01 X-79.4312 Y87.5420
G01 X-79.4625 Y87.7398
G00 Z0.5080
G00 X-64.4525 Y87.7398
G01 Z-0.2540 F254.00
G01 X-64.4525 Y87.9402
G01 X-64.4212 Y88.1380
G01 X-64.3593 Y88.3285
G01 X-64.2684 Y88.5070
G01 X-64.1506 Y88.6690
G01 X-64.0090 Y88.8106
G01 X-63.8470 Y88.9284
G01 X-63.6685 Y89.0193
G01 X-63.4780 Y89.0812
G01 X-63.2802 Y89.1125
G01 X-63.0798 Y89.1125
G01 X-62.8820 Y89.0812
G01 X-62.6915 Y89.0193
G01 X-62.5130 Y88.9284
G01 X-62.3510 Y88.8106
G01 X-62.2094 Y88.6690
G01 X-62.0916 Y88.5070
G01 X-62.0007 Y88.3285
G01 X-61.9388 Y88.1380
G01 X-61.9075 Y87.9402
G01 X-61.9075 Y87.7398
G01 X-61.9388 Y87.5420
G01 X-62.0007 Y87.3515
G01 X-62.0916 Y87.1730
G01 X-62.2094 Y87.0110
G01 X-62.3510 Y86.8694
G01 X-62.5130 Y86.7516
G01 X-62.6915 Y86.6607
G01 X-62.8820 Y86.5988
G01 X-63.0798 Y86.5675
G01 X-63.2802 Y86.5675
G01 X-63.4780 Y86.5988
G01 X-63.6685 Y86.6607
G01 X-63.8470 Y86.7516
G01 X-64.0090 Y86.8694
G01 X-64.1506 Y87.0110
G01 X-64.2684 Y87.1730
G01 X-64.3593 Y87.3515
G01 X-64.4212 Y87.5420
G01 X-64.4525 Y87.7398
G00 Z0.5080
G00 X-71.9325 Y87.7298
G01 Z-0.2540 F254.00
G01 X-71.9325 Y87.9301
G01 X-71.9012 Y88.1280
G01 X-71.8393 Y88.3185
G01 X-71.7484 Y88.4970
G01 X-71.6306 Y88.6590
G01 X-71.4890 Y88.8006
G01 X-71.3270 Y88.9184
G01 X-71.1485 Y89.0093
G01 X-70.9580 Y89.0712
G01 X-70.7602 Y89.1025
G01 X-70.5598 Y89.1025
G01 X-70.3620 Y89.0712
G01 X-70.1715 Y89.0093
G01 X-69.9930 Y88.9184
G01 X-69.8310 Y88.8006
G01 X-69.6894 Y88.6590
G01 X-69.5716 Y88.4970
G01 X-69.4807 Y88.3185
G01 X-69.4188 Y88.1280
G01 X-69.3875 Y87.9301
G01 X-69.3875 Y87.7298
G01 X-69.4188 Y87.5320
G01 X-69.4807 Y87.3415
G01 X-69.5716 Y87.1630
G01 X-69.6894 Y87.0010
G01 X-69.8310 Y86.8594
G01 X-69.9930 Y86.7416
G01 X-70.1715 Y86.6507
G01 X-70.3620 Y86.5888
G01 X-70.5598 Y86.5575
G01 X-70.7602 Y86.5575
G01 X-70.9580 Y86.5888
G01 X-71.1485 Y86.6507
G01 X-71.3270 Y86.7416
G01 X-71.4890 Y86.8594
G01 X-71.6306 Y87.0010
G01 X-71.7484 Y87.1630
G01 X-71.8393 Y87.3415
G01 X-71.9012 Y87.5320
G01 X-71.9325 Y87.7298
G00 Z0.5080
G00 X-83.0301 Y28.4718
G01 Z-0.2540 F254.00
G01 X-83.0604 Y28.3192
G01 X-83.1200 Y28.1754
G01 X-83.2064 Y28.0460
G01 X-83.3164 Y27.9360
G01 X-83.4458 Y27.8496
G01 X-83.4873 Y27.8324
G01 X-83.4873 Y22.9676
G01 X-83.4458 Y22.9504
G01 X-83.3164 Y22.8640
G01 X-83.2064 Y22.7540
G01 X-83.1200 Y22.6246
G01 X-83.0604 Y22.4808
G01 X-83.0301 Y22.3282
G01 X-83.0301 Y21.9227
G01 X-82.0699 Y21.9227
G01 X-82.0699 Y22.3282
G01 X-82.0396 Y22.4808
G01 X-81.9800 Y22.6246
G01 X-81.8936 Y22.7540
G01 X-81.7836 Y22.8640
G01 X-81.6542 Y22.9504
G01 X-81.5104 Y23.0100
G01 X-81.3578 Y23.0403
G01 X-81.2022 Y23.0403
G01 X-81.0496 Y23.0100
G01 X-80.9058 Y22.9504
G01 X-80.7764 Y22.8640
G01 X-80.6664 Y22.7540
G01 X-80.5800 Y22.6246
G01 X-80.5204 Y22.4808
G01 X-80.4901 Y22.3282
G01 X-80.4901 Y21.9227
G01 X-67.6427 Y21.9227
G01 X-67.6427 Y29.4615
G01 X-68.2248 Y29.4615
G01 X-68.2724 Y29.4812
G01 X-68.3088 Y29.5176
G01 X-68.3285 Y29.5652
G01 X-68.3285 Y31.3948
G01 X-68.3088 Y31.4424
G01 X-68.2724 Y31.4788
G01 X-68.2248 Y31.4985
G01 X-66.3952 Y31.4985
G01 X-66.3476 Y31.4788
G01 X-66.3112 Y31.4424
G01 X-66.2915 Y31.3948
G01 X-66.2915 Y29.5652
G01 X-66.3112 Y29.5176
G01 X-66.3476 Y29.4812
G01 X-66.3952 Y29.4615
G01 X-66.9773 Y29.4615
G01 X-66.9773 Y21.5462
G01 X-66.9999 Y21.4616
G01 X-67.0437 Y21.3857
G01 X-67.1057 Y21.3237
G01 X-67.1816 Y21.2799
G01 X-67.2662 Y21.2573
G01 X-80.4901 Y21.2573
G01 X-80.4901 Y20.8518
G01 X-80.5204 Y20.6992
G01 X-80.5800 Y20.5554
G01 X-80.6664 Y20.4260
G01 X-80.7764 Y20.3160
G01 X-80.9058 Y20.2296
G01 X-81.0496 Y20.1700
G01 X-81.2022 Y20.1397
G01 X-81.3578 Y20.1397
G01 X-81.5104 Y20.1700
G01 X-81.6542 Y20.2296
G01 X-81.7836 Y20.3160
G01 X-81.8936 Y20.4260
G01 X-81.9800 Y20.5554
G01 X-82.0396 Y20.6992
G01 X-82.0699 Y20.8518
G01 X-82.0699 Y21.2573
G01 X-83.0301 Y21.2573
G01 X-83.0301 Y20.8518
G01 X-83.0604 Y20.6992
G01 X-83.1200 Y20.5554
G01 X-83.2064 Y20.4260
G01 X-83.3164 Y20.3160
G01 X-83.4458 Y20.2296
G01 X-83.5896 Y20.1700
G01 X-83.7422 Y20.1397
G01 X-83.8978 Y20.1397
G01 X-84.0504 Y20.1700
G01 X-84.1942 Y20.2296
G01 X-84.3236 Y20.3160
G01 X-84.4336 Y20.4260
G01 X-84.5200 Y20.5554
G01 X-84.5796 Y20.6992
G01 X-84.6099 Y20.8518
G01 X-84.6099 Y21.2573
G01 X-85.5701 Y21.2573
G01 X-85.5701 Y20.8518
G01 X-85.6004 Y20.6992
G01 X-85.6600 Y20.5554
G01 X-85.7464 Y20.4260
G01 X-85.8564 Y20.3160
G01 X-85.9858 Y20.2296
G01 X-86.1296 Y20.1700
G01 X-86.2822 Y20.1397
G01 X-86.4378 Y20.1397
G01 X-86.5904 Y20.1700
G01 X-86.7342 Y20.2296
G01 X-86.8636 Y20.3160
G01 X-86.9736 Y20.4260
G01 X-87.0600 Y20.5554
G01 X-87.1196 Y20.6992
G01 X-87.1499 Y20.8518
G01 X-87.1499 Y21.2573
G01 X-88.1101 Y21.2573
G01 X-88.1101 Y20.8518
G01 X-88.1404 Y20.6992
G01 X-88.2000 Y20.5554
G01 X-88.2864 Y20.4260
G01 X-88.3964 Y20.3160
G01 X-88.5258 Y20.2296
G01 X-88.6696 Y20.1700
G01 X-88.8222 Y20.1397
G01 X-88.9778 Y20.1397
G01 X-89.1304 Y20.1700
G01 X-89.2742 Y20.2296
G01 X-89.4036 Y20.3160
G01 X-89.5136 Y20.4260
G01 X-89.6000 Y20.5554
G01 X-89.6596 Y20.6992
G01 X-89.6899 Y20.8518
G01 X-89.6899 Y22.3282
G01 X-89.6596 Y22.4808
G01 X-89.6000 Y22.6246
G01 X-89.5136 Y22.7540
G01 X-89.4036 Y22.8640
G01 X-89.2742 Y22.9504
G01 X-89.1304 Y23.0100
G01 X-88.9778 Y23.0403
G01 X-88.8222 Y23.0403
G01 X-88.6696 Y23.0100
G01 X-88.5258 Y22.9504
G01 X-88.3964 Y22.8640
G01 X-88.2864 Y22.7540
G01 X-88.2000 Y22.6246
G01 X-88.1404 Y22.4808
G01 X-88.1101 Y22.3282
G01 X-88.1101 Y21.9227
G01 X-87.1499 Y21.9227
G01 X-87.1499 Y22.3282
G01 X-87.1196 Y22.4808
G01 X-87.0600 Y22.6246
G01 X-86.9736 Y22.7540
G01 X-86.8636 Y22.8640
G01 X-86.7342 Y22.9504
G01 X-86.5904 Y23.0100
G01 X-86.4378 Y23.0403
G01 X-86.2822 Y23.0403
G01 X-86.1296 Y23.0100
G01 X-85.9858 Y22.9504
G01 X-85.8564 Y22.8640
G01 X-85.7464 Y22.7540
G01 X-85.6600 Y22.6246
G01 X-85.6004 Y22.4808
G01 X-85.5701 Y22.3282
G01 X-85.5701 Y21.9227
G01 X-84.6099 Y21.9227
G01 X-84.6099 Y22.3282
G01 X-84.5796 Y22.4808
G01 X-84.5200 Y22.6246
G01 X-84.4336 Y22.7540
G01 X-84.3236 Y22.8640
G01 X-84.1942 Y22.9504
G01 X-84.1527 Y22.9676
G01 X-84.1527 Y27.8324
G01 X-84.1942 Y27.8496
G01 X-84.3236 Y27.9360
G01 X-84.4336 Y28.0460
G01 X-84.5200 Y28.1754
G01 X-84.5796 Y28.3192
G01 X-84.6099 Y28.4718
G01 X-84.6099 Y29.9482
G01 X-84.5796 Y30.1008
G01 X-84.5200 Y30.2446
G01 X-84.4336 Y30.3740
G01 X-84.3236 Y30.4840
G01 X-84.1942 Y30.5704
G01 X-84.0504 Y30.6300
G01 X-83.8978 Y30.6603
G01 X-83.7422 Y30.6603
G01 X-83.5896 Y30.6300
G01 X-83.4458 Y30.5704
G01 X-83.3164 Y30.4840
G01 X-83.2064 Y30.3740
G01 X-83.1744 Y30.3261
G01 X-82.8827 Y30.6178
G01 X-82.8827 Y39.4138
G01 X-82.8601 Y39.4984
G01 X-82.8163 Y39.5743
G01 X-63.1839 Y59.2067
G01 X-63.2210 Y59.2795
G01 X-63.2730 Y59.4396
G01 X-63.2993 Y59.6058
G01 X-63.2993 Y59.7742
G01 X-63.2730 Y59.9404
G01 X-63.2210 Y60.1005
G01 X-63.1446 Y60.2505
G01 X-63.0456 Y60.3866
G01 X-62.9266 Y60.5056
G01 X-62.7905 Y60.6046
G01 X-62.6405 Y60.6810
G01 X-62.5627 Y60.7063
G01 X-62.5627 Y61.2137
G01 X-62.6405 Y61.2390
G01 X-62.7905 Y61.3154
G01 X-62.9266 Y61.4144
G01 X-63.0456 Y61.5334
G01 X-63.1446 Y61.6695
G01 X-63.2210 Y61.8195
G01 X-63.2730 Y61.9796
G01 X-63.2993 Y62.1458
G01 X-63.2993 Y62.3142
G01 X-63.2730 Y62.4804
G01 X-63.2210 Y62.6405
G01 X-63.1446 Y62.7905
G01 X-63.0456 Y62.9266
G01 X-62.9266 Y63.0456
G01 X-62.7905 Y63.1446
G01 X-62.6405 Y63.2210
G01 X-62.4804 Y63.2730
G01 X-62.3142 Y63.2993
G01 X-62.1458 Y63.2993
G01 X-61.9796 Y63.2730
G01 X-61.8195 Y63.2210
G01 X-61.6695 Y63.1446
G01 X-61.5334 Y63.0456
G01 X-61.4144 Y62.9266
G01 X-61.3154 Y62.7905
G01 X-61.2390 Y62.6405
G01 X-61.2137 Y62.5627
G01 X-53.6727 Y62.5627
G01 X-53.6727 Y72.0708
G01 X-53.7623 Y72.1079
G01 X-53.9083 Y72.2055
G01 X-54.0325 Y72.3297
G01 X-54.1301 Y72.4757
G01 X-54.1973 Y72.6379
G01 X-54.2315 Y72.8102
G01 X-54.2315 Y74.5098
G01 X-54.1973 Y74.6821
G01 X-54.1301 Y74.8443
G01 X-54.0325 Y74.9903
G01 X-53.9083 Y75.1145
G01 X-53.7623 Y75.2121
G01 X-53.6727 Y75.2492
G01 X-53.6727 Y77.1508
G01 X-53.7623 Y77.1879
G01 X-53.9083 Y77.2855
G01 X-54.0325 Y77.4097
G01 X-54.1301 Y77.5557
G01 X-54.1973 Y77.7179
G01 X-54.2315 Y77.8902
G01 X-54.2315 Y79.5898
G01 X-54.1973 Y79.7621
G01 X-54.1301 Y79.9243
G01 X-54.0325 Y80.0703
G01 X-53.9083 Y80.1945
G01 X-53.7623 Y80.2921
G01 X-53.6727 Y80.3292
G01 X-53.6727 Y83.5008
G01 X-53.7623 Y83.5379
G01 X-53.9083 Y83.6355
G01 X-54.0325 Y83.7597
G01 X-54.1301 Y83.9057
G01 X-54.1973 Y84.0679
G01 X-54.2315 Y84.2402
G01 X-54.2315 Y85.9398
G01 X-54.1973 Y86.1121
G01 X-54.1301 Y86.2743
G01 X-54.0325 Y86.4203
G01 X-53.9083 Y86.5445
G01 X-53.7623 Y86.6421
G01 X-53.6727 Y86.6792
G01 X-53.6727 Y89.8508
G01 X-53.7623 Y89.8879
G01 X-53.9083 Y89.9855
G01 X-54.0325 Y90.1097
G01 X-54.1301 Y90.2557
G01 X-54.1973 Y90.4179
G01 X-54.2315 Y90.5902
G01 X-54.2315 Y92.2898
G01 X-54.1973 Y92.4621
G01 X-54.1301 Y92.6243
G01 X-54.0325 Y92.7703
G01 X-53.9083 Y92.8945
G01 X-53.7623 Y92.9921
G01 X-53.6727 Y93.0292
G01 X-53.6727 Y96.1873
G01 X-59.3573 Y96.1873
G01 X-59.3573 Y74.8862
G01 X-59.3799 Y74.8016
G01 X-59.4237 Y74.7257
G01 X-59.4857 Y74.6637
G01 X-59.5616 Y74.6199
G01 X-59.6462 Y74.5973
G01 X-64.4373 Y74.5973
G01 X-64.4373 Y71.0762
G01 X-64.4599 Y70.9916
G01 X-64.5037 Y70.9157
G01 X-64.5657 Y70.8537
G01 X-64.6416 Y70.8099
G01 X-64.7262 Y70.7873
G01 X-65.2501 Y70.7873
G01 X-65.2501 Y69.7214
G01 X-65.2804 Y69.5688
G01 X-65.3400 Y69.4250
G01 X-65.4264 Y69.2956
G01 X-65.5364 Y69.1856
G01 X-65.6658 Y69.0992
G01 X-65.8096 Y69.0396
G01 X-65.9622 Y69.0093
G01 X-66.1178 Y69.0093
G01 X-66.2704 Y69.0396
G01 X-66.4142 Y69.0992
G01 X-66.5436 Y69.1856
G01 X-66.6536 Y69.2956
G01 X-66.7400 Y69.4250
G01 X-66.7996 Y69.5688
G01 X-66.8299 Y69.7214
G01 X-66.8299 Y71.1978
G01 X-66.7996 Y71.3504
G01 X-66.7824 Y71.3919
G01 X-67.4478 Y72.0573
G01 X-80.0538 Y72.0573
G01 X-80.1384 Y72.0799
G01 X-80.2143 Y72.1237
G01 X-85.2278 Y77.1373
G01 X-106.5422 Y77.1373
G01 X-107.6173 Y76.0622
G01 X-107.6173 Y62.5627
G01 X-83.7762 Y62.5627
G01 X-83.6916 Y62.5401
G01 X-83.6157 Y62.4963
G01 X-83.5537 Y62.4343
G01 X-83.5099 Y62.3584
G01 X-83.4873 Y62.2738
G01 X-83.4873 Y62.1862
G01 X-83.5099 Y62.1016
G01 X-83.5537 Y62.0257
G01 X-83.6157 Y61.9637
G01 X-83.6916 Y61.9199
G01 X-83.7762 Y61.8973
G01 X-107.6173 Y61.8973
G01 X-107.6173 Y60.0227
G01 X-101.1199 Y60.0227
G01 X-101.1199 Y60.4282
G01 X-101.0896 Y60.5808
G01 X-101.0300 Y60.7246
G01 X-100.9436 Y60.8540
G01 X-100.8336 Y60.9640
G01 X-100.7042 Y61.0504
G01 X-100.5604 Y61.1100
G01 X-100.4078 Y61.1403
G01 X-100.2522 Y61.1403
G01 X-100.0996 Y61.1100
G01 X-99.9558 Y61.0504
G01 X-99.8264 Y60.9640
G01 X-99.7164 Y60.8540
G01 X-99.6300 Y60.7246
G01 X-99.5704 Y60.5808
G01 X-99.5401 Y60.4282
G01 X-99.5401 Y58.9518
G01 X-99.5704 Y58.7992
G01 X-99.6300 Y58.6554
G01 X-99.7164 Y58.5260
G01 X-99.8264 Y58.4160
G01 X-99.9558 Y58.3296
G01 X-100.0996 Y58.2700
G01 X-100.2522 Y58.2397
G01 X-100.4078 Y58.2397
G01 X-100.5604 Y58.2700
G01 X-100.7042 Y58.3296
G01 X-100.8336 Y58.4160
G01 X-100.9436 Y58.5260
G01 X-101.0300 Y58.6554
G01 X-101.0896 Y58.7992
G01 X-101.1199 Y58.9518
G01 X-101.1199 Y59.3573
G01 X-107.9938 Y59.3573
G01 X-108.0784 Y59.3799
G01 X-108.1543 Y59.4237
G01 X-108.2163 Y59.4857
G01 X-108.2601 Y59.5616
G01 X-108.2827 Y59.6462
G01 X-108.2827 Y76.1213
G01 X-109.4737 Y76.1213
G01 X-109.4990 Y76.0435
G01 X-109.5754 Y75.8935
G01 X-109.6744 Y75.7574
G01 X-109.7934 Y75.6384
G01 X-109.9295 Y75.5394
G01 X-110.0795 Y75.4630
G01 X-110.2396 Y75.4110
G01 X-110.4058 Y75.3847
G01 X-110.5742 Y75.3847
G01 X-110.7404 Y75.4110
G01 X-110.9005 Y75.4630
G01 X-111.0505 Y75.5394
G01 X-111.1866 Y75.6384
G01 X-111.3056 Y75.7574
G01 X-111.4046 Y75.8935
G01 X-111.4810 Y76.0435
G01 X-111.5063 Y76.1213
G01 X-120.3173 Y76.1213
G01 X-120.3173 Y63.1215
G01 X-120.2807 Y63.1215
G01 X-119.7585 Y62.5993
G01 X-119.7585 Y61.8607
G01 X-120.2807 Y61.3385
G01 X-120.3173 Y61.3385
G01 X-120.3173 Y60.5815
G01 X-120.2807 Y60.5815
G01 X-119.7585 Y60.0593
G01 X-119.7585 Y59.3207
G01 X-120.2807 Y58.7985
G01 X-120.3173 Y58.7985
G01 X-120.3173 Y58.0415
G01 X-120.2807 Y58.0415
G01 X-119.7585 Y57.5193
G01 X-119.7585 Y56.7807
G01 X-120.2807 Y56.2585
G01 X-120.3173 Y56.2585
G01 X-120.3173 Y55.5015
G01 X-120.2807 Y55.5015
G01 X-119.7585 Y54.9793
G01 X-119.7585 Y54.2407
G01 X-120.2807 Y53.7185
G01 X-120.3173 Y53.7185
G01 X-120.3173 Y52.9615
G01 X-120.2807 Y52.9615
G01 X-119.7585 Y52.4393
G01 X-119.7585 Y51.7007
G01 X-120.2807 Y51.1785
G01 X-120.3173 Y51.1785
G01 X-120.3173 Y50.4215
G01 X-120.2807 Y50.4215
G01 X-119.7585 Y49.8993
G01 X-119.7585 Y49.1607
G01 X-120.2807 Y48.6385
G01 X-120.3173 Y48.6385
G01 X-120.3173 Y47.8815
G01 X-120.2807 Y47.8815
G01 X-119.7585 Y47.3593
G01 X-119.7585 Y46.6207
G01 X-120.2807 Y46.0985
G01 X-120.3173 Y46.0985
G01 X-120.3173 Y45.3415
G01 X-120.2807 Y45.3415
G01 X-119.7585 Y44.8193
G01 X-119.7585 Y44.0807
G01 X-120.2807 Y43.5585
G01 X-121.0193 Y43.5585
G01 X-121.5415 Y44.0807
G01 X-121.5415 Y44.1173
G01 X-124.1273 Y44.1173
G01 X-124.1273 Y34.6092
G01 X-124.0377 Y34.5721
G01 X-123.8917 Y34.4745
G01 X-123.7675 Y34.3503
G01 X-123.6699 Y34.2043
G01 X-123.6027 Y34.0421
G01 X-123.5685 Y33.8698
G01 X-123.5685 Y32.1702
G01 X-123.6027 Y31.9979
G01 X-123.6699 Y31.8357
G01 X-123.7675 Y31.6897
G01 X-123.8917 Y31.5655
G01 X-124.0377 Y31.4679
G01 X-124.1273 Y31.4308
G01 X-124.1273 Y28.2592
G01 X-124.0377 Y28.2221
G01 X-123.8917 Y28.1245
G01 X-123.7675 Y28.0003
G01 X-123.6699 Y27.8543
G01 X-123.6027 Y27.6921
G01 X-123.5685 Y27.5198
G01 X-123.5685 Y25.8202
G01 X-123.6027 Y25.6479
G01 X-123.6699 Y25.4857
G01 X-123.7675 Y25.3397
G01 X-123.8917 Y25.2155
G01 X-124.0377 Y25.1179
G01 X-124.1273 Y25.0808
G01 X-124.1273 Y21.9092
G01 X-124.0377 Y21.8721
G01 X-123.8917 Y21.7745
G01 X-123.7675 Y21.6503
G01 X-123.6699 Y21.5043
G01 X-123.6027 Y21.3421
G01 X-123.5685 Y21.1698
G01 X-123.5685 Y19.4702
G01 X-123.6027 Y19.2979
G01 X-123.6699 Y19.1357
G01 X-123.7675 Y18.9897
G01 X-123.8917 Y18.8655
G01 X-124.0377 Y18.7679
G01 X-124.1273 Y18.7308
G01 X-124.1273 Y15.5592
G01 X-124.0377 Y15.5221
G01 X-123.8917 Y15.4245
G01 X-123.7675 Y15.3003
G01 X-123.6699 Y15.1543
G01 X-123.6027 Y14.9921
G01 X-123.5685 Y14.8198
G01 X-123.5685 Y13.1202
G01 X-123.6027 Y12.9479
G01 X-123.6699 Y12.7857
G01 X-123.7675 Y12.6397
G01 X-123.8917 Y12.5155
G01 X-124.0377 Y12.4179
G01 X-124.1273 Y12.3808
G01 X-124.1273 Y-4.7473
G01 X-90.5027 Y-4.7473
G01 X-90.5027 Y-2.8592
G01 X-90.5923 Y-2.8221
G01 X-90.7383 Y-2.7245
G01 X-90.8625 Y-2.6003
G01 X-90.9601 Y-2.4543
G01 X-91.0273 Y-2.2921
G01 X-91.0615 Y-2.1198
G01 X-91.0615 Y-0.4202
G01 X-91.0273 Y-0.2479
G01 X-90.9601 Y-0.0857
G01 X-90.8625 Y0.0603
G01 X-90.7383 Y0.1845
G01 X-90.5923 Y0.2821
G01 X-90.4301 Y0.3493
G01 X-90.2578 Y0.3835
G01 X-90.0822 Y0.3835
G01 X-89.9099 Y0.3493
G01 X-89.7477 Y0.2821
G01 X-89.6017 Y0.1845
G01 X-89.4775 Y0.0603
G01 X-89.3799 Y-0.0857
G01 X-89.3127 Y-0.2479
G01 X-89.2785 Y-0.4202
G01 X-89.2785 Y-2.1198
G01 X-89.3127 Y-2.2921
G01 X-89.3799 Y-2.4543
G01 X-89.4775 Y-2.6003
G01 X-89.6017 Y-2.7245
G01 X-89.7477 Y-2.8221
G01 X-89.8373 Y-2.8592
G01 X-89.8373 Y-4.7473
G01 X-60.0227 Y-4.7473
G01 X-60.0227 Y-2.8592
G01 X-60.1123 Y-2.8221
G01 X-60.2583 Y-2.7245
G01 X-60.3825 Y-2.6003
G01 X-60.4801 Y-2.4543
G01 X-60.5473 Y-2.2921
G01 X-60.5815 Y-2.1198
G01 X-60.5815 Y-0.4202
G01 X-60.5473 Y-0.2479
G01 X-60.4801 Y-0.0857
G01 X-60.3825 Y0.0603
G01 X-60.2583 Y0.1845
G01 X-60.1123 Y0.2821
G01 X-59.9501 Y0.3493
G01 X-59.7778 Y0.3835
G01 X-59.6022 Y0.3835
G01 X-59.4299 Y0.3493
G01 X-59.2677 Y0.2821
G01 X-59.1217 Y0.1845
G01 X-58.9975 Y0.0603
G01 X-58.8999 Y-0.0857
G01 X-58.8327 Y-0.2479
G01 X-58.7985 Y-0.4202
G01 X-58.7985 Y-2.1198
G01 X-58.8327 Y-2.2921
G01 X-58.8999 Y-2.4543
G01 X-58.9975 Y-2.6003
G01 X-59.1217 Y-2.7245
G01 X-59.2677 Y-2.8221
G01 X-59.3573 Y-2.8592
G01 X-59.3573 Y-5.1238
G01 X-59.3799 Y-5.2084
G01 X-59.4237 Y-5.2843
G01 X-59.4857 Y-5.3463
G01 X-59.5616 Y-5.3901
G01 X-59.6462 Y-5.4127
G01 X-124.5038 Y-5.4127
G01 X-124.5884 Y-5.3901
G01 X-124.6643 Y-5.3463
G01 X-124.7263 Y-5.2843
G01 X-124.7701 Y-5.2084
G01 X-124.7927 Y-5.1238
G01 X-124.7927 Y12.3808
G01 X-124.8823 Y12.4179
G01 X-125.0283 Y12.5155
G01 X-125.1525 Y12.6397
G01 X-125.2501 Y12.7857
G01 X-125.3173 Y12.9479
G01 X-125.3515 Y13.1202
G01 X-125.3515 Y14.8198
G01 X-125.3173 Y14.9921
G01 X-125.2501 Y15.1543
G01 X-125.1525 Y15.3003
G01 X-125.0283 Y15.4245
G01 X-124.8823 Y15.5221
G01 X-124.7927 Y15.5592
G01 X-124.7927 Y18.7308
G01 X-124.8823 Y18.7679
G01 X-125.0283 Y18.8655
G01 X-125.1525 Y18.9897
G01 X-125.2501 Y19.1357
G01 X-125.3173 Y19.2979
G01 X-125.3515 Y19.4702
G01 X-125.3515 Y21.1698
G01 X-125.3173 Y21.3421
G01 X-125.2501 Y21.5043
G01 X-125.1525 Y21.6503
G01 X-125.0283 Y21.7745
G01 X-124.8823 Y21.8721
G01 X-124.7927 Y21.9092
G01 X-124.7927 Y25.0808
G01 X-124.8823 Y25.1179
G01 X-125.0283 Y25.2155
G01 X-125.1525 Y25.3397
G01 X-125.2501 Y25.4857
G01 X-125.3173 Y25.6479
G01 X-125.3515 Y25.8202
G01 X-125.3515 Y27.5198
G01 X-125.3173 Y27.6921
G01 X-125.2501 Y27.8543
G01 X-125.1525 Y28.0003
G01 X-125.0283 Y28.1245
G01 X-124.8823 Y28.2221
G01 X-124.7927 Y28.2592
G01 X-124.7927 Y31.4308
G01 X-124.8823 Y31.4679
G01 X-125.0283 Y31.5655
G01 X-125.1525 Y31.6897
G01 X-125.2501 Y31.8357
G01 X-125.3173 Y31.9979
G01 X-125.3515 Y32.1702
G01 X-125.3515 Y33.8698
G01 X-125.3173 Y34.0421
G01 X-125.2501 Y34.2043
G01 X-125.1525 Y34.3503
G01 X-125.0283 Y34.4745
G01 X-124.8823 Y34.5721
G01 X-124.7927 Y34.6092
G01 X-124.7927 Y44.4938
G01 X-124.7701 Y44.5784
G01 X-124.7263 Y44.6543
G01 X-124.6643 Y44.7163
G01 X-124.5884 Y44.7601
G01 X-124.5038 Y44.7827
G01 X-121.5415 Y44.7827
G01 X-121.5415 Y44.8193
G01 X-121.0193 Y45.3415
G01 X-120.9827 Y45.3415
G01 X-120.9827 Y46.0985
G01 X-121.0193 Y46.0985
G01 X-121.5415 Y46.6207
G01 X-121.5415 Y47.3593
G01 X-121.0193 Y47.8815
G01 X-120.9827 Y47.8815
G01 X-120.9827 Y48.6385
G01 X-121.0193 Y48.6385
G01 X-121.5415 Y49.1607
G01 X-121.5415 Y49.8993
G01 X-121.0193 Y50.4215
G01 X-120.9827 Y50.4215
G01 X-120.9827 Y51.1785
G01 X-121.0193 Y51.1785
G01 X-121.5415 Y51.7007
G01 X-121.5415 Y52.4393
G01 X-121.0193 Y52.9615
G01 X-120.9827 Y52.9615
G01 X-120.9827 Y53.7185
G01 X-121.0193 Y53.7185
G01 X-121.5415 Y54.2407
G01 X-121.5415 Y54.9793
G01 X-121.0193 Y55.5015
G01 X-120.9827 Y55.5015
G01 X-120.9827 Y56.2585
G01 X-121.0193 Y56.2585
G01 X-121.5415 Y56.7807
G01 X-121.5415 Y57.5193
G01 X-121.0193 Y58.0415
G01 X-120.9827 Y58.0415
G01 X-120.9827 Y58.7985
G01 X-121.0193 Y58.7985
G01 X-121.5415 Y59.3207
G01 X-121.5415 Y60.0593
G01 X-121.0193 Y60.5815
G01 X-120.9827 Y60.5815
G01 X-120.9827 Y61.3385
G01 X-121.0193 Y61.3385
G01 X-121.5415 Y61.8607
G01 X-121.5415 Y62.5993
G01 X-121.0193 Y63.1215
G01 X-120.9827 Y63.1215
G01 X-120.9827 Y76.4978
G01 X-120.9601 Y76.5824
G01 X-120.9163 Y76.6583
G01 X-120.8543 Y76.7203
G01 X-120.7784 Y76.7641
G01 X-120.6938 Y76.7867
G01 X-111.5063 Y76.7867
G01 X-111.4810 Y76.8645
G01 X-111.4046 Y77.0145
G01 X-111.3056 Y77.1506
G01 X-111.1866 Y77.2696
G01 X-111.0505 Y77.3686
G01 X-110.9005 Y77.4450
G01 X-110.7404 Y77.4970
G01 X-110.5742 Y77.5233
G01 X-110.4058 Y77.5233
G01 X-110.2396 Y77.4970
G01 X-110.0795 Y77.4450
G01 X-109.9295 Y77.3686
G01 X-109.7934 Y77.2696
G01 X-109.6744 Y77.1506
G01 X-109.5754 Y77.0145
G01 X-109.4990 Y76.8645
G01 X-109.4737 Y76.7867
G01 X-107.9062 Y76.7867
G01 X-107.8491 Y76.7714
G01 X-106.8843 Y77.7363
G01 X-106.8084 Y77.7801
G01 X-106.7238 Y77.8027
G01 X-85.0462 Y77.8027
G01 X-84.9616 Y77.7801
G01 X-84.8857 Y77.7363
G01 X-84.8237 Y77.6743
G01 X-84.8237 Y77.6743
G01 X-79.8722 Y72.7227
G01 X-67.2662 Y72.7227
G01 X-67.1816 Y72.7001
G01 X-67.1057 Y72.6563
G01 X-67.0437 Y72.5943
G01 X-67.0437 Y72.5943
G01 X-66.3119 Y71.8624
G01 X-66.2704 Y71.8796
G01 X-66.1178 Y71.9099
G01 X-65.9622 Y71.9099
G01 X-65.8096 Y71.8796
G01 X-65.6658 Y71.8200
G01 X-65.5364 Y71.7336
G01 X-65.4264 Y71.6236
G01 X-65.3400 Y71.4942
G01 X-65.3228 Y71.4527
G01 X-65.1027 Y71.4527
G01 X-65.1027 Y74.9738
G01 X-65.0801 Y75.0584
G01 X-65.0363 Y75.1343
G01 X-64.9743 Y75.1963
G01 X-64.8984 Y75.2401
G01 X-64.8138 Y75.2627
G01 X-60.0227 Y75.2627
G01 X-60.0227 Y96.5638
G01 X-60.0001 Y96.6484
G01 X-59.9563 Y96.7243
G01 X-59.8943 Y96.7863
G01 X-59.8184 Y96.8301
G01 X-59.7338 Y96.8527
G01 X-53.2962 Y96.8527
G01 X-53.2116 Y96.8301
G01 X-53.1357 Y96.7863
G01 X-53.0737 Y96.7243
G01 X-53.0299 Y96.6484
G01 X-53.0073 Y96.5638
G01 X-53.0073 Y93.0292
G01 X-52.9177 Y92.9921
G01 X-52.7717 Y92.8945
G01 X-52.6475 Y92.7703
G01 X-52.5499 Y92.6243
G01 X-52.4827 Y92.4621
G01 X-52.4485 Y92.2898
G01 X-52.4485 Y90.5902
G01 X-52.4827 Y90.4179
G01 X-52.5499 Y90.2557
G01 X-52.6475 Y90.1097
G01 X-52.7717 Y89.9855
G01 X-52.9177 Y89.8879
G01 X-53.0073 Y89.8508
G01 X-53.0073 Y86.6792
G01 X-52.9177 Y86.6421
G01 X-52.7717 Y86.5445
G01 X-52.6475 Y86.4203
G01 X-52.5499 Y86.2743
G01 X-52.4827 Y86.1121
G01 X-52.4485 Y85.9398
G01 X-52.4485 Y84.2402
G01 X-52.4827 Y84.0679
G01 X-52.5499 Y83.9057
G01 X-52.6475 Y83.7597
G01 X-52.7717 Y83.6355
G01 X-52.9177 Y83.5379
G01 X-53.0073 Y83.5008
G01 X-53.0073 Y80.3292
G01 X-52.9177 Y80.2921
G01 X-52.7717 Y80.1945
G01 X-52.6475 Y80.0703
G01 X-52.5499 Y79.9243
G01 X-52.4827 Y79.7621
G01 X-52.4485 Y79.5898
G01 X-52.4485 Y77.8902
G01 X-52.4827 Y77.7179
G01 X-52.5499 Y77.5557
G01 X-52.6475 Y77.4097
G01 X-52.7717 Y77.2855
G01 X-52.9177 Y77.1879
G01 X-53.0073 Y77.1508
G01 X-53.0073 Y75.2492
G01 X-52.9177 Y75.2121
G01 X-52.7717 Y75.1145
G01 X-52.6475 Y74.9903
G01 X-52.5499 Y74.8443
G01 X-52.4827 Y74.6821
G01 X-52.4485 Y74.5098
G01 X-52.4485 Y72.8102
G01 X-52.4827 Y72.6379
G01 X-52.5499 Y72.4757
G01 X-52.6475 Y72.3297
G01 X-52.7717 Y72.2055
G01 X-52.9177 Y72.1079
G01 X-53.0073 Y72.0708
G01 X-53.0073 Y62.1862
G01 X-53.0299 Y62.1016
G01 X-53.0737 Y62.0257
G01 X-53.1357 Y61.9637
G01 X-53.2116 Y61.9199
G01 X-53.2962 Y61.8973
G01 X-61.2137 Y61.8973
G01 X-61.2390 Y61.8195
G01 X-61.3154 Y61.6695
G01 X-61.4144 Y61.5334
G01 X-61.5334 Y61.4144
G01 X-61.6695 Y61.3154
G01 X-61.8195 Y61.2390
G01 X-61.8973 Y61.2137
G01 X-61.8973 Y60.7063
G01 X-61.8195 Y60.6810
G01 X-61.6695 Y60.6046
G01 X-61.5334 Y60.5056
G01 X-61.4144 Y60.3866
G01 X-61.3154 Y60.2505
G01 X-61.2390 Y60.1005
G01 X-61.1870 Y59.9404
G01 X-61.1607 Y59.7742
G01 X-61.1607 Y59.6058
G01 X-61.1870 Y59.4396
G01 X-61.2390 Y59.2795
G01 X-61.3154 Y59.1295
G01 X-61.4144 Y58.9934
G01 X-61.5334 Y58.8744
G01 X-61.6695 Y58.7754
G01 X-61.8195 Y58.6990
G01 X-61.9796 Y58.6470
G01 X-62.1458 Y58.6207
G01 X-62.3142 Y58.6207
G01 X-62.4804 Y58.6470
G01 X-62.6405 Y58.6990
G01 X-62.7133 Y58.7361
G01 X-82.2173 Y39.2322
G01 X-82.2173 Y30.4362
G01 X-82.2399 Y30.3516
G01 X-82.2837 Y30.2757
G01 X-82.3457 Y30.2137
G01 X-83.0301 Y29.5294
G01 X-83.0301 Y28.4718
G00 Z0.5080
G00 X-88.1101 Y29.9482
G01 Z-0.2540 F254.00
G01 X-88.1101 Y28.4718
G01 X-88.1404 Y28.3192
G01 X-88.2000 Y28.1754
G01 X-88.2864 Y28.0460
G01 X-88.3964 Y27.9360
G01 X-88.5258 Y27.8496
G01 X-88.6696 Y27.7900
G01 X-88.8222 Y27.7597
G01 X-88.9778 Y27.7597
G01 X-89.1304 Y27.7900
G01 X-89.2742 Y27.8496
G01 X-89.4036 Y27.9360
G01 X-89.5136 Y28.0460
G01 X-89.6000 Y28.1754
G01 X-89.6596 Y28.3192
G01 X-89.6899 Y28.4718
G01 X-89.6899 Y28.8773
G01 X-91.1073 Y28.8773
G01 X-91.1073 Y19.0062
G01 X-91.1299 Y18.9216
G01 X-91.1737 Y18.8457
G01 X-91.2357 Y18.7837
G01 X-91.3116 Y18.7399
G01 X-91.3962 Y18.7173
G01 X-109.4737 Y18.7173
G01 X-109.4990 Y18.6395
G01 X-109.5754 Y18.4895
G01 X-109.6744 Y18.3534
G01 X-109.7934 Y18.2344
G01 X-109.9295 Y18.1354
G01 X-110.0795 Y18.0590
G01 X-110.2396 Y18.0070
G01 X-110.4058 Y17.9807
G01 X-110.5742 Y17.9807
G01 X-110.7404 Y18.0070
G01 X-110.9005 Y18.0590
G01 X-111.0505 Y18.1354
G01 X-111.1866 Y18.2344
G01 X-111.3056 Y18.3534
G01 X-111.4046 Y18.4895
G01 X-111.4810 Y18.6395
G01 X-111.5063 Y18.7173
G01 X-114.3438 Y18.7173
G01 X-114.4284 Y18.7399
G01 X-114.5043 Y18.7837
G01 X-114.5663 Y18.8457
G01 X-114.6101 Y18.9216
G01 X-114.6327 Y19.0062
G01 X-114.6327 Y36.4973
G01 X-119.0473 Y36.4973
G01 X-119.0473 Y34.6092
G01 X-118.9577 Y34.5721
G01 X-118.8117 Y34.4745
G01 X-118.6875 Y34.3503
G01 X-118.5899 Y34.2043
G01 X-118.5227 Y34.0421
G01 X-118.4885 Y33.8698
G01 X-118.4885 Y32.1702
G01 X-118.5227 Y31.9979
G01 X-118.5899 Y31.8357
G01 X-118.6875 Y31.6897
G01 X-118.8117 Y31.5655
G01 X-118.9577 Y31.4679
G01 X-119.0473 Y31.4308
G01 X-119.0473 Y28.2592
G01 X-118.9577 Y28.2221
G01 X-118.8117 Y28.1245
G01 X-118.6875 Y28.0003
G01 X-118.5899 Y27.8543
G01 X-118.5227 Y27.6921
G01 X-118.4885 Y27.5198
G01 X-118.4885 Y25.8202
G01 X-118.5227 Y25.6479
G01 X-118.5899 Y25.4857
G01 X-118.6875 Y25.3397
G01 X-118.8117 Y25.2155
G01 X-118.9577 Y25.1179
G01 X-119.0473 Y25.0808
G01 X-119.0473 Y21.9092
G01 X-118.9577 Y21.8721
G01 X-118.8117 Y21.7745
G01 X-118.6875 Y21.6503
G01 X-118.5899 Y21.5043
G01 X-118.5227 Y21.3421
G01 X-118.4885 Y21.1698
G01 X-118.4885 Y19.4702
G01 X-118.5227 Y19.2979
G01 X-118.5899 Y19.1357
G01 X-118.6875 Y18.9897
G01 X-118.8117 Y18.8655
G01 X-118.9577 Y18.7679
G01 X-119.0473 Y18.7308
G01 X-119.0473 Y15.5592
G01 X-118.9577 Y15.5221
G01 X-118.8117 Y15.4245
G01 X-118.6875 Y15.3003
G01 X-118.5899 Y15.1543
G01 X-118.5227 Y14.9921
G01 X-118.4885 Y14.8198
G01 X-118.4885 Y13.1202
G01 X-118.5227 Y12.9479
G01 X-118.5899 Y12.7857
G01 X-118.6875 Y12.6397
G01 X-118.8117 Y12.5155
G01 X-118.9577 Y12.4179
G01 X-119.1199 Y12.3507
G01 X-119.2922 Y12.3165
G01 X-119.4678 Y12.3165
G01 X-119.6401 Y12.3507
G01 X-119.8023 Y12.4179
G01 X-119.9483 Y12.5155
G01 X-120.0725 Y12.6397
G01 X-120.1701 Y12.7857
G01 X-120.2373 Y12.9479
G01 X-120.2715 Y13.1202
G01 X-120.2715 Y14.8198
G01 X-120.2373 Y14.9921
G01 X-120.1701 Y15.1543
G01 X-120.0725 Y15.3003
G01 X-119.9483 Y15.4245
G01 X-119.8023 Y15.5221
G01 X-119.7127 Y15.5592
G01 X-119.7127 Y18.7308
G01 X-119.8023 Y18.7679
G01 X-119.9483 Y18.8655
G01 X-120.0725 Y18.9897
G01 X-120.1701 Y19.1357
G01 X-120.2373 Y19.2979
G01 X-120.2715 Y19.4702
G01 X-120.2715 Y21.1698
G01 X-120.2373 Y21.3421
G01 X-120.1701 Y21.5043
G01 X-120.0725 Y21.6503
G01 X-119.9483 Y21.7745
G01 X-119.8023 Y21.8721
G01 X-119.7127 Y21.9092
G01 X-119.7127 Y25.0808
G01 X-119.8023 Y25.1179
G01 X-119.9483 Y25.2155
G01 X-120.0725 Y25.3397
G01 X-120.1701 Y25.4857
G01 X-120.2373 Y25.6479
G01 X-120.2715 Y25.8202
G01 X-120.2715 Y27.5198
G01 X-120.2373 Y27.6921
G01 X-120.1701 Y27.8543
G01 X-120.0725 Y28.0003
G01 X-119.9483 Y28.1245
G01 X-119.8023 Y28.2221
G01 X-119.7127 Y28.2592
G01 X-119.7127 Y31.4308
G01 X-119.8023 Y31.4679
G01 X-119.9483 Y31.5655
G01 X-120.0725 Y31.6897
G01 X-120.1701 Y31.8357
G01 X-120.2373 Y31.9979
G01 X-120.2715 Y32.1702
G01 X-120.2715 Y33.8698
G01 X-120.2373 Y34.0421
G01 X-120.1701 Y34.2043
G01 X-120.0725 Y34.3503
G01 X-119.9483 Y34.4745
G01 X-119.8023 Y34.5721
G01 X-119.7127 Y34.6092
G01 X-119.7127 Y36.8738
G01 X-119.6901 Y36.9584
G01 X-119.6463 Y37.0343
G01 X-119.5843 Y37.0963
G01 X-119.5084 Y37.1401
G01 X-119.4238 Y37.1627
G01 X-114.2562 Y37.1627
G01 X-114.1716 Y37.1401
G01 X-114.0957 Y37.0963
G01 X-114.0337 Y37.0343
G01 X-113.9899 Y36.9584
G01 X-113.9673 Y36.8738
G01 X-113.9673 Y19.3827
G01 X-111.5063 Y19.3827
G01 X-111.4810 Y19.4605
G01 X-111.4046 Y19.6105
G01 X-111.3056 Y19.7466
G01 X-111.1866 Y19.8656
G01 X-111.0505 Y19.9646
G01 X-110.9005 Y20.0410
G01 X-110.7404 Y20.0930
G01 X-110.5742 Y20.1193
G01 X-110.4058 Y20.1193
G01 X-110.2396 Y20.0930
G01 X-110.0795 Y20.0410
G01 X-109.9295 Y19.9646
G01 X-109.7934 Y19.8656
G01 X-109.6744 Y19.7466
G01 X-109.5754 Y19.6105
G01 X-109.4990 Y19.4605
G01 X-109.4737 Y19.3827
G01 X-91.7727 Y19.3827
G01 X-91.7727 Y29.2538
G01 X-91.7501 Y29.3384
G01 X-91.7063 Y29.4143
G01 X-91.6443 Y29.4763
G01 X-91.5684 Y29.5201
G01 X-91.4838 Y29.5427
G01 X-89.6899 Y29.5427
G01 X-89.6899 Y29.9482
G01 X-89.6596 Y30.1008
G01 X-89.6000 Y30.2446
G01 X-89.5136 Y30.3740
G01 X-89.4036 Y30.4840
G01 X-89.2742 Y30.5704
G01 X-89.1304 Y30.6300
G01 X-88.9778 Y30.6603
G01 X-88.8222 Y30.6603
G01 X-88.6696 Y30.6300
G01 X-88.5258 Y30.5704
G01 X-88.3964 Y30.4840
G01 X-88.2864 Y30.3740
G01 X-88.2000 Y30.2446
G01 X-88.1404 Y30.1008
G01 X-88.1101 Y29.9482
G00 Z0.5080
G00 X-65.2501 Y80.1386
G01 Z-0.2540 F254.00
G01 X-65.2501 Y78.6622
G01 X-65.2804 Y78.5096
G01 X-65.3400 Y78.3658
G01 X-65.4264 Y78.2364
G01 X-65.5364 Y78.1264
G01 X-65.6658 Y78.0400
G01 X-65.8096 Y77.9804
G01 X-65.9622 Y77.9501
G01 X-66.1178 Y77.9501
G01 X-66.2704 Y77.9804
G01 X-66.4142 Y78.0400
G01 X-66.5436 Y78.1264
G01 X-66.6536 Y78.2364
G01 X-66.7400 Y78.3658
G01 X-66.7996 Y78.5096
G01 X-66.8299 Y78.6622
G01 X-66.8299 Y80.1386
G01 X-66.7996 Y80.2912
G01 X-66.7400 Y80.4350
G01 X-66.6536 Y80.5644
G01 X-66.5436 Y80.6744
G01 X-66.4142 Y80.7608
G01 X-66.2704 Y80.8204
G01 X-66.1178 Y80.8507
G01 X-65.9622 Y80.8507
G01 X-65.8096 Y80.8204
G01 X-65.6658 Y80.7608
G01 X-65.5364 Y80.6744
G01 X-65.4264 Y80.5644
G01 X-65.3400 Y80.4350
G01 X-65.2804 Y80.2912
G01 X-65.2501 Y80.1386
G00 Z0.5080
G00 X-71.9099 Y69.7214
G01 Z-0.2540 F254.00
G01 X-71.9099 Y71.1978
G01 X-71.8796 Y71.3504
G01 X-71.8200 Y71.4942
G01 X-71.7336 Y71.6236
G01 X-71.6236 Y71.7336
G01 X-71.4942 Y71.8200
G01 X-71.3504 Y71.8796
G01 X-71.1978 Y71.9099
G01 X-71.0422 Y71.9099
G01 X-70.8896 Y71.8796
G01 X-70.7458 Y71.8200
G01 X-70.6164 Y71.7336
G01 X-70.5064 Y71.6236
G01 X-70.4200 Y71.4942
G01 X-70.3604 Y71.3504
G01 X-70.3301 Y71.1978
G01 X-70.3301 Y69.7214
G01 X-70.3604 Y69.5688
G01 X-70.4200 Y69.4250
G01 X-70.5064 Y69.2956
G01 X-70.6164 Y69.1856
G01 X-70.7458 Y69.0992
G01 X-70.8896 Y69.0396
G01 X-71.0422 Y69.0093
G01 X-71.1978 Y69.0093
G01 X-71.3504 Y69.0396
G01 X-71.4942 Y69.0992
G01 X-71.6236 Y69.1856
G01 X-71.7336 Y69.2956
G01 X-71.8200 Y69.4250
G01 X-71.8796 Y69.5688
G01 X-71.9099 Y69.7214
G00 Z0.5080
G00 X-72.8701 Y80.1386
G01 Z-0.2540 F254.00
G01 X-72.8701 Y78.6622
G01 X-72.9004 Y78.5096
G01 X-72.9600 Y78.3658
G01 X-73.0464 Y78.2364
G01 X-73.1564 Y78.1264
G01 X-73.2858 Y78.0400
G01 X-73.4296 Y77.9804
G01 X-73.5822 Y77.9501
G01 X-73.7378 Y77.9501
G01 X-73.8904 Y77.9804
G01 X-74.0342 Y78.0400
G01 X-74.1636 Y78.1264
G01 X-74.2736 Y78.2364
G01 X-74.3600 Y78.3658
G01 X-74.4196 Y78.5096
G01 X-74.4499 Y78.6622
G01 X-74.4499 Y80.1386
G01 X-74.4196 Y80.2912
G01 X-74.3600 Y80.4350
G01 X-74.2736 Y80.5644
G01 X-74.1636 Y80.6744
G01 X-74.0342 Y80.7608
G01 X-73.8904 Y80.8204
G01 X-73.7378 Y80.8507
G01 X-73.5822 Y80.8507
G01 X-73.4296 Y80.8204
G01 X-73.2858 Y80.7608
G01 X-73.1564 Y80.6744
G01 X-73.0464 Y80.5644
G01 X-72.9600 Y80.4350
G01 X-72.9004 Y80.2912
G01 X-72.8701 Y80.1386
G00 Z0.5080
G00 X-63.2993 Y57.0658
G01 Z-0.2540 F254.00
G01 X-63.2993 Y57.2342
G01 X-63.2730 Y57.4004
G01 X-63.2210 Y57.5605
G01 X-63.1446 Y57.7105
G01 X-63.0456 Y57.8466
G01 X-62.9266 Y57.9656
G01 X-62.7905 Y58.0646
G01 X-62.6405 Y58.1410
G01 X-62.4804 Y58.1930
G01 X-62.3142 Y58.2193
G01 X-62.1458 Y58.2193
G01 X-61.9796 Y58.1930
G01 X-61.8195 Y58.1410
G01 X-61.6695 Y58.0646
G01 X-61.5334 Y57.9656
G01 X-61.4144 Y57.8466
G01 X-61.3154 Y57.7105
G01 X-61.2390 Y57.5605
G01 X-61.1870 Y57.4004
G01 X-61.1607 Y57.2342
G01 X-61.1607 Y57.0658
G01 X-61.1870 Y56.8996
G01 X-61.2390 Y56.7395
G01 X-61.3154 Y56.5895
G01 X-61.4144 Y56.4534
G01 X-61.5334 Y56.3344
G01 X-61.6695 Y56.2354
G01 X-61.8195 Y56.1590
G01 X-61.9796 Y56.1070
G01 X-62.1458 Y56.0807
G01 X-62.3142 Y56.0807
G01 X-62.4804 Y56.1070
G01 X-62.6405 Y56.1590
G01 X-62.7905 Y56.2354
G01 X-62.9266 Y56.3344
G01 X-63.0456 Y56.4534
G01 X-63.1446 Y56.5895
G01 X-63.2210 Y56.7395
G01 X-63.2730 Y56.8996
G01 X-63.2993 Y57.0658
G00 Z0.5080
G00 X-63.2993 Y67.2258
G01 Z-0.2540 F254.00
G01 X-63.2993 Y67.3942
G01 X-63.2730 Y67.5604
G01 X-63.2210 Y67.7205
G01 X-63.1446 Y67.8705
G01 X-63.0456 Y68.0066
G01 X-62.9266 Y68.1256
G01 X-62.7905 Y68.2246
G01 X-62.6405 Y68.3010
G01 X-62.4804 Y68.3530
G01 X-62.3142 Y68.3793
G01 X-62.1458 Y68.3793
G01 X-61.9796 Y68.3530
G01 X-61.8195 Y68.3010
G01 X-61.6695 Y68.2246
G01 X-61.5334 Y68.1256
G01 X-61.4144 Y68.0066
G01 X-61.3154 Y67.8705
G01 X-61.2390 Y67.7205
G01 X-61.1870 Y67.5604
G01 X-61.1607 Y67.3942
G01 X-61.1607 Y67.2258
G01 X-61.1870 Y67.0596
G01 X-61.2390 Y66.8995
G01 X-61.3154 Y66.7495
G01 X-61.4144 Y66.6134
G01 X-61.5334 Y66.4944
G01 X-61.6695 Y66.3954
G01 X-61.8195 Y66.3190
G01 X-61.9796 Y66.2670
G01 X-62.1458 Y66.2407
G01 X-62.3142 Y66.2407
G01 X-62.4804 Y66.2670
G01 X-62.6405 Y66.3190
G01 X-62.7905 Y66.3954
G01 X-62.9266 Y66.4944
G01 X-63.0456 Y66.6134
G01 X-63.1446 Y66.7495
G01 X-63.2210 Y66.8995
G01 X-63.2730 Y67.0596
G01 X-63.2993 Y67.2258
G00 Z0.5080
G00 X-63.2993 Y69.7658
G01 Z-0.2540 F254.00
G01 X-63.2993 Y69.9342
G01 X-63.2730 Y70.1004
G01 X-63.2210 Y70.2605
G01 X-63.1446 Y70.4105
G01 X-63.0456 Y70.5466
G01 X-62.9266 Y70.6656
G01 X-62.7905 Y70.7646
G01 X-62.6405 Y70.8410
G01 X-62.4804 Y70.8930
G01 X-62.3142 Y70.9193
G01 X-62.1458 Y70.9193
G01 X-61.9796 Y70.8930
G01 X-61.8195 Y70.8410
G01 X-61.6695 Y70.7646
G01 X-61.5334 Y70.6656
G01 X-61.4144 Y70.5466
G01 X-61.3154 Y70.4105
G01 X-61.2390 Y70.2605
G01 X-61.1870 Y70.1004
G01 X-61.1607 Y69.9342
G01 X-61.1607 Y69.7658
G01 X-61.1870 Y69.5996
G01 X-61.2390 Y69.4395
G01 X-61.3154 Y69.2895
G01 X-61.4144 Y69.1534
G01 X-61.5334 Y69.0344
G01 X-61.6695 Y68.9354
G01 X-61.8195 Y68.8590
G01 X-61.9796 Y68.8070
G01 X-62.1458 Y68.7807
G01 X-62.3142 Y68.7807
G01 X-62.4804 Y68.8070
G01 X-62.6405 Y68.8590
G01 X-62.7905 Y68.9354
G01 X-62.9266 Y69.0344
G01 X-63.0456 Y69.1534
G01 X-63.1446 Y69.2895
G01 X-63.2210 Y69.4395
G01 X-63.2730 Y69.5996
G01 X-63.2993 Y69.7658
G00 Z0.5080
G00 X-111.5593 Y6.2658
G01 Z-0.2540 F254.00
G01 X-111.5593 Y6.4342
G01 X-111.5330 Y6.6004
G01 X-111.4810 Y6.7605
G01 X-111.4046 Y6.9105
G01 X-111.3056 Y7.0466
G01 X-111.1866 Y7.1656
G01 X-111.0505 Y7.2646
G01 X-110.9005 Y7.3410
G01 X-110.8227 Y7.3663
G01 X-110.8227 Y7.8737
G01 X-110.9005 Y7.8990
G01 X-111.0505 Y7.9754
G01 X-111.1866 Y8.0744
G01 X-111.3056 Y8.1934
G01 X-111.4046 Y8.3295
G01 X-111.4810 Y8.4795
G01 X-111.5063 Y8.5573
G01 X-121.9638 Y8.5573
G01 X-122.0484 Y8.5799
G01 X-122.1243 Y8.6237
G01 X-122.1863 Y8.6857
G01 X-122.2301 Y8.7616
G01 X-122.2527 Y8.8462
G01 X-122.2527 Y12.3808
G01 X-122.3423 Y12.4179
G01 X-122.4883 Y12.5155
G01 X-122.6125 Y12.6397
G01 X-122.7101 Y12.7857
G01 X-122.7773 Y12.9479
G01 X-122.8115 Y13.1202
G01 X-122.8115 Y14.8198
G01 X-122.7773 Y14.9921
G01 X-122.7101 Y15.1543
G01 X-122.6125 Y15.3003
G01 X-122.4883 Y15.4245
G01 X-122.3423 Y15.5221
G01 X-122.2527 Y15.5592
G01 X-122.2527 Y18.7308
G01 X-122.3423 Y18.7679
G01 X-122.4883 Y18.8655
G01 X-122.6125 Y18.9897
G01 X-122.7101 Y19.1357
G01 X-122.7773 Y19.2979
G01 X-122.8115 Y19.4702
G01 X-122.8115 Y21.1698
G01 X-122.7773 Y21.3421
G01 X-122.7101 Y21.5043
G01 X-122.6125 Y21.6503
G01 X-122.4883 Y21.7745
G01 X-122.3423 Y21.8721
G01 X-122.2527 Y21.9092
G01 X-122.2527 Y25.0808
G01 X-122.3423 Y25.1179
G01 X-122.4883 Y25.2155
G01 X-122.6125 Y25.3397
G01 X-122.7101 Y25.4857
G01 X-122.7773 Y25.6479
G01 X-122.8115 Y25.8202
G01 X-122.8115 Y27.5198
G01 X-122.7773 Y27.6921
G01 X-122.7101 Y27.8543
G01 X-122.6125 Y28.0003
G01 X-122.4883 Y28.1245
G01 X-122.3423 Y28.2221
G01 X-122.2527 Y28.2592
G01 X-122.2527 Y31.4308
G01 X-122.3423 Y31.4679
G01 X-122.4883 Y31.5655
G01 X-122.6125 Y31.6897
G01 X-122.7101 Y31.8357
G01 X-122.7773 Y31.9979
G01 X-122.8115 Y32.1702
G01 X-122.8115 Y33.8698
G01 X-122.7773 Y34.0421
G01 X-122.7101 Y34.2043
G01 X-122.6125 Y34.3503
G01 X-122.4883 Y34.4745
G01 X-122.3423 Y34.5721
G01 X-122.1801 Y34.6393
G01 X-122.0078 Y34.6735
G01 X-121.8322 Y34.6735
G01 X-121.6599 Y34.6393
G01 X-121.4977 Y34.5721
G01 X-121.3517 Y34.4745
G01 X-121.2275 Y34.3503
G01 X-121.1299 Y34.2043
G01 X-121.0627 Y34.0421
G01 X-121.0285 Y33.8698
G01 X-121.0285 Y32.1702
G01 X-121.0627 Y31.9979
G01 X-121.1299 Y31.8357
G01 X-121.2275 Y31.6897
G01 X-121.3517 Y31.5655
G01 X-121.4977 Y31.4679
G01 X-121.5873 Y31.4308
G01 X-121.5873 Y28.2592
G01 X-121.4977 Y28.2221
G01 X-121.3517 Y28.1245
G01 X-121.2275 Y28.0003
G01 X-121.1299 Y27.8543
G01 X-121.0627 Y27.6921
G01 X-121.0285 Y27.5198
G01 X-121.0285 Y25.8202
G01 X-121.0627 Y25.6479
G01 X-121.1299 Y25.4857
G01 X-121.2275 Y25.3397
G01 X-121.3517 Y25.2155
G01 X-121.4977 Y25.1179
G01 X-121.5873 Y25.0808
G01 X-121.5873 Y21.9092
G01 X-121.4977 Y21.8721
G01 X-121.3517 Y21.7745
G01 X-121.2275 Y21.6503
G01 X-121.1299 Y21.5043
G01 X-121.0627 Y21.3421
G01 X-121.0285 Y21.1698
G01 X-121.0285 Y19.4702
G01 X-121.0627 Y19.2979
G01 X-121.1299 Y19.1357
G01 X-121.2275 Y18.9897
G01 X-121.3517 Y18.8655
G01 X-121.4977 Y18.7679
G01 X-121.5873 Y18.7308
G01 X-121.5873 Y15.5592
G01 X-121.4977 Y15.5221
G01 X-121.3517 Y15.4245
G01 X-121.2275 Y15.3003
G01 X-121.1299 Y15.1543
G01 X-121.0627 Y14.9921
G01 X-121.0285 Y14.8198
G01 X-121.0285 Y13.1202
G01 X-121.0627 Y12.9479
G01 X-121.1299 Y12.7857
G01 X-121.2275 Y12.6397
G01 X-121.3517 Y12.5155
G01 X-121.4977 Y12.4179
G01 X-121.5873 Y12.3808
G01 X-121.5873 Y9.2227
G01 X-111.5063 Y9.2227
G01 X-111.4810 Y9.3005
G01 X-111.4046 Y9.4505
G01 X-111.3056 Y9.5866
G01 X-111.1866 Y9.7056
G01 X-111.0505 Y9.8046
G01 X-110.9005 Y9.8810
G01 X-110.7404 Y9.9330
G01 X-110.5742 Y9.9593
G01 X-110.4058 Y9.9593
G01 X-110.2396 Y9.9330
G01 X-110.0795 Y9.8810
G01 X-109.9295 Y9.8046
G01 X-109.7934 Y9.7056
