( Made using CamBam - http://www.cambam.co.uk )
( board 8/2/2013 4:02:32 PM )
( T4 : 0.2 )
G21 G90 G64 G40
G0 Z3.0
( T4 : 0.2 )
T4 M6
( Engrave1 )
G17
M3 S1000
G0 X24.21 Y35.7
G0 Z1.2
G1 F30.0 Z-0.2
G1 F200.0 X24.212 Y35.739
G1 X24.218 Y35.777
G1 X24.227 Y35.815
G1 X24.241 Y35.851
G1 X24.257 Y35.887
G1 X24.278 Y35.92
G1 X24.301 Y35.951
G1 X24.328 Y35.979
G1 X24.357 Y36.005
G1 X24.388 Y36.028
G1 X24.422 Y36.047
G1 X24.458 Y36.063
G1 X24.494 Y36.075
G1 X24.532 Y36.084
G1 X24.571 Y36.089
G1 X24.61 Y36.09
G1 X24.648 Y36.087
G1 X24.687 Y36.08
G1 X24.724 Y36.07
G1 X24.76 Y36.055
G1 X24.795 Y36.038
G1 X24.828 Y36.017
G1 X24.858 Y35.992
G1 X24.886 Y35.965
G1 X24.911 Y35.935
G1 X24.933 Y35.903
G1 X24.951 Y35.869
G1 X24.966 Y35.833
G1 X24.978 Y35.796
G1 X24.986 Y35.758
G1 X24.99 Y35.719
G1 Y35.681
G1 X24.986 Y35.642
G1 X24.978 Y35.604
G1 X24.966 Y35.567
G1 X24.951 Y35.531
G1 X24.933 Y35.497
G1 X24.911 Y35.465
G1 X24.886 Y35.435
G1 X24.858 Y35.408
G1 X24.828 Y35.383
G1 X24.795 Y35.362
G1 X24.76 Y35.345
G1 X24.724 Y35.33
G1 X24.687 Y35.32
G1 X24.648 Y35.313
G1 X24.61 Y35.31
G1 X24.571 Y35.311
G1 X24.532 Y35.316
G1 X24.494 Y35.325
G1 X24.458 Y35.337
G1 X24.422 Y35.353
G1 X24.388 Y35.372
G1 X24.357 Y35.395
G1 X24.328 Y35.421
G1 X24.301 Y35.449
G1 X24.278 Y35.48
G1 X24.257 Y35.513
G1 X24.241 Y35.549
G1 X24.227 Y35.585
G1 X24.218 Y35.623
G1 X24.212 Y35.661
G1 X24.21 Y35.7
G0 Z3.0
G0 X24.2 Y35.3
G0 Z1.2
G1 F30.0 Z-0.2
G1 F200.0 X25.0 Y36.1
G0 Z3.0
G0 Y35.1
G0 Z1.2
G1 F30.0 Z-0.2
G1 F200.0 X24.2 Y34.3
G0 Z3.0
G0 X24.21 Y34.7
G0 Z1.2
G1 F30.0 Z-0.2
G1 F200.0 X24.212 Y34.739
G1 X24.218 Y34.777
G1 X24.227 Y34.815
G1 X24.241 Y34.851
G1 X24.257 Y34.887
G1 X24.278 Y34.92
G1 X24.301 Y34.951
G1 X24.328 Y34.979
G1 X24.357 Y35.005
G1 X24.388 Y35.028
G1 X24.422 Y35.047
G1 X24.458 Y35.063
G1 X24.494 Y35.075
G1 X24.532 Y35.084
G1 X24.571 Y35.089
G1 X24.61 Y35.09
G1 X24.648 Y35.087
G1 X24.687 Y35.08
G1 X24.724 Y35.07
G1 X24.76 Y35.055
G1 X24.795 Y35.038
G1 X24.828 Y35.017
G1 X24.858 Y34.992
G1 X24.886 Y34.965
G1 X24.911 Y34.935
G1 X24.933 Y34.903
G1 X24.951 Y34.869
G1 X24.966 Y34.833
G1 X24.978 Y34.796
G1 X24.986 Y34.758
G1 X24.99 Y34.719
G1 Y34.681
G1 X24.986 Y34.642
G1 X24.978 Y34.604
G1 X24.966 Y34.567
G1 X24.951 Y34.531
G1 X24.933 Y34.497
G1 X24.911 Y34.465
G1 X24.886 Y34.435
G1 X24.858 Y34.408
G1 X24.828 Y34.383
G1 X24.795 Y34.362
G1 X24.76 Y34.345
G1 X24.724 Y34.33
G1 X24.687 Y34.32
G1 X24.648 Y34.313
G1 X24.61 Y34.31
G1 X24.571 Y34.311
G1 X24.532 Y34.316
G1 X24.494 Y34.325
G1 X24.458 Y34.337
G1 X24.422 Y34.353
G1 X24.388 Y34.372
G1 X24.357 Y34.395
G1 X24.328 Y34.421
G1 X24.301 Y34.449
G1 X24.278 Y34.48
G1 X24.257 Y34.513
G1 X24.241 Y34.549
G1 X24.227 Y34.585
G1 X24.218 Y34.623
G1 X24.212 Y34.661
G1 X24.21 Y34.7
G0 Z3.0
G0 X23.6 Y34.6
G0 Z1.2
G1 F30.0 Z-0.2
G1 F200.0 Y29.1
G1 Y28.1
G1 X20.6
G0 Z3.0
G0 Y28.36
G0 Z1.2
G1 F30.0 Z-0.2
G1 F200.0 Y27.84
G0 Z3.0
G0 X20.2 Y27.7
G0 Z1.2
G1 F30.0 Z-0.2
G1 F200.0 X21.0 Y28.5
G0 Z3.0
G0 X20.21 Y28.1
G0 Z1.2
G1 F30.0 Z-0.2
G1 F200.0 X20.212 Y28.139
G1 X20.218 Y28.177
G1 X20.227 Y28.215
G1 X20.241 Y28.251
G1 X20.257 Y28.287
G1 X20.278 Y28.32
G1 X20.301 Y28.351
G1 X20.328 Y28.379
G1 X20.357 Y28.405
G1 X20.388 Y28.428
G1 X20.422 Y28.447
G1 X20.458 Y28.463
G1 X20.494 Y28.475
G1 X20.532 Y28.484
G1 X20.571 Y28.489
G1 X20.61 Y28.49
G1 X20.648 Y28.487
G1 X20.687 Y28.48
G1 X20.724 Y28.47
G1 X20.76 Y28.455
G1 X20.795 Y28.438
G1 X20.828 Y28.417
G1 X20.858 Y28.392
G1 X20.886 Y28.365
G1 X20.911 Y28.335
G1 X20.933 Y28.303
G1 X20.951 Y28.269
G1 X20.966 Y28.233
G1 X20.978 Y28.196
G1 X20.986 Y28.158
G1 X20.99 Y28.119
G1 Y28.081
G1 X20.986 Y28.042
G1 X20.978 Y28.004
G1 X20.966 Y27.967
G1 X20.951 Y27.931
G1 X20.933 Y27.897
G1 X20.911 Y27.865
G1 X20.886 Y27.835
G1 X20.858 Y27.808
G1 X20.828 Y27.783
G1 X20.795 Y27.762
G1 X20.76 Y27.745
G1 X20.724 Y27.73
G1 X20.687 Y27.72
G1 X20.648 Y27.713
G1 X20.61 Y27.71
G1 X20.571 Y27.711
G1 X20.532 Y27.716
G1 X20.494 Y27.725
G1 X20.458 Y27.737
G1 X20.422 Y27.753
G1 X20.388 Y27.772
G1 X20.357 Y27.795
G1 X20.328 Y27.821
G1 X20.301 Y27.849
G1 X20.278 Y27.88
G1 X20.257 Y27.913
G1 X20.241 Y27.949
G1 X20.227 Y27.985
G1 X20.218 Y28.023
G1 X20.212 Y28.061
G1 X20.21 Y28.1
G0 Z3.0
G0 X20.0 Y28.5
G0 Z1.2
G1 F30.0 Z-0.2
G1 F200.0 X19.2 Y27.7
G0 Z3.0
G0 X19.21 Y28.1
G0 Z1.2
G1 F30.0 Z-0.2
G1 F200.0 X19.212 Y28.139
G1 X19.218 Y28.177
G1 X19.227 Y28.215
G1 X19.241 Y28.251
G1 X19.257 Y28.287
G1 X19.278 Y28.32
G1 X19.301 Y28.351
G1 X19.328 Y28.379
G1 X19.357 Y28.405
G1 X19.388 Y28.428
G1 X19.422 Y28.447
G1 X19.458 Y28.463
G1 X19.494 Y28.475
G1 X19.532 Y28.484
G1 X19.571 Y28.489
G1 X19.61 Y28.49
G1 X19.648 Y28.487
G1 X19.687 Y28.48
G1 X19.724 Y28.47
G1 X19.76 Y28.455
G1 X19.795 Y28.438
G1 X19.828 Y28.417
G1 X19.858 Y28.392
G1 X19.886 Y28.365
G1 X19.911 Y28.335
G1 X19.933 Y28.303
G1 X19.951 Y28.269
G1 X19.966 Y28.233
G1 X19.978 Y28.196
G1 X19.986 Y28.158
G1 X19.99 Y28.119
G1 Y28.081
G1 X19.986 Y28.042
G1 X19.978 Y28.004
G1 X19.966 Y27.967
G1 X19.951 Y27.931
G1 X19.933 Y27.897
G1 X19.911 Y27.865
G1 X19.886 Y27.835
G1 X19.858 Y27.808
G1 X19.828 Y27.783
G1 X19.795 Y27.762
G1 X19.76 Y27.745
G1 X19.724 Y27.73
G1 X19.687 Y27.72
G1 X19.648 Y27.713
G1 X19.61 Y27.71
G1 X19.571 Y27.711
G1 X19.532 Y27.716
G1 X19.494 Y27.725
G1 X19.458 Y27.737
G1 X19.422 Y27.753
G1 X19.388 Y27.772
G1 X19.357 Y27.795
G1 X19.328 Y27.821
G1 X19.301 Y27.849
G1 X19.278 Y27.88
G1 X19.257 Y27.913
G1 X19.241 Y27.949
G1 X19.227 Y27.985
G1 X19.218 Y28.023
G1 X19.212 Y28.061
G1 X19.21 Y28.1
G0 Z3.0
G0 X19.0 Y28.5
G0 Z1.2
G1 F30.0 Z-0.2
G1 F200.0 X18.2 Y27.7
G0 Z3.0
G0 X18.21 Y28.1
G0 Z1.2
G1 F30.0 Z-0.2
G1 F200.0 X18.212 Y28.139
G1 X18.218 Y28.177
G1 X18.227 Y28.215
G1 X18.241 Y28.251
G1 X18.257 Y28.287
G1 X18.278 Y28.32
G1 X18.301 Y28.351
G1 X18.328 Y28.379
G1 X18.357 Y28.405
G1 X18.388 Y28.428
G1 X18.422 Y28.447
G1 X18.458 Y28.463
G1 X18.494 Y28.475
G1 X18.532 Y28.484
G1 X18.571 Y28.489
G1 X18.61 Y28.49
G1 X18.648 Y28.487
G1 X18.687 Y28.48
G1 X18.724 Y28.47
G1 X18.76 Y28.455
G1 X18.795 Y28.438
G1 X18.828 Y28.417
G1 X18.858 Y28.392
G1 X18.886 Y28.365
G1 X18.911 Y28.335
G1 X18.933 Y28.303
G1 X18.951 Y28.269
G1 X18.966 Y28.233
G1 X18.978 Y28.196
G1 X18.986 Y28.158
G1 X18.99 Y28.119
G1 Y28.081
G1 X18.986 Y28.042
G1 X18.978 Y28.004
G1 X18.966 Y27.967
G1 X18.951 Y27.931
G1 X18.933 Y27.897
G1 X18.911 Y27.865
G1 X18.886 Y27.835
G1 X18.858 Y27.808
G1 X18.828 Y27.783
G1 X18.795 Y27.762
G1 X18.76 Y27.745
G1 X18.724 Y27.73
G1 X18.687 Y27.72
G1 X18.648 Y27.713
G1 X18.61 Y27.71
G1 X18.571 Y27.711
G1 X18.532 Y27.716
G1 X18.494 Y27.725
G1 X18.458 Y27.737
G1 X18.422 Y27.753
G1 X18.388 Y27.772
G1 X18.357 Y27.795
G1 X18.328 Y27.821
G1 X18.301 Y27.849
G1 X18.278 Y27.88
G1 X18.257 Y27.913
G1 X18.241 Y27.949
G1 X18.227 Y27.985
G1 X18.218 Y28.023
G1 X18.212 Y28.061
G1 X18.21 Y28.1
G0 Z3.0
G0 X18.0 Y28.5
G0 Z1.2
G1 F30.0 Z-0.2
G1 F200.0 X17.2 Y27.7
G0 Z3.0
G0 X17.21 Y28.1
G0 Z1.2
G1 F30.0 Z-0.2
G1 F200.0 X17.212 Y28.139
G1 X17.218 Y28.177
G1 X17.227 Y28.215
G1 X17.241 Y28.251
G1 X17.257 Y28.287
G1 X17.278 Y28.32
G1 X17.301 Y28.351
G1 X17.328 Y28.379
G1 X17.357 Y28.405
G1 X17.388 Y28.428
G1 X17.422 Y28.447
G1 X17.458 Y28.463
G1 X17.494 Y28.475
G1 X17.532 Y28.484
G1 X17.571 Y28.489
G1 X17.61 Y28.49
G1 X17.648 Y28.487
G1 X17.687 Y28.48
G1 X17.724 Y28.47
G1 X17.76 Y28.455
G1 X17.795 Y28.438
G1 X17.828 Y28.417
G1 X17.858 Y28.392
G1 X17.886 Y28.365
G1 X17.911 Y28.335
G1 X17.933 Y28.303
G1 X17.951 Y28.269
G1 X17.966 Y28.233
G1 X17.978 Y28.196
G1 X17.986 Y28.158
G1 X17.99 Y28.119
G1 Y28.081
G1 X17.986 Y28.042
G1 X17.978 Y28.004
G1 X17.966 Y27.967
G1 X17.951 Y27.931
G1 X17.933 Y27.897
G1 X17.911 Y27.865
G1 X17.886 Y27.835
G1 X17.858 Y27.808
G1 X17.828 Y27.783
G1 X17.795 Y27.762
G1 X17.76 Y27.745
G1 X17.724 Y27.73
G1 X17.687 Y27.72
G1 X17.648 Y27.713
G1 X17.61 Y27.71
G1 X17.571 Y27.711
G1 X17.532 Y27.716
G1 X17.494 Y27.725
G1 X17.458 Y27.737
G1 X17.422 Y27.753
G1 X17.388 Y27.772
G1 X17.357 Y27.795
G1 X17.328 Y27.821
G1 X17.301 Y27.849
G1 X17.278 Y27.88
G1 X17.257 Y27.913
G1 X17.241 Y27.949
G1 X17.227 Y27.985
G1 X17.218 Y28.023
G1 X17.212 Y28.061
G1 X17.21 Y28.1
G0 Z3.0
G0 X17.0 Y28.5
G0 Z1.2
G1 F30.0 Z-0.2
G1 F200.0 X16.2 Y27.7
G0 Z3.0
G0 X16.21 Y28.1
G0 Z1.2
G1 F30.0 Z-0.2
G1 F200.0 X16.212 Y28.139
G1 X16.218 Y28.177
G1 X16.227 Y28.215
G1 X16.241 Y28.251
G1 X16.257 Y28.287
G1 X16.278 Y28.32
G1 X16.301 Y28.351
G1 X16.328 Y28.379
G1 X16.357 Y28.405
G1 X16.388 Y28.428
G1 X16.422 Y28.447
G1 X16.458 Y28.463
G1 X16.494 Y28.475
G1 X16.532 Y28.484
G1 X16.571 Y28.489
G1 X16.61 Y28.49
G1 X16.648 Y28.487
G1 X16.687 Y28.48
G1 X16.724 Y28.47
G1 X16.76 Y28.455
G1 X16.795 Y28.438
G1 X16.828 Y28.417
G1 X16.858 Y28.392
G1 X16.886 Y28.365
G1 X16.911 Y28.335
G1 X16.933 Y28.303
G1 X16.951 Y28.269
G1 X16.966 Y28.233
G1 X16.978 Y28.196
G1 X16.986 Y28.158
G1 X16.99 Y28.119
G1 Y28.081
G1 X16.986 Y28.042
G1 X16.978 Y28.004
G1 X16.966 Y27.967
G1 X16.951 Y27.931
G1 X16.933 Y27.897
G1 X16.911 Y27.865
G1 X16.886 Y27.835
G1 X16.858 Y27.808
G1 X16.828 Y27.783
G1 X16.795 Y27.762
G1 X16.76 Y27.745
G1 X16.724 Y27.73
G1 X16.687 Y27.72
G1 X16.648 Y27.713
G1 X16.61 Y27.71
G1 X16.571 Y27.711
G1 X16.532 Y27.716
G1 X16.494 Y27.725
G1 X16.458 Y27.737
G1 X16.422 Y27.753
G1 X16.388 Y27.772
G1 X16.357 Y27.795
G1 X16.328 Y27.821
G1 X16.301 Y27.849
G1 X16.278 Y27.88
G1 X16.257 Y27.913
G1 X16.241 Y27.949
G1 X16.227 Y27.985
G1 X16.218 Y28.023
G1 X16.212 Y28.061
G1 X16.21 Y28.1
G0 Z3.0
G0 X16.0 Y28.5
G0 Z1.2
G1 F30.0 Z-0.2
G1 F200.0 X15.2 Y27.7
G0 Z3.0
G0 X15.21 Y28.1
G0 Z1.2
G1 F30.0 Z-0.2
G1 F200.0 X15.212 Y28.139
G1 X15.218 Y28.177
G1 X15.227 Y28.215
G1 X15.241 Y28.251
G1 X15.257 Y28.287
G1 X15.278 Y28.32
G1 X15.301 Y28.351
G1 X15.328 Y28.379
G1 X15.357 Y28.405
G1 X15.388 Y28.428
G1 X15.422 Y28.447
G1 X15.458 Y28.463
G1 X15.494 Y28.475
G1 X15.532 Y28.484
G1 X15.571 Y28.489
G1 X15.61 Y28.49
G1 X15.648 Y28.487
G1 X15.687 Y28.48
G1 X15.724 Y28.47
G1 X15.76 Y28.455
G1 X15.795 Y28.438
G1 X15.828 Y28.417
G1 X15.858 Y28.392
G1 X15.886 Y28.365
G1 X15.911 Y28.335
G1 X15.933 Y28.303
G1 X15.951 Y28.269
G1 X15.966 Y28.233
G1 X15.978 Y28.196
G1 X15.986 Y28.158
G1 X15.99 Y28.119
G1 Y28.081
G1 X15.986 Y28.042
G1 X15.978 Y28.004
G1 X15.966 Y27.967
G1 X15.951 Y27.931
G1 X15.933 Y27.897
G1 X15.911 Y27.865
G1 X15.886 Y27.835
G1 X15.858 Y27.808
G1 X15.828 Y27.783
G1 X15.795 Y27.762
G1 X15.76 Y27.745
G1 X15.724 Y27.73
G1 X15.687 Y27.72
G1 X15.648 Y27.713
G1 X15.61 Y27.71
G1 X15.571 Y27.711
G1 X15.532 Y27.716
G1 X15.494 Y27.725
G1 X15.458 Y27.737
G1 X15.422 Y27.753
G1 X15.388 Y27.772
G1 X15.357 Y27.795
G1 X15.328 Y27.821
G1 X15.301 Y27.849
G1 X15.278 Y27.88
G1 X15.257 Y27.913
G1 X15.241 Y27.949
G1 X15.227 Y27.985
G1 X15.218 Y28.023
G1 X15.212 Y28.061
G1 X15.21 Y28.1
G0 Z3.0
G0 X15.0 Y28.5
G0 Z1.2
G1 F30.0 Z-0.2
G1 F200.0 X14.2 Y27.7
G0 Z3.0
G0 X14.21 Y28.1
G0 Z1.2
G1 F30.0 Z-0.2
G1 F200.0 X14.212 Y28.139
G1 X14.218 Y28.177
G1 X14.227 Y28.215
G1 X14.241 Y28.251
G1 X14.257 Y28.287
G1 X14.278 Y28.32
G1 X14.301 Y28.351
G1 X14.328 Y28.379
G1 X14.357 Y28.405
G1 X14.388 Y28.428
G1 X14.422 Y28.447
G1 X14.458 Y28.463
G1 X14.494 Y28.475
G1 X14.532 Y28.484
G1 X14.571 Y28.489
G1 X14.61 Y28.49
G1 X14.648 Y28.487
G1 X14.687 Y28.48
G1 X14.724 Y28.47
G1 X14.76 Y28.455
G1 X14.795 Y28.438
G1 X14.828 Y28.417
G1 X14.858 Y28.392
G1 X14.886 Y28.365
G1 X14.911 Y28.335
G1 X14.933 Y28.303
G1 X14.951 Y28.269
G1 X14.966 Y28.233
G1 X14.978 Y28.196
G1 X14.986 Y28.158
G1 X14.99 Y28.119
G1 Y28.081
G1 X14.986 Y28.042
G1 X14.978 Y28.004
G1 X14.966 Y27.967
G1 X14.951 Y27.931
G1 X14.933 Y27.897
G1 X14.911 Y27.865
G1 X14.886 Y27.835
G1 X14.858 Y27.808
G1 X14.828 Y27.783
G1 X14.795 Y27.762
G1 X14.76 Y27.745
G1 X14.724 Y27.73
G1 X14.687 Y27.72
G1 X14.648 Y27.713
G1 X14.61 Y27.71
G1 X14.571 Y27.711
G1 X14.532 Y27.716
G1 X14.494 Y27.725
G1 X14.458 Y27.737
G1 X14.422 Y27.753
G1 X14.388 Y27.772
G1 X14.357 Y27.795
G1 X14.328 Y27.821
G1 X14.301 Y27.849
G1 X14.278 Y27.88
G1 X14.257 Y27.913
G1 X14.241 Y27.949
G1 X14.227 Y27.985
G1 X14.218 Y28.023
G1 X14.212 Y28.061
G1 X14.21 Y28.1
G0 Z3.0
G0 X14.6 Y28.36
G0 Z1.2
G1 F30.0 Z-0.2
G1 F200.0 Y27.84
G0 Z3.0
G0 X15.6
G0 Z1.2
G1 F30.0 Z-0.2
G1 F200.0 Y28.36
G0 Z3.0
G0 X16.6
G0 Z1.2
G1 F30.0 Z-0.2
G1 F200.0 Y27.84
G0 Z3.0
G0 X17.6
G0 Z1.2
G1 F30.0 Z-0.2
G1 F200.0 Y28.36
G0 Z3.0
G0 X18.6
G0 Z1.2
G1 F30.0 Z-0.2
G1 F200.0 Y27.84
G0 Z3.0
G0 X19.6
G0 Z1.2
G1 F30.0 Z-0.2
G1 F200.0 Y28.36
G0 Z3.0
G0 X21.7 Y27.5
G0 Z1.2
G1 F30.0 Z-0.2
G1 F200.0 X22.5 Y26.7
G0 Z3.0
G0 X22.1 Y27.1
G0 Z1.2
G1 F30.0 Z-0.2
G1 F200.0 Y14.1
G1 X24.6
G0 Z3.0
G0 X24.21
G0 Z1.2
G1 F30.0 Z-0.2
G1 F200.0 X24.212 Y14.139
G1 X24.218 Y14.177
G1 X24.227 Y14.215
G1 X24.241 Y14.251
G1 X24.257 Y14.287
G1 X24.278 Y14.32
G1 X24.301 Y14.351
G1 X24.328 Y14.379
G1 X24.357 Y14.405
G1 X24.388 Y14.428
G1 X24.422 Y14.447
G1 X24.458 Y14.463
G1 X24.494 Y14.475
G1 X24.532 Y14.484
G1 X24.571 Y14.489
G1 X24.61 Y14.49
G1 X24.648 Y14.487
G1 X24.687 Y14.48
G1 X24.724 Y14.47
G1 X24.76 Y14.455
G1 X24.795 Y14.438
G1 X24.828 Y14.417
G1 X24.858 Y14.392
G1 X24.886 Y14.365
G1 X24.911 Y14.335
G1 X24.933 Y14.303
G1 X24.951 Y14.269
G1 X24.966 Y14.233
G1 X24.978 Y14.196
G1 X24.986 Y14.158
G1 X24.99 Y14.119
G1 Y14.081
G1 X24.986 Y14.042
G1 X24.978 Y14.004
G1 X24.966 Y13.967
G1 X24.951 Y13.931
G1 X24.933 Y13.897
G1 X24.911 Y13.865
G1 X24.886 Y13.835
G1 X24.858 Y13.808
G1 X24.828 Y13.783
G1 X24.795 Y13.762
G1 X24.76 Y13.745
G1 X24.724 Y13.73
G1 X24.687 Y13.72
G1 X24.648 Y13.713
G1 X24.61 Y13.71
G1 X24.571 Y13.711
G1 X24.532 Y13.716
G1 X24.494 Y13.725
G1 X24.458 Y13.737
G1 X24.422 Y13.753
G1 X24.388 Y13.772
G1 X24.357 Y13.795
G1 X24.328 Y13.821
G1 X24.301 Y13.849
G1 X24.278 Y13.88
G1 X24.257 Y13.913
G1 X24.241 Y13.949
G1 X24.227 Y13.985
G1 X24.218 Y14.023
G1 X24.212 Y14.061
G1 X24.21 Y14.1
G0 Z3.0
G0 X24.2 Y13.7
G0 Z1.2
G1 F30.0 Z-0.2
G1 F200.0 X25.0 Y14.5
G0 Z3.0
G0 X24.2 Y14.7
G0 Z1.2
G1 F30.0 Z-0.2
G1 F200.0 X25.0 Y15.5
G0 Z3.0
G0 X24.2 Y15.7
G0 Z1.2
G1 F30.0 Z-0.2
G1 F200.0 X25.0 Y16.5
G0 Z3.0
G0 X24.2 Y16.7
G0 Z1.2
G1 F30.0 Z-0.2
G1 F200.0 X25.0 Y17.5
G0 Z3.0
G0 X24.2 Y17.7
G0 Z1.2
G1 F30.0 Z-0.2
G1 F200.0 X25.0 Y18.5
G0 Z3.0
G0 X24.21 Y18.1
G0 Z1.2
G1 F30.0 Z-0.2
G1 F200.0 X24.212 Y18.139
G1 X24.218 Y18.177
G1 X24.227 Y18.215
G1 X24.241 Y18.251
G1 X24.257 Y18.287
G1 X24.278 Y18.32
G1 X24.301 Y18.351
G1 X24.328 Y18.379
G1 X24.357 Y18.405
G1 X24.388 Y18.428
G1 X24.422 Y18.447
G1 X24.458 Y18.463
G1 X24.494 Y18.475
G1 X24.532 Y18.484
G1 X24.571 Y18.489
G1 X24.61 Y18.49
G1 X24.648 Y18.487
G1 X24.687 Y18.48
G1 X24.724 Y18.47
G1 X24.76 Y18.455
G1 X24.795 Y18.438
G1 X24.828 Y18.417
G1 X24.858 Y18.392
G1 X24.886 Y18.365
G1 X24.911 Y18.335
G1 X24.933 Y18.303
G1 X24.951 Y18.269
G1 X24.966 Y18.233
G1 X24.978 Y18.196
G1 X24.986 Y18.158
G1 X24.99 Y18.119
G1 Y18.081
G1 X24.986 Y18.042
G1 X24.978 Y18.004
G1 X24.966 Y17.967
G1 X24.951 Y17.931
G1 X24.933 Y17.897
G1 X24.911 Y17.865
G1 X24.886 Y17.835
G1 X24.858 Y17.808
G1 X24.828 Y17.783
G1 X24.795 Y17.762
G1 X24.76 Y17.745
G1 X24.724 Y17.73
G1 X24.687 Y17.72
G1 X24.648 Y17.713
G1 X24.61 Y17.71
G1 X24.571 Y17.711
G1 X24.532 Y17.716
G1 X24.494 Y17.725
G1 X24.458 Y17.737
G1 X24.422 Y17.753
G1 X24.388 Y17.772
G1 X24.357 Y17.795
G1 X24.328 Y17.821
G1 X24.301 Y17.849
G1 X24.278 Y17.88
G1 X24.257 Y17.913
G1 X24.241 Y17.949
G1 X24.227 Y17.985
G1 X24.218 Y18.023
G1 X24.212 Y18.061
G1 X24.21 Y18.1
G0 Z3.0
G0 Y17.1
G0 Z1.2
G1 F30.0 Z-0.2
G1 F200.0 X24.212 Y17.139
G1 X24.218 Y17.177
G1 X24.227 Y17.215
G1 X24.241 Y17.251
G1 X24.257 Y17.287
G1 X24.278 Y17.32
G1 X24.301 Y17.351
G1 X24.328 Y17.379
G1 X24.357 Y17.405
G1 X24.388 Y17.428
G1 X24.422 Y17.447
G1 X24.458 Y17.463
G1 X24.494 Y17.475
G1 X24.532 Y17.484
G1 X24.571 Y17.489
G1 X24.61 Y17.49
G1 X24.648 Y17.487
G1 X24.687 Y17.48
G1 X24.724 Y17.47
G1 X24.76 Y17.455
G1 X24.795 Y17.438
G1 X24.828 Y17.417
G1 X24.858 Y17.392
G1 X24.886 Y17.365
G1 X24.911 Y17.335
G1 X24.933 Y17.303
G1 X24.951 Y17.269
G1 X24.966 Y17.233
G1 X24.978 Y17.196
G1 X24.986 Y17.158
G1 X24.99 Y17.119
G1 Y17.081
G1 X24.986 Y17.042
G1 X24.978 Y17.004
G1 X24.966 Y16.967
G1 X24.951 Y16.931
G1 X24.933 Y16.897
G1 X24.911 Y16.865
G1 X24.886 Y16.835
G1 X24.858 Y16.808
G1 X24.828 Y16.783
G1 X24.795 Y16.762
G1 X24.76 Y16.745
G1 X24.724 Y16.73
G1 X24.687 Y16.72
G1 X24.648 Y16.713
G1 X24.61 Y16.71
G1 X24.571 Y16.711
G1 X24.532 Y16.716
G1 X24.494 Y16.725
G1 X24.458 Y16.737
G1 X24.422 Y16.753
G1 X24.388 Y16.772
G1 X24.357 Y16.795
G1 X24.328 Y16.821
G1 X24.301 Y16.849
G1 X24.278 Y16.88
G1 X24.257 Y16.913
G1 X24.241 Y16.949
G1 X24.227 Y16.985
G1 X24.218 Y17.023
G1 X24.212 Y17.061
G1 X24.21 Y17.1
G0 Z3.0
G0 Y16.1
G0 Z1.2
G1 F30.0 Z-0.2
G1 F200.0 X24.212 Y16.139
G1 X24.218 Y16.177
G1 X24.227 Y16.215
G1 X24.241 Y16.251
G1 X24.257 Y16.287
G1 X24.278 Y16.32
G1 X24.301 Y16.351
G1 X24.328 Y16.379
G1 X24.357 Y16.405
G1 X24.388 Y16.428
G1 X24.422 Y16.447
G1 X24.458 Y16.463
G1 X24.494 Y16.475
G1 X24.532 Y16.484
G1 X24.571 Y16.489
G1 X24.61 Y16.49
G1 X24.648 Y16.487
G1 X24.687 Y16.48
G1 X24.724 Y16.47
G1 X24.76 Y16.455
G1 X24.795 Y16.438
G1 X24.828 Y16.417
G1 X24.858 Y16.392
G1 X24.886 Y16.365
G1 X24.911 Y16.335
G1 X24.933 Y16.303
G1 X24.951 Y16.269
G1 X24.966 Y16.233
G1 X24.978 Y16.196
G1 X24.986 Y16.158
G1 X24.99 Y16.119
G1 Y16.081
G1 X24.986 Y16.042
G1 X24.978 Y16.004
G1 X24.966 Y15.967
G1 X24.951 Y15.931
G1 X24.933 Y15.897
G1 X24.911 Y15.865
G1 X24.886 Y15.835
G1 X24.858 Y15.808
G1 X24.828 Y15.783
G1 X24.795 Y15.762
G1 X24.76 Y15.745
G1 X24.724 Y15.73
G1 X24.687 Y15.72
G1 X24.648 Y15.713
G1 X24.61 Y15.71
G1 X24.571 Y15.711
G1 X24.532 Y15.716
G1 X24.494 Y15.725
G1 X24.458 Y15.737
G1 X24.422 Y15.753
G1 X24.388 Y15.772
G1 X24.357 Y15.795
G1 X24.328 Y15.821
G1 X24.301 Y15.849
G1 X24.278 Y15.88
G1 X24.257 Y15.913
G1 X24.241 Y15.949
G1 X24.227 Y15.985
G1 X24.218 Y16.023
G1 X24.212 Y16.061
G1 X24.21 Y16.1
G0 Z3.0
G0 Y15.1
G0 Z1.2
G1 F30.0 Z-0.2
G1 F200.0 X24.212 Y15.139
G1 X24.218 Y15.177
G1 X24.227 Y15.215
G1 X24.241 Y15.251
G1 X24.257 Y15.287
G1 X24.278 Y15.32
G1 X24.301 Y15.351
G1 X24.328 Y15.379
G1 X24.357 Y15.405
G1 X24.388 Y15.428
G1 X24.422 Y15.447
G1 X24.458 Y15.463
G1 X24.494 Y15.475
G1 X24.532 Y15.484
G1 X24.571 Y15.489
G1 X24.61 Y15.49
G1 X24.648 Y15.487
G1 X24.687 Y15.48
G1 X24.724 Y15.47
G1 X24.76 Y15.455
G1 X24.795 Y15.438
G1 X24.828 Y15.417
G1 X24.858 Y15.392
G1 X24.886 Y15.365
G1 X24.911 Y15.335
G1 X24.933 Y15.303
G1 X24.951 Y15.269
G1 X24.966 Y15.233
G1 X24.978 Y15.196
G1 X24.986 Y15.158
G1 X24.99 Y15.119
G1 Y15.081
G1 X24.986 Y15.042
G1 X24.978 Y15.004
G1 X24.966 Y14.967
G1 X24.951 Y14.931
G1 X24.933 Y14.897
G1 X24.911 Y14.865
G1 X24.886 Y14.835
G1 X24.858 Y14.808
G1 X24.828 Y14.783
G1 X24.795 Y14.762
G1 X24.76 Y14.745
G1 X24.724 Y14.73
G1 X24.687 Y14.72
G1 X24.648 Y14.713
G1 X24.61 Y14.71
G1 X24.571 Y14.711
G1 X24.532 Y14.716
G1 X24.494 Y14.725
G1 X24.458 Y14.737
G1 X24.422 Y14.753
G1 X24.388 Y14.772
G1 X24.357 Y14.795
G1 X24.328 Y14.821
G1 X24.301 Y14.849
G1 X24.278 Y14.88
G1 X24.257 Y14.913
G1 X24.241 Y14.949
G1 X24.227 Y14.985
G1 X24.218 Y15.023
G1 X24.212 Y15.061
G1 X24.21 Y15.1
G0 Z3.0
G0 X25.0 Y13.5
G0 Z1.2
G1 F30.0 Z-0.2
G1 F200.0 X24.2 Y12.7
G0 Z3.0
G0 X24.21 Y13.1
G0 Z1.2
G1 F30.0 Z-0.2
G1 F200.0 X24.212 Y13.139
G1 X24.218 Y13.177
G1 X24.227 Y13.215
G1 X24.241 Y13.251
G1 X24.257 Y13.287
G1 X24.278 Y13.32
G1 X24.301 Y13.351
G1 X24.328 Y13.379
G1 X24.357 Y13.405
G1 X24.388 Y13.428
G1 X24.422 Y13.447
G1 X24.458 Y13.463
G1 X24.494 Y13.475
G1 X24.532 Y13.484
G1 X24.571 Y13.489
G1 X24.61 Y13.49
G1 X24.648 Y13.487
G1 X24.687 Y13.48
G1 X24.724 Y13.47
G1 X24.76 Y13.455
G1 X24.795 Y13.438
G1 X24.828 Y13.417
G1 X24.858 Y13.392
G1 X24.886 Y13.365
G1 X24.911 Y13.335
G1 X24.933 Y13.303
G1 X24.951 Y13.269
G1 X24.966 Y13.233
G1 X24.978 Y13.196
G1 X24.986 Y13.158
G1 X24.99 Y13.119
G1 Y13.081
G1 X24.986 Y13.042
G1 X24.978 Y13.004
G1 X24.966 Y12.967
G1 X24.951 Y12.931
G1 X24.933 Y12.897
G1 X24.911 Y12.865
G1 X24.886 Y12.835
G1 X24.858 Y12.808
G1 X24.828 Y12.783
G1 X24.795 Y12.762
G1 X24.76 Y12.745
G1 X24.724 Y12.73
G1 X24.687 Y12.72
G1 X24.648 Y12.713
G1 X24.61 Y12.71
G1 X24.571 Y12.711
G1 X24.532 Y12.716
G1 X24.494 Y12.725
G1 X24.458 Y12.737
G1 X24.422 Y12.753
G1 X24.388 Y12.772
G1 X24.357 Y12.795
G1 X24.328 Y12.821
G1 X24.301 Y12.849
G1 X24.278 Y12.88
G1 X24.257 Y12.913
G1 X24.241 Y12.949
G1 X24.227 Y12.985
G1 X24.218 Y13.023
G1 X24.212 Y13.061
G1 X24.21 Y13.1
G0 Z3.0
G0 X24.6
G0 Z1.2
G1 F30.0 Z-0.2
G1 F200.0 X21.1
G1 Y26.6
G1 X13.1
G0 Z3.0
G0 X12.7 Y27.0
G0 Z1.2
G1 F30.0 Z-0.2
G1 F200.0 X13.5 Y26.2
G0 Z3.0
G0 X12.7
G0 Z1.2
G1 F30.0 Z-0.2
G1 F200.0 X13.5 Y27.0
G0 Z3.0
G0 X14.1 Y29.1
G0 Z1.2
G1 F30.0 Z-0.2
G1 F200.0 X23.6
G0 Z3.0
G0 X24.2 Y29.3
G0 Z1.2
G1 F30.0 Z-0.2
G1 F200.0 X25.0 Y30.1
G0 Z3.0
G0 X24.6 Y29.7
G0 Z1.2
G1 F30.0 Z-0.2
G1 F200.0 X27.6
G1 Y29.1
G0 Z3.0
G0 X27.21
G0 Z1.2
G1 F30.0 Z-0.2
G1 F200.0 X27.212 Y29.139
G1 X27.218 Y29.177
G1 X27.227 Y29.215
G1 X27.241 Y29.251
G1 X27.257 Y29.287
G1 X27.278 Y29.32
G1 X27.301 Y29.351
G1 X27.328 Y29.379
G1 X27.357 Y29.405
G1 X27.388 Y29.428
G1 X27.422 Y29.447
G1 X27.458 Y29.463
G1 X27.494 Y29.475
G1 X27.532 Y29.484
G1 X27.571 Y29.489
G1 X27.61 Y29.49
G1 X27.648 Y29.487
G1 X27.687 Y29.48
G1 X27.724 Y29.47
G1 X27.76 Y29.455
G1 X27.795 Y29.438
G1 X27.828 Y29.417
G1 X27.858 Y29.392
G1 X27.886 Y29.365
G1 X27.911 Y29.335
G1 X27.933 Y29.303
G1 X27.951 Y29.269
G1 X27.966 Y29.233
G1 X27.978 Y29.196
G1 X27.986 Y29.158
G1 X27.99 Y29.119
G1 Y29.081
G1 X27.986 Y29.042
G1 X27.978 Y29.004
G1 X27.966 Y28.967
G1 X27.951 Y28.931
G1 X27.933 Y28.897
G1 X27.911 Y28.865
G1 X27.886 Y28.835
G1 X27.858 Y28.808
G1 X27.828 Y28.783
G1 X27.795 Y28.762
G1 X27.76 Y28.745
G1 X27.724 Y28.73
G1 X27.687 Y28.72
G1 X27.648 Y28.713
G1 X27.61 Y28.71
G1 X27.571 Y28.711
G1 X27.532 Y28.716
G1 X27.494 Y28.725
G1 X27.458 Y28.737
G1 X27.422 Y28.753
G1 X27.388 Y28.772
G1 X27.357 Y28.795
G1 X27.328 Y28.821
G1 X27.301 Y28.849
G1 X27.278 Y28.88
G1 X27.257 Y28.913
G1 X27.241 Y28.949
G1 X27.227 Y28.985
G1 X27.218 Y29.023
G1 X27.212 Y29.061
G1 X27.21 Y29.1
G0 Z3.0
G0 X27.2 Y28.7
G0 Z1.2
G1 F30.0 Z-0.2
G1 F200.0 X28.0 Y29.5
G0 Z3.0
G0 X28.21 Y29.1
G0 Z1.2
G1 F30.0 Z-0.2
G1 F200.0 X28.212 Y29.139
G1 X28.218 Y29.177
G1 X28.227 Y29.215
G1 X28.241 Y29.251
G1 X28.257 Y29.287
G1 X28.278 Y29.32
G1 X28.301 Y29.351
G1 X28.328 Y29.379
G1 X28.357 Y29.405
G1 X28.388 Y29.428
G1 X28.422 Y29.447
G1 X28.458 Y29.463
G1 X28.494 Y29.475
G1 X28.532 Y29.484
G1 X28.571 Y29.489
G1 X28.61 Y29.49
G1 X28.648 Y29.487
G1 X28.687 Y29.48
G1 X28.724 Y29.47
G1 X28.76 Y29.455
G1 X28.795 Y29.438
G1 X28.828 Y29.417
G1 X28.858 Y29.392
G1 X28.886 Y29.365
G1 X28.911 Y29.335
G1 X28.933 Y29.303
G1 X28.951 Y29.269
G1 X28.966 Y29.233
G1 X28.978 Y29.196
G1 X28.986 Y29.158
G1 X28.99 Y29.119
G1 Y29.081
G1 X28.986 Y29.042
G1 X28.978 Y29.004
G1 X28.966 Y28.967
G1 X28.951 Y28.931
G1 X28.933 Y28.897
G1 X28.911 Y28.865
G1 X28.886 Y28.835
G1 X28.858 Y28.808
G1 X28.828 Y28.783
G1 X28.795 Y28.762
G1 X28.76 Y28.745
G1 X28.724 Y28.73
G1 X28.687 Y28.72
G1 X28.648 Y28.713
G1 X28.61 Y28.71
G1 X28.571 Y28.711
G1 X28.532 Y28.716
G1 X28.494 Y28.725
G1 X28.458 Y28.737
G1 X28.422 Y28.753
G1 X28.388 Y28.772
G1 X28.357 Y28.795
G1 X28.328 Y28.821
G1 X28.301 Y28.849
G1 X28.278 Y28.88
G1 X28.257 Y28.913
G1 X28.241 Y28.949
G1 X28.227 Y28.985
G1 X28.218 Y29.023
G1 X28.212 Y29.061
G1 X28.21 Y29.1
G0 Z3.0
G0 X28.2 Y28.7
G0 Z1.2
G1 F30.0 Z-0.2
G1 F200.0 X29.0 Y29.5
G0 Z3.0
G0 Y28.5
G0 Z1.2
G1 F30.0 Z-0.2
G1 F200.0 X28.2 Y27.7
G0 Z3.0
G0 X28.0 Y27.5
G0 Z1.2
G1 F30.0 Z-0.2
G1 F200.0 X27.2 Y26.7
G0 Z3.0
G0 X27.21 Y27.1
G0 Z1.2
G1 F30.0 Z-0.2
G1 F200.0 X27.212 Y27.139
G1 X27.218 Y27.177
G1 X27.227 Y27.215
G1 X27.241 Y27.251
G1 X27.257 Y27.287
G1 X27.278 Y27.32
G1 X27.301 Y27.351
G1 X27.328 Y27.379
G1 X27.357 Y27.405
G1 X27.388 Y27.428
G1 X27.422 Y27.447
G1 X27.458 Y27.463
G1 X27.494 Y27.475
G1 X27.532 Y27.484
G1 X27.571 Y27.489
G1 X27.61 Y27.49
G1 X27.648 Y27.487
G1 X27.687 Y27.48
G1 X27.724 Y27.47
G1 X27.76 Y27.455
G1 X27.795 Y27.438
G1 X27.828 Y27.417
G1 X27.858 Y27.392
G1 X27.886 Y27.365
G1 X27.911 Y27.335
G1 X27.933 Y27.303
G1 X27.951 Y27.269
G1 X27.966 Y27.233
G1 X27.978 Y27.196
G1 X27.986 Y27.158
G1 X27.99 Y27.119
G1 Y27.081
G1 X27.986 Y27.042
G1 X27.978 Y27.004
G1 X27.966 Y26.967
G1 X27.951 Y26.931
G1 X27.933 Y26.897
G1 X27.911 Y26.865
G1 X27.886 Y26.835
G1 X27.858 Y26.808
G1 X27.828 Y26.783
G1 X27.795 Y26.762
G1 X27.76 Y26.745
G1 X27.724 Y26.73
G1 X27.687 Y26.72
G1 X27.648 Y26.713
G1 X27.61 Y26.71
G1 X27.571 Y26.711
G1 X27.532 Y26.716
G1 X27.494 Y26.725
G1 X27.458 Y26.737
G1 X27.422 Y26.753
G1 X27.388 Y26.772
G1 X27.357 Y26.795
G1 X27.328 Y26.821
G1 X27.301 Y26.849
G1 X27.278 Y26.88
G1 X27.257 Y26.913
G1 X27.241 Y26.949
G1 X27.227 Y26.985
G1 X27.218 Y27.023
G1 X27.212 Y27.061
G1 X27.21 Y27.1
G0 Z3.0
G0 X27.6
G0 Z1.2
G1 F30.0 Z-0.2
G1 F200.0 X24.6
G0 Z3.0
G0 X24.21
G0 Z1.2
G1 F30.0 Z-0.2
G1 F200.0 X24.212 Y27.139
G1 X24.218 Y27.177
G1 X24.227 Y27.215
G1 X24.241 Y27.251
G1 X24.257 Y27.287
G1 X24.278 Y27.32
G1 X24.301 Y27.351
G1 X24.328 Y27.379
G1 X24.357 Y27.405
G1 X24.388 Y27.428
G1 X24.422 Y27.447
G1 X24.458 Y27.463
G1 X24.494 Y27.475
G1 X24.532 Y27.484
G1 X24.571 Y27.489
G1 X24.61 Y27.49
G1 X24.648 Y27.487
G1 X24.687 Y27.48
G1 X24.724 Y27.47
G1 X24.76 Y27.455
G1 X24.795 Y27.438
G1 X24.828 Y27.417
G1 X24.858 Y27.392
G1 X24.886 Y27.365
G1 X24.911 Y27.335
G1 X24.933 Y27.303
G1 X24.951 Y27.269
G1 X24.966 Y27.233
G1 X24.978 Y27.196
G1 X24.986 Y27.158
G1 X24.99 Y27.119
G1 Y27.081
G1 X24.986 Y27.042
G1 X24.978 Y27.004
G1 X24.966 Y26.967
G1 X24.951 Y26.931
G1 X24.933 Y26.897
G1 X24.911 Y26.865
G1 X24.886 Y26.835
G1 X24.858 Y26.808
G1 X24.828 Y26.783
G1 X24.795 Y26.762
G1 X24.76 Y26.745
G1 X24.724 Y26.73
G1 X24.687 Y26.72
G1 X24.648 Y26.713
G1 X24.61 Y26.71
G1 X24.571 Y26.711
G1 X24.532 Y26.716
G1 X24.494 Y26.725
G1 X24.458 Y26.737
G1 X24.422 Y26.753
G1 X24.388 Y26.772
G1 X24.357 Y26.795
G1 X24.328 Y26.821
G1 X24.301 Y26.849
G1 X24.278 Y26.88
G1 X24.257 Y26.913
G1 X24.241 Y26.949
G1 X24.227 Y26.985
G1 X24.218 Y27.023
G1 X24.212 Y27.061
G1 X24.21 Y27.1
G0 Z3.0
G0 X24.2 Y26.7
G0 Z1.2
G1 F30.0 Z-0.2
G1 F200.0 X25.0 Y27.5
G0 Z3.0
G0 Y26.5
G0 Z1.2
G1 F30.0 Z-0.2
G1 F200.0 X24.2 Y25.7
G0 Z3.0
G0 X24.21 Y26.1
G0 Z1.2
G1 F30.0 Z-0.2
G1 F200.0 X24.212 Y26.139
G1 X24.218 Y26.177
G1 X24.227 Y26.215
G1 X24.241 Y26.251
G1 X24.257 Y26.287
G1 X24.278 Y26.32
G1 X24.301 Y26.351
G1 X24.328 Y26.379
G1 X24.357 Y26.405
G1 X24.388 Y26.428
G1 X24.422 Y26.447
G1 X24.458 Y26.463
G1 X24.494 Y26.475
G1 X24.532 Y26.484
G1 X24.571 Y26.489
G1 X24.61 Y26.49
G1 X24.648 Y26.487
G1 X24.687 Y26.48
G1 X24.724 Y26.47
G1 X24.76 Y26.455
G1 X24.795 Y26.438
G1 X24.828 Y26.417
G1 X24.858 Y26.392
G1 X24.886 Y26.365
G1 X24.911 Y26.335
G1 X24.933 Y26.303
G1 X24.951 Y26.269
G1 X24.966 Y26.233
G1 X24.978 Y26.196
G1 X24.986 Y26.158
G1 X24.99 Y26.119
G1 Y26.081
G1 X24.986 Y26.042
G1 X24.978 Y26.004
G1 X24.966 Y25.967
G1 X24.951 Y25.931
G1 X24.933 Y25.897
G1 X24.911 Y25.865
G1 X24.886 Y25.835
G1 X24.858 Y25.808
G1 X24.828 Y25.783
G1 X24.795 Y25.762
G1 X24.76 Y25.745
G1 X24.724 Y25.73
G1 X24.687 Y25.72
G1 X24.648 Y25.713
G1 X24.61 Y25.71
G1 X24.571 Y25.711
G1 X24.532 Y25.716
G1 X24.494 Y25.725
G1 X24.458 Y25.737
G1 X24.422 Y25.753
G1 X24.388 Y25.772
G1 X24.357 Y25.795
G1 X24.328 Y25.821
G1 X24.301 Y25.849
G1 X24.278 Y25.88
G1 X24.257 Y25.913
G1 X24.241 Y25.949
G1 X24.227 Y25.985
G1 X24.218 Y26.023
G1 X24.212 Y26.061
G1 X24.21 Y26.1
G0 Z3.0
G0 X24.6
G0 Z1.2
G1 F30.0 Z-0.2
G1 F200.0 X27.6
G0 Z3.0
G0 X27.21
G0 Z1.2
G1 F30.0 Z-0.2
G1 F200.0 X27.212 Y26.139
G1 X27.218 Y26.177
G1 X27.227 Y26.215
G1 X27.241 Y26.251
G1 X27.257 Y26.287
G1 X27.278 Y26.32
G1 X27.301 Y26.351
G1 X27.328 Y26.379
G1 X27.357 Y26.405
G1 X27.388 Y26.428
G1 X27.422 Y26.447
G1 X27.458 Y26.463
G1 X27.494 Y26.475
G1 X27.532 Y26.484
G1 X27.571 Y26.489
G1 X27.61 Y26.49
G1 X27.648 Y26.487
G1 X27.687 Y26.48
G1 X27.724 Y26.47
G1 X27.76 Y26.455
G1 X27.795 Y26.438
G1 X27.828 Y26.417
G1 X27.858 Y26.392
G1 X27.886 Y26.365
G1 X27.911 Y26.335
G1 X27.933 Y26.303
G1 X27.951 Y26.269
G1 X27.966 Y26.233
G1 X27.978 Y26.196
G1 X27.986 Y26.158
G1 X27.99 Y26.119
G1 Y26.081
G1 X27.986 Y26.042
G1 X27.978 Y26.004
G1 X27.966 Y25.967
G1 X27.951 Y25.931
G1 X27.933 Y25.897
G1 X27.911 Y25.865
G1 X27.886 Y25.835
G1 X27.858 Y25.808
G1 X27.828 Y25.783
G1 X27.795 Y25.762
G1 X27.76 Y25.745
G1 X27.724 Y25.73
G1 X27.687 Y25.72
G1 X27.648 Y25.713
G1 X27.61 Y25.71
G1 X27.571 Y25.711
G1 X27.532 Y25.716
G1 X27.494 Y25.725
G1 X27.458 Y25.737
G1 X27.422 Y25.753
G1 X27.388 Y25.772
G1 X27.357 Y25.795
G1 X27.328 Y25.821
G1 X27.301 Y25.849
G1 X27.278 Y25.88
G1 X27.257 Y25.913
G1 X27.241 Y25.949
G1 X27.227 Y25.985
G1 X27.218 Y26.023
G1 X27.212 Y26.061
G1 X27.21 Y26.1
G0 Z3.0
G0 X27.2 Y25.7
G0 Z1.2
G1 F30.0 Z-0.2
G1 F200.0 X28.0 Y26.5
G0 Z3.0
G0 X28.2 Y26.7
G0 Z1.2
G1 F30.0 Z-0.2
G1 F200.0 X29.0 Y27.5
G0 Z3.0
G0 X28.21 Y27.1
G0 Z1.2
G1 F30.0 Z-0.2
G1 F200.0 X28.212 Y27.139
G1 X28.218 Y27.177
G1 X28.227 Y27.215
G1 X28.241 Y27.251
G1 X28.257 Y27.287
G1 X28.278 Y27.32
G1 X28.301 Y27.351
G1 X28.328 Y27.379
G1 X28.357 Y27.405
G1 X28.388 Y27.428
G1 X28.422 Y27.447
G1 X28.458 Y27.463
G1 X28.494 Y27.475
G1 X28.532 Y27.484
G1 X28.571 Y27.489
G1 X28.61 Y27.49
G1 X28.648 Y27.487
G1 X28.687 Y27.48
G1 X28.724 Y27.47
G1 X28.76 Y27.455
G1 X28.795 Y27.438
G1 X28.828 Y27.417
G1 X28.858 Y27.392
G1 X28.886 Y27.365
G1 X28.911 Y27.335
G1 X28.933 Y27.303
G1 X28.951 Y27.269
G1 X28.966 Y27.233
G1 X28.978 Y27.196
G1 X28.986 Y27.158
G1 X28.99 Y27.119
G1 Y27.081
G1 X28.986 Y27.042
G1 X28.978 Y27.004
G1 X28.966 Y26.967
G1 X28.951 Y26.931
G1 X28.933 Y26.897
G1 X28.911 Y26.865
G1 X28.886 Y26.835
G1 X28.858 Y26.808
G1 X28.828 Y26.783
G1 X28.795 Y26.762
G1 X28.76 Y26.745
G1 X28.724 Y26.73
G1 X28.687 Y26.72
G1 X28.648 Y26.713
G1 X28.61 Y26.71
G1 X28.571 Y26.711
G1 X28.532 Y26.716
G1 X28.494 Y26.725
G1 X28.458 Y26.737
G1 X28.422 Y26.753
G1 X28.388 Y26.772
G1 X28.357 Y26.795
G1 X28.328 Y26.821
G1 X28.301 Y26.849
G1 X28.278 Y26.88
G1 X28.257 Y26.913
G1 X28.241 Y26.949
G1 X28.227 Y26.985
G1 X28.218 Y27.023
G1 X28.212 Y27.061
G1 X28.21 Y27.1
G0 Z3.0
G0 X29.0 Y26.5
G0 Z1.2
G1 F30.0 Z-0.2
G1 F200.0 X28.2 Y25.7
G0 Z3.0
G0 X28.0 Y25.5
G0 Z1.2
G1 F30.0 Z-0.2
G1 F200.0 X27.2 Y24.7
G0 Z3.0
G0 X27.21 Y25.1
G0 Z1.2
G1 F30.0 Z-0.2
G1 F200.0 X27.212 Y25.139
G1 X27.218 Y25.177
G1 X27.227 Y25.215
G1 X27.241 Y25.251
G1 X27.257 Y25.287
G1 X27.278 Y25.32
G1 X27.301 Y25.351
G1 X27.328 Y25.379
G1 X27.357 Y25.405
G1 X27.388 Y25.428
G1 X27.422 Y25.447
G1 X27.458 Y25.463
G1 X27.494 Y25.475
G1 X27.532 Y25.484
G1 X27.571 Y25.489
G1 X27.61 Y25.49
G1 X27.648 Y25.487
G1 X27.687 Y25.48
G1 X27.724 Y25.47
G1 X27.76 Y25.455
G1 X27.795 Y25.438
G1 X27.828 Y25.417
G1 X27.858 Y25.392
G1 X27.886 Y25.365
G1 X27.911 Y25.335
G1 X27.933 Y25.303
G1 X27.951 Y25.269
G1 X27.966 Y25.233
G1 X27.978 Y25.196
G1 X27.986 Y25.158
G1 X27.99 Y25.119
G1 Y25.081
G1 X27.986 Y25.042
G1 X27.978 Y25.004
G1 X27.966 Y24.967
G1 X27.951 Y24.931
G1 X27.933 Y24.897
G1 X27.911 Y24.865
G1 X27.886 Y24.835
G1 X27.858 Y24.808
G1 X27.828 Y24.783
G1 X27.795 Y24.762
G1 X27.76 Y24.745
G1 X27.724 Y24.73
G1 X27.687 Y24.72
G1 X27.648 Y24.713
G1 X27.61 Y24.71
G1 X27.571 Y24.711
G1 X27.532 Y24.716
G1 X27.494 Y24.725
G1 X27.458 Y24.737
G1 X27.422 Y24.753
G1 X27.388 Y24.772
G1 X27.357 Y24.795
G1 X27.328 Y24.821
G1 X27.301 Y24.849
G1 X27.278 Y24.88
G1 X27.257 Y24.913
G1 X27.241 Y24.949
G1 X27.227 Y24.985
G1 X27.218 Y25.023
G1 X27.212 Y25.061
G1 X27.21 Y25.1
G0 Z3.0
G0 X27.6
G0 Z1.2
G1 F30.0 Z-0.2
G1 F200.0 X24.6
G0 Z3.0
G0 X24.21
G0 Z1.2
G1 F30.0 Z-0.2
G1 F200.0 X24.212 Y25.139
G1 X24.218 Y25.177
G1 X24.227 Y25.215
G1 X24.241 Y25.251
G1 X24.257 Y25.287
G1 X24.278 Y25.32
G1 X24.301 Y25.351
G1 X24.328 Y25.379
G1 X24.357 Y25.405
G1 X24.388 Y25.428
G1 X24.422 Y25.447
G1 X24.458 Y25.463
G1 X24.494 Y25.475
G1 X24.532 Y25.484
G1 X24.571 Y25.489
G1 X24.61 Y25.49
G1 X24.648 Y25.487
G1 X24.687 Y25.48
G1 X24.724 Y25.47
G1 X24.76 Y25.455
G1 X24.795 Y25.438
G1 X24.828 Y25.417
G1 X24.858 Y25.392
G1 X24.886 Y25.365
G1 X24.911 Y25.335
G1 X24.933 Y25.303
G1 X24.951 Y25.269
G1 X24.966 Y25.233
G1 X24.978 Y25.196
G1 X24.986 Y25.158
G1 X24.99 Y25.119
G1 Y25.081
G1 X24.986 Y25.042
G1 X24.978 Y25.004
G1 X24.966 Y24.967
G1 X24.951 Y24.931
G1 X24.933 Y24.897
G1 X24.911 Y24.865
G1 X24.886 Y24.835
G1 X24.858 Y24.808
G1 X24.828 Y24.783
G1 X24.795 Y24.762
G1 X24.76 Y24.745
G1 X24.724 Y24.73
G1 X24.687 Y24.72
G1 X24.648 Y24.713
G1 X24.61 Y24.71
G1 X24.571 Y24.711
G1 X24.532 Y24.716
G1 X24.494 Y24.725
G1 X24.458 Y24.737
G1 X24.422 Y24.753
G1 X24.388 Y24.772
G1 X24.357 Y24.795
G1 X24.328 Y24.821
G1 X24.301 Y24.849
G1 X24.278 Y24.88
G1 X24.257 Y24.913
G1 X24.241 Y24.949
G1 X24.227 Y24.985
G1 X24.218 Y25.023
G1 X24.212 Y25.061
G1 X24.21 Y25.1
G0 Z3.0
G0 X24.2 Y24.7
G0 Z1.2
G1 F30.0 Z-0.2
G1 F200.0 X25.0 Y25.5
G0 Z3.0
G0 Y24.5
G0 Z1.2
G1 F30.0 Z-0.2
G1 F200.0 X24.2 Y23.7
G0 Z3.0
G0 X24.21 Y24.1
G0 Z1.2
G1 F30.0 Z-0.2
G1 F200.0 X24.212 Y24.139
G1 X24.218 Y24.177
G1 X24.227 Y24.215
G1 X24.241 Y24.251
G1 X24.257 Y24.287
G1 X24.278 Y24.32
G1 X24.301 Y24.351
G1 X24.328 Y24.379
G1 X24.357 Y24.405
G1 X24.388 Y24.428
G1 X24.422 Y24.447
G1 X24.458 Y24.463
G1 X24.494 Y24.475
G1 X24.532 Y24.484
G1 X24.571 Y24.489
G1 X24.61 Y24.49
G1 X24.648 Y24.487
G1 X24.687 Y24.48
G1 X24.724 Y24.47
G1 X24.76 Y24.455
G1 X24.795 Y24.438
G1 X24.828 Y24.417
G1 X24.858 Y24.392
G1 X24.886 Y24.365
G1 X24.911 Y24.335
G1 X24.933 Y24.303
G1 X24.951 Y24.269
G1 X24.966 Y24.233
G1 X24.978 Y24.196
G1 X24.986 Y24.158
G1 X24.99 Y24.119
G1 Y24.081
G1 X24.986 Y24.042
G1 X24.978 Y24.004
G1 X24.966 Y23.967
G1 X24.951 Y23.931
G1 X24.933 Y23.897
G1 X24.911 Y23.865
G1 X24.886 Y23.835
G1 X24.858 Y23.808
G1 X24.828 Y23.783
G1 X24.795 Y23.762
G1 X24.76 Y23.745
G1 X24.724 Y23.73
G1 X24.687 Y23.72
G1 X24.648 Y23.713
G1 X24.61 Y23.71
G1 X24.571 Y23.711
G1 X24.532 Y23.716
G1 X24.494 Y23.725
G1 X24.458 Y23.737
G1 X24.422 Y23.753
G1 X24.388 Y23.772
G1 X24.357 Y23.795
G1 X24.328 Y23.821
G1 X24.301 Y23.849
G1 X24.278 Y23.88
G1 X24.257 Y23.913
G1 X24.241 Y23.949
G1 X24.227 Y23.985
G1 X24.218 Y24.023
G1 X24.212 Y24.061
G1 X24.21 Y24.1
G0 Z3.0
G0 X24.6
G0 Z1.2
G1 F30.0 Z-0.2
G1 F200.0 X27.6
G0 Z3.0
G0 X27.21
G0 Z1.2
G1 F30.0 Z-0.2
G1 F200.0 X27.212 Y24.139
G1 X27.218 Y24.177
G1 X27.227 Y24.215
G1 X27.241 Y24.251
G1 X27.257 Y24.287
G1 X27.278 Y24.32
G1 X27.301 Y24.351
G1 X27.328 Y24.379
G1 X27.357 Y24.405
G1 X27.388 Y24.428
G1 X27.422 Y24.447
G1 X27.458 Y24.463
G1 X27.494 Y24.475
G1 X27.532 Y24.484
G1 X27.571 Y24.489
G1 X27.61 Y24.49
G1 X27.648 Y24.487
G1 X27.687 Y24.48
G1 X27.724 Y24.47
G1 X27.76 Y24.455
G1 X27.795 Y24.438
G1 X27.828 Y24.417
G1 X27.858 Y24.392
G1 X27.886 Y24.365
G1 X27.911 Y24.335
G1 X27.933 Y24.303
G1 X27.951 Y24.269
G1 X27.966 Y24.233
G1 X27.978 Y24.196
G1 X27.986 Y24.158
G1 X27.99 Y24.119
G1 Y24.081
G1 X27.986 Y24.042
G1 X27.978 Y24.004
G1 X27.966 Y23.967
G1 X27.951 Y23.931
G1 X27.933 Y23.897
G1 X27.911 Y23.865
G1 X27.886 Y23.835
G1 X27.858 Y23.808
G1 X27.828 Y23.783
G1 X27.795 Y23.762
G1 X27.76 Y23.745
G1 X27.724 Y23.73
G1 X27.687 Y23.72
G1 X27.648 Y23.713
G1 X27.61 Y23.71
G1 X27.571 Y23.711
G1 X27.532 Y23.716
G1 X27.494 Y23.725
G1 X27.458 Y23.737
G1 X27.422 Y23.753
G1 X27.388 Y23.772
G1 X27.357 Y23.795
G1 X27.328 Y23.821
G1 X27.301 Y23.849
G1 X27.278 Y23.88
G1 X27.257 Y23.913
G1 X27.241 Y23.949
G1 X27.227 Y23.985
G1 X27.218 Y24.023
G1 X27.212 Y24.061
G1 X27.21 Y24.1
G0 Z3.0
G0 X27.2 Y23.7
G0 Z1.2
G1 F30.0 Z-0.2
G1 F200.0 X28.0 Y24.5
G0 Z3.0
G0 X28.2 Y24.7
G0 Z1.2
G1 F30.0 Z-0.2
G1 F200.0 X29.0 Y25.5
G0 Z3.0
G0 X28.21 Y25.1
G0 Z1.2
G1 F30.0 Z-0.2
G1 F200.0 X28.212 Y25.139
G1 X28.218 Y25.177
G1 X28.227 Y25.215
G1 X28.241 Y25.251
G1 X28.257 Y25.287
G1 X28.278 Y25.32
G1 X28.301 Y25.351
G1 X28.328 Y25.379
G1 X28.357 Y25.405
G1 X28.388 Y25.428
G1 X28.422 Y25.447
G1 X28.458 Y25.463
G1 X28.494 Y25.475
G1 X28.532 Y25.484
G1 X28.571 Y25.489
G1 X28.61 Y25.49
G1 X28.648 Y25.487
G1 X28.687 Y25.48
G1 X28.724 Y25.47
G1 X28.76 Y25.455
G1 X28.795 Y25.438
G1 X28.828 Y25.417
G1 X28.858 Y25.392
G1 X28.886 Y25.365
G1 X28.911 Y25.335
G1 X28.933 Y25.303
G1 X28.951 Y25.269
G1 X28.966 Y25.233
G1 X28.978 Y25.196
G1 X28.986 Y25.158
G1 X28.99 Y25.119
G1 Y25.081
G1 X28.986 Y25.042
G1 X28.978 Y25.004
G1 X28.966 Y24.967
G1 X28.951 Y24.931
G1 X28.933 Y24.897
G1 X28.911 Y24.865
G1 X28.886 Y24.835
G1 X28.858 Y24.808
G1 X28.828 Y24.783
G1 X28.795 Y24.762
G1 X28.76 Y24.745
G1 X28.724 Y24.73
G1 X28.687 Y24.72
G1 X28.648 Y24.713
G1 X28.61 Y24.71
G1 X28.571 Y24.711
G1 X28.532 Y24.716
G1 X28.494 Y24.725
G1 X28.458 Y24.737
G1 X28.422 Y24.753
G1 X28.388 Y24.772
G1 X28.357 Y24.795
G1 X28.328 Y24.821
G1 X28.301 Y24.849
G1 X28.278 Y24.88
G1 X28.257 Y24.913
G1 X28.241 Y24.949
G1 X28.227 Y24.985
G1 X28.218 Y25.023
G1 X28.212 Y25.061
G1 X28.21 Y25.1
G0 Z3.0
G0 X29.0 Y24.5
G0 Z1.2
G1 F30.0 Z-0.2
G1 F200.0 X28.2 Y23.7
G0 Z3.0
G0 X28.0 Y23.5
G0 Z1.2
G1 F30.0 Z-0.2
G1 F200.0 X27.2 Y22.7
G0 Z3.0
G0 X27.21 Y23.1
G0 Z1.2
G1 F30.0 Z-0.2
G1 F200.0 X27.212 Y23.139
G1 X27.218 Y23.177
G1 X27.227 Y23.215
G1 X27.241 Y23.251
G1 X27.257 Y23.287
G1 X27.278 Y23.32
G1 X27.301 Y23.351
G1 X27.328 Y23.379
G1 X27.357 Y23.405
G1 X27.388 Y23.428
G1 X27.422 Y23.447
G1 X27.458 Y23.463
G1 X27.494 Y23.475
G1 X27.532 Y23.484
G1 X27.571 Y23.489
G1 X27.61 Y23.49
G1 X27.648 Y23.487
G1 X27.687 Y23.48
G1 X27.724 Y23.47
G1 X27.76 Y23.455
G1 X27.795 Y23.438
G1 X27.828 Y23.417
G1 X27.858 Y23.392
G1 X27.886 Y23.365
G1 X27.911 Y23.335
G1 X27.933 Y23.303
G1 X27.951 Y23.269
G1 X27.966 Y23.233
G1 X27.978 Y23.196
G1 X27.986 Y23.158
G1 X27.99 Y23.119
G1 Y23.081
G1 X27.986 Y23.042
G1 X27.978 Y23.004
G1 X27.966 Y22.967
G1 X27.951 Y22.931
G1 X27.933 Y22.897
G1 X27.911 Y22.865
G1 X27.886 Y22.835
G1 X27.858 Y22.808
G1 X27.828 Y22.783
G1 X27.795 Y22.762
G1 X27.76 Y22.745
G1 X27.724 Y22.73
G1 X27.687 Y22.72
G1 X27.648 Y22.713
G1 X27.61 Y22.71
G1 X27.571 Y22.711
G1 X27.532 Y22.716
G1 X27.494 Y22.725
G1 X27.458 Y22.737
G1 X27.422 Y22.753
G1 X27.388 Y22.772
G1 X27.357 Y22.795
G1 X27.328 Y22.821
G1 X27.301 Y22.849
G1 X27.278 Y22.88
G1 X27.257 Y22.913
G1 X27.241 Y22.949
G1 X27.227 Y22.985
G1 X27.218 Y23.023
G1 X27.212 Y23.061
G1 X27.21 Y23.1
G0 Z3.0
G0 X27.6
G0 Z1.2
G1 F30.0 Z-0.2
G1 F200.0 X24.6
G0 Z3.0
G0 X24.21
G0 Z1.2
G1 F30.0 Z-0.2
G1 F200.0 X24.212 Y23.139
G1 X24.218 Y23.177
G1 X24.227 Y23.215
G1 X24.241 Y23.251
G1 X24.257 Y23.287
G1 X24.278 Y23.32
G1 X24.301 Y23.351
G1 X24.328 Y23.379
G1 X24.357 Y23.405
G1 X24.388 Y23.428
G1 X24.422 Y23.447
G1 X24.458 Y23.463
G1 X24.494 Y23.475
G1 X24.532 Y23.484
G1 X24.571 Y23.489
G1 X24.61 Y23.49
G1 X24.648 Y23.487
G1 X24.687 Y23.48
G1 X24.724 Y23.47
G1 X24.76 Y23.455
G1 X24.795 Y23.438
G1 X24.828 Y23.417
G1 X24.858 Y23.392
G1 X24.886 Y23.365
G1 X24.911 Y23.335
G1 X24.933 Y23.303
G1 X24.951 Y23.269
G1 X24.966 Y23.233
G1 X24.978 Y23.196
G1 X24.986 Y23.158
G1 X24.99 Y23.119
G1 Y23.081
G1 X24.986 Y23.042
G1 X24.978 Y23.004
G1 X24.966 Y22.967
G1 X24.951 Y22.931
G1 X24.933 Y22.897
G1 X24.911 Y22.865
G1 X24.886 Y22.835
G1 X24.858 Y22.808
G1 X24.828 Y22.783
G1 X24.795 Y22.762
G1 X24.76 Y22.745
G1 X24.724 Y22.73
G1 X24.687 Y22.72
G1 X24.648 Y22.713
G1 X24.61 Y22.71
G1 X24.571 Y22.711
G1 X24.532 Y22.716
G1 X24.494 Y22.725
G1 X24.458 Y22.737
G1 X24.422 Y22.753
G1 X24.388 Y22.772
G1 X24.357 Y22.795
G1 X24.328 Y22.821
G1 X24.301 Y22.849
G1 X24.278 Y22.88
G1 X24.257 Y22.913
G1 X24.241 Y22.949
G1 X24.227 Y22.985
G1 X24.218 Y23.023
G1 X24.212 Y23.061
G1 X24.21 Y23.1
G0 Z3.0
G0 X24.2 Y22.7
G0 Z1.2
G1 F30.0 Z-0.2
G1 F200.0 X25.0 Y23.5
G0 Z3.0
G0 Y22.5
G0 Z1.2
G1 F30.0 Z-0.2
G1 F200.0 X24.2 Y21.7
G0 Z3.0
G0 X24.21 Y22.1
G0 Z1.2
G1 F30.0 Z-0.2
G1 F200.0 X24.212 Y22.139
G1 X24.218 Y22.177
G1 X24.227 Y22.215
G1 X24.241 Y22.251
G1 X24.257 Y22.287
G1 X24.278 Y22.32
G1 X24.301 Y22.351
G1 X24.328 Y22.379
G1 X24.357 Y22.405
G1 X24.388 Y22.428
G1 X24.422 Y22.447
G1 X24.458 Y22.463
G1 X24.494 Y22.475
G1 X24.532 Y22.484
G1 X24.571 Y22.489
G1 X24.61 Y22.49
G1 X24.648 Y22.487
G1 X24.687 Y22.48
G1 X24.724 Y22.47
G1 X24.76 Y22.455
G1 X24.795 Y22.438
G1 X24.828 Y22.417
G1 X24.858 Y22.392
G1 X24.886 Y22.365
G1 X24.911 Y22.335
G1 X24.933 Y22.303
G1 X24.951 Y22.269
G1 X24.966 Y22.233
G1 X24.978 Y22.196
G1 X24.986 Y22.158
G1 X24.99 Y22.119
G1 Y22.081
G1 X24.986 Y22.042
G1 X24.978 Y22.004
G1 X24.966 Y21.967
G1 X24.951 Y21.931
G1 X24.933 Y21.897
G1 X24.911 Y21.865
G1 X24.886 Y21.835
G1 X24.858 Y21.808
G1 X24.828 Y21.783
G1 X24.795 Y21.762
G1 X24.76 Y21.745
G1 X24.724 Y21.73
G1 X24.687 Y21.72
G1 X24.648 Y21.713
G1 X24.61 Y21.71
G1 X24.571 Y21.711
G1 X24.532 Y21.716
G1 X24.494 Y21.725
G1 X24.458 Y21.737
G1 X24.422 Y21.753
G1 X24.388 Y21.772
G1 X24.357 Y21.795
G1 X24.328 Y21.821
G1 X24.301 Y21.849
G1 X24.278 Y21.88
G1 X24.257 Y21.913
G1 X24.241 Y21.949
G1 X24.227 Y21.985
G1 X24.218 Y22.023
G1 X24.212 Y22.061
G1 X24.21 Y22.1
G0 Z3.0
G0 X24.6
G0 Z1.2
G1 F30.0 Z-0.2
G1 F200.0 X27.6
G0 Z3.0
G0 X27.21
G0 Z1.2
G1 F30.0 Z-0.2
G1 F200.0 X27.212 Y22.139
G1 X27.218 Y22.177
G1 X27.227 Y22.215
G1 X27.241 Y22.251
G1 X27.257 Y22.287
G1 X27.278 Y22.32
G1 X27.301 Y22.351
G1 X27.328 Y22.379
G1 X27.357 Y22.405
G1 X27.388 Y22.428
G1 X27.422 Y22.447
G1 X27.458 Y22.463
G1 X27.494 Y22.475
G1 X27.532 Y22.484
G1 X27.571 Y22.489
G1 X27.61 Y22.49
G1 X27.648 Y22.487
G1 X27.687 Y22.48
G1 X27.724 Y22.47
G1 X27.76 Y22.455
G1 X27.795 Y22.438
G1 X27.828 Y22.417
G1 X27.858 Y22.392
G1 X27.886 Y22.365
G1 X27.911 Y22.335
G1 X27.933 Y22.303
G1 X27.951 Y22.269
G1 X27.966 Y22.233
G1 X27.978 Y22.196
G1 X27.986 Y22.158
G1 X27.99 Y22.119
G1 Y22.081
G1 X27.986 Y22.042
G1 X27.978 Y22.004
G1 X27.966 Y21.967
G1 X27.951 Y21.931
G1 X27.933 Y21.897
G1 X27.911 Y21.865
G1 X27.886 Y21.835
G1 X27.858 Y21.808
G1 X27.828 Y21.783
G1 X27.795 Y21.762
G1 X27.76 Y21.745
G1 X27.724 Y21.73
G1 X27.687 Y21.72
G1 X27.648 Y21.713
G1 X27.61 Y21.71
G1 X27.571 Y21.711
G1 X27.532 Y21.716
G1 X27.494 Y21.725
G1 X27.458 Y21.737
G1 X27.422 Y21.753
G1 X27.388 Y21.772
G1 X27.357 Y21.795
G1 X27.328 Y21.821
G1 X27.301 Y21.849
G1 X27.278 Y21.88
G1 X27.257 Y21.913
G1 X27.241 Y21.949
G1 X27.227 Y21.985
G1 X27.218 Y22.023
G1 X27.212 Y22.061
G1 X27.21 Y22.1
G0 Z3.0
G0 X27.2 Y21.7
G0 Z1.2
G1 F30.0 Z-0.2
G1 F200.0 X28.0 Y22.5
G0 Z3.0
G0 X28.2 Y22.7
G0 Z1.2
G1 F30.0 Z-0.2
G1 F200.0 X29.0 Y23.5
G0 Z3.0
G0 X28.21 Y23.1
G0 Z1.2
G1 F30.0 Z-0.2
G1 F200.0 X28.212 Y23.139
G1 X28.218 Y23.177
G1 X28.227 Y23.215
G1 X28.241 Y23.251
G1 X28.257 Y23.287
G1 X28.278 Y23.32
G1 X28.301 Y23.351
G1 X28.328 Y23.379
G1 X28.357 Y23.405
G1 X28.388 Y23.428
G1 X28.422 Y23.447
G1 X28.458 Y23.463
G1 X28.494 Y23.475
G1 X28.532 Y23.484
G1 X28.571 Y23.489
G1 X28.61 Y23.49
G1 X28.648 Y23.487
G1 X28.687 Y23.48
G1 X28.724 Y23.47
G1 X28.76 Y23.455
G1 X28.795 Y23.438
G1 X28.828 Y23.417
G1 X28.858 Y23.392
G1 X28.886 Y23.365
G1 X28.911 Y23.335
G1 X28.933 Y23.303
G1 X28.951 Y23.269
G1 X28.966 Y23.233
G1 X28.978 Y23.196
G1 X28.986 Y23.158
G1 X28.99 Y23.119
G1 Y23.081
G1 X28.986 Y23.042
G1 X28.978 Y23.004
G1 X28.966 Y22.967
G1 X28.951 Y22.931
G1 X28.933 Y22.897
G1 X28.911 Y22.865
G1 X28.886 Y22.835
G1 X28.858 Y22.808
G1 X28.828 Y22.783
G1 X28.795 Y22.762
G1 X28.76 Y22.745
G1 X28.724 Y22.73
G1 X28.687 Y22.72
G1 X28.648 Y22.713
G1 X28.61 Y22.71
G1 X28.571 Y22.711
G1 X28.532 Y22.716
G1 X28.494 Y22.725
G1 X28.458 Y22.737
G1 X28.422 Y22.753
G1 X28.388 Y22.772
G1 X28.357 Y22.795
G1 X28.328 Y22.821
G1 X28.301 Y22.849
G1 X28.278 Y22.88
G1 X28.257 Y22.913
G1 X28.241 Y22.949
G1 X28.227 Y22.985
G1 X28.218 Y23.023
G1 X28.212 Y23.061
G1 X28.21 Y23.1
G0 Z3.0
G0 X29.0 Y22.5
G0 Z1.2
G1 F30.0 Z-0.2
G1 F200.0 X28.2 Y21.7
G0 Z3.0
G0 X28.21 Y22.1
G0 Z1.2
G1 F30.0 Z-0.2
G1 F200.0 X28.212 Y22.139
G1 X28.218 Y22.177
G1 X28.227 Y22.215
G1 X28.241 Y22.251
G1 X28.257 Y22.287
G1 X28.278 Y22.32
G1 X28.301 Y22.351
G1 X28.328 Y22.379
G1 X28.357 Y22.405
G1 X28.388 Y22.428
G1 X28.422 Y22.447
G1 X28.458 Y22.463
G1 X28.494 Y22.475
G1 X28.532 Y22.484
G1 X28.571 Y22.489
G1 X28.61 Y22.49
G1 X28.648 Y22.487
G1 X28.687 Y22.48
G1 X28.724 Y22.47
G1 X28.76 Y22.455
G1 X28.795 Y22.438
G1 X28.828 Y22.417
G1 X28.858 Y22.392
G1 X28.886 Y22.365
G1 X28.911 Y22.335
G1 X28.933 Y22.303
G1 X28.951 Y22.269
G1 X28.966 Y22.233
G1 X28.978 Y22.196
G1 X28.986 Y22.158
G1 X28.99 Y22.119
G1 Y22.081
G1 X28.986 Y22.042
G1 X28.978 Y22.004
G1 X28.966 Y21.967
G1 X28.951 Y21.931
G1 X28.933 Y21.897
G1 X28.911 Y21.865
G1 X28.886 Y21.835
G1 X28.858 Y21.808
G1 X28.828 Y21.783
G1 X28.795 Y21.762
G1 X28.76 Y21.745
G1 X28.724 Y21.73
G1 X28.687 Y21.72
G1 X28.648 Y21.713
G1 X28.61 Y21.71
G1 X28.571 Y21.711
G1 X28.532 Y21.716
G1 X28.494 Y21.725
G1 X28.458 Y21.737
G1 X28.422 Y21.753
G1 X28.388 Y21.772
G1 X28.357 Y21.795
G1 X28.328 Y21.821
G1 X28.301 Y21.849
G1 X28.278 Y21.88
G1 X28.257 Y21.913
G1 X28.241 Y21.949
G1 X28.227 Y21.985
G1 X28.218 Y22.023
G1 X28.212 Y22.061
G1 X28.21 Y22.1
G0 Z3.0
G0 Y24.1
G0 Z1.2
G1 F30.0 Z-0.2
G1 F200.0 X28.212 Y24.139
G1 X28.218 Y24.177
G1 X28.227 Y24.215
G1 X28.241 Y24.251
G1 X28.257 Y24.287
G1 X28.278 Y24.32
G1 X28.301 Y24.351
G1 X28.328 Y24.379
G1 X28.357 Y24.405
G1 X28.388 Y24.428
G1 X28.422 Y24.447
G1 X28.458 Y24.463
G1 X28.494 Y24.475
G1 X28.532 Y24.484
G1 X28.571 Y24.489
G1 X28.61 Y24.49
G1 X28.648 Y24.487
G1 X28.687 Y24.48
G1 X28.724 Y24.47
G1 X28.76 Y24.455
G1 X28.795 Y24.438
G1 X28.828 Y24.417
G1 X28.858 Y24.392
G1 X28.886 Y24.365
G1 X28.911 Y24.335
G1 X28.933 Y24.303
G1 X28.951 Y24.269
G1 X28.966 Y24.233
G1 X28.978 Y24.196
G1 X28.986 Y24.158
G1 X28.99 Y24.119
G1 Y24.081
G1 X28.986 Y24.042
G1 X28.978 Y24.004
G1 X28.966 Y23.967
G1 X28.951 Y23.931
G1 X28.933 Y23.897
G1 X28.911 Y23.865
G1 X28.886 Y23.835
G1 X28.858 Y23.808
G1 X28.828 Y23.783
G1 X28.795 Y23.762
G1 X28.76 Y23.745
G1 X28.724 Y23.73
G1 X28.687 Y23.72
G1 X28.648 Y23.713
G1 X28.61 Y23.71
G1 X28.571 Y23.711
G1 X28.532 Y23.716
G1 X28.494 Y23.725
G1 X28.458 Y23.737
G1 X28.422 Y23.753
G1 X28.388 Y23.772
G1 X28.357 Y23.795
G1 X28.328 Y23.821
G1 X28.301 Y23.849
G1 X28.278 Y23.88
G1 X28.257 Y23.913
G1 X28.241 Y23.949
G1 X28.227 Y23.985
G1 X28.218 Y24.023
G1 X28.212 Y24.061
G1 X28.21 Y24.1
G0 Z3.0
G0 Y26.1
G0 Z1.2
G1 F30.0 Z-0.2
G1 F200.0 X28.212 Y26.139
G1 X28.218 Y26.177
G1 X28.227 Y26.215
G1 X28.241 Y26.251
G1 X28.257 Y26.287
G1 X28.278 Y26.32
G1 X28.301 Y26.351
G1 X28.328 Y26.379
G1 X28.357 Y26.405
G1 X28.388 Y26.428
G1 X28.422 Y26.447
G1 X28.458 Y26.463
G1 X28.494 Y26.475
G1 X28.532 Y26.484
G1 X28.571 Y26.489
G1 X28.61 Y26.49
G1 X28.648 Y26.487
G1 X28.687 Y26.48
G1 X28.724 Y26.47
G1 X28.76 Y26.455
G1 X28.795 Y26.438
G1 X28.828 Y26.417
G1 X28.858 Y26.392
G1 X28.886 Y26.365
G1 X28.911 Y26.335
G1 X28.933 Y26.303
G1 X28.951 Y26.269
G1 X28.966 Y26.233
G1 X28.978 Y26.196
G1 X28.986 Y26.158
G1 X28.99 Y26.119
G1 Y26.081
G1 X28.986 Y26.042
G1 X28.978 Y26.004
G1 X28.966 Y25.967
G1 X28.951 Y25.931
G1 X28.933 Y25.897
G1 X28.911 Y25.865
G1 X28.886 Y25.835
G1 X28.858 Y25.808
G1 X28.828 Y25.783
G1 X28.795 Y25.762
G1 X28.76 Y25.745
G1 X28.724 Y25.73
G1 X28.687 Y25.72
G1 X28.648 Y25.713
G1 X28.61 Y25.71
G1 X28.571 Y25.711
G1 X28.532 Y25.716
G1 X28.494 Y25.725
G1 X28.458 Y25.737
G1 X28.422 Y25.753
G1 X28.388 Y25.772
G1 X28.357 Y25.795
G1 X28.328 Y25.821
G1 X28.301 Y25.849
G1 X28.278 Y25.88
G1 X28.257 Y25.913
G1 X28.241 Y25.949
G1 X28.227 Y25.985
G1 X28.218 Y26.023
G1 X28.212 Y26.061
G1 X28.21 Y26.1
G0 Z3.0
G0 X27.2 Y27.7
G0 Z1.2
G1 F30.0 Z-0.2
G1 F200.0 X28.0 Y28.5
G0 Z3.0
G0 X28.21 Y28.1
G0 Z1.2
G1 F30.0 Z-0.2
G1 F200.0 X28.212 Y28.139
G1 X28.218 Y28.177
G1 X28.227 Y28.215
G1 X28.241 Y28.251
G1 X28.257 Y28.287
G1 X28.278 Y28.32
G1 X28.301 Y28.351
G1 X28.328 Y28.379
G1 X28.357 Y28.405
G1 X28.388 Y28.428
G1 X28.422 Y28.447
G1 X28.458 Y28.463
G1 X28.494 Y28.475
G1 X28.532 Y28.484
G1 X28.571 Y28.489
G1 X28.61 Y28.49
G1 X28.648 Y28.487
G1 X28.687 Y28.48
G1 X28.724 Y28.47
G1 X28.76 Y28.455
G1 X28.795 Y28.438
G1 X28.828 Y28.417
G1 X28.858 Y28.392
G1 X28.886 Y28.365
G1 X28.911 Y28.335
G1 X28.933 Y28.303
G1 X28.951 Y28.269
G1 X28.966 Y28.233
G1 X28.978 Y28.196
G1 X28.986 Y28.158
G1 X28.99 Y28.119
G1 Y28.081
G1 X28.986 Y28.042
G1 X28.978 Y28.004
G1 X28.966 Y27.967
G1 X28.951 Y27.931
G1 X28.933 Y27.897
G1 X28.911 Y27.865
G1 X28.886 Y27.835
G1 X28.858 Y27.808
G1 X28.828 Y27.783
G1 X28.795 Y27.762
G1 X28.76 Y27.745
G1 X28.724 Y27.73
G1 X28.687 Y27.72
G1 X28.648 Y27.713
G1 X28.61 Y27.71
G1 X28.571 Y27.711
G1 X28.532 Y27.716
G1 X28.494 Y27.725
G1 X28.458 Y27.737
G1 X28.422 Y27.753
G1 X28.388 Y27.772
G1 X28.357 Y27.795
G1 X28.328 Y27.821
G1 X28.301 Y27.849
G1 X28.278 Y27.88
G1 X28.257 Y27.913
G1 X28.241 Y27.949
G1 X28.227 Y27.985
G1 X28.218 Y28.023
G1 X28.212 Y28.061
G1 X28.21 Y28.1
G0 Z3.0
G0 X27.6
G0 Z1.2
G1 F30.0 Z-0.2
G1 F200.0 X27.1
G1 Y28.7
G1 X24.6
G0 Z3.0
G0 X24.21
G0 Z1.2
G1 F30.0 Z-0.2
G1 F200.0 X24.212 Y28.739
G1 X24.218 Y28.777
G1 X24.227 Y28.815
G1 X24.241 Y28.851
G1 X24.257 Y28.887
G1 X24.278 Y28.92
G1 X24.301 Y28.951
G1 X24.328 Y28.979
G1 X24.357 Y29.005
G1 X24.388 Y29.028
G1 X24.422 Y29.047
G1 X24.458 Y29.063
G1 X24.494 Y29.075
G1 X24.532 Y29.084
G1 X24.571 Y29.089
G1 X24.61 Y29.09
G1 X24.648 Y29.087
G1 X24.687 Y29.08
G1 X24.724 Y29.07
G1 X24.76 Y29.055
G1 X24.795 Y29.038
G1 X24.828 Y29.017
G1 X24.858 Y28.992
G1 X24.886 Y28.965
G1 X24.911 Y28.935
G1 X24.933 Y28.903
G1 X24.951 Y28.869
G1 X24.966 Y28.833
G1 X24.978 Y28.796
G1 X24.986 Y28.758
G1 X24.99 Y28.719
G1 Y28.681
G1 X24.986 Y28.642
G1 X24.978 Y28.604
G1 X24.966 Y28.567
G1 X24.951 Y28.531
G1 X24.933 Y28.497
G1 X24.911 Y28.465
G1 X24.886 Y28.435
G1 X24.858 Y28.408
G1 X24.828 Y28.383
G1 X24.795 Y28.362
G1 X24.76 Y28.345
G1 X24.724 Y28.33
G1 X24.687 Y28.32
G1 X24.648 Y28.313
G1 X24.61 Y28.31
G1 X24.571 Y28.311
G1 X24.532 Y28.316
G1 X24.494 Y28.325
G1 X24.458 Y28.337
G1 X24.422 Y28.353
G1 X24.388 Y28.372
G1 X24.357 Y28.395
G1 X24.328 Y28.421
G1 X24.301 Y28.449
G1 X24.278 Y28.48
G1 X24.257 Y28.513
G1 X24.241 Y28.549
G1 X24.227 Y28.585
G1 X24.218 Y28.623
G1 X24.212 Y28.661
G1 X24.21 Y28.7
G0 Z3.0
G0 X24.2 Y28.3
G0 Z1.2
G1 F30.0 Z-0.2
G1 F200.0 X25.0 Y29.1
G0 Z3.0
G0 X24.21 Y29.7
G0 Z1.2
G1 F30.0 Z-0.2
G1 F200.0 X24.212 Y29.739
G1 X24.218 Y29.777
G1 X24.227 Y29.815
G1 X24.241 Y29.851
G1 X24.257 Y29.887
G1 X24.278 Y29.92
G1 X24.301 Y29.951
G1 X24.328 Y29.979
G1 X24.357 Y30.005
G1 X24.388 Y30.028
G1 X24.422 Y30.047
G1 X24.458 Y30.063
G1 X24.494 Y30.075
G1 X24.532 Y30.084
G1 X24.571 Y30.089
G1 X24.61 Y30.09
G1 X24.648 Y30.087
G1 X24.687 Y30.08
G1 X24.724 Y30.07
G1 X24.76 Y30.055
G1 X24.795 Y30.038
G1 X24.828 Y30.017
G1 X24.858 Y29.992
G1 X24.886 Y29.965
G1 X24.911 Y29.935
G1 X24.933 Y29.903
G1 X24.951 Y29.869
G1 X24.966 Y29.833
G1 X24.978 Y29.796
G1 X24.986 Y29.758
G1 X24.99 Y29.719
G1 Y29.681
G1 X24.986 Y29.642
G1 X24.978 Y29.604
G1 X24.966 Y29.567
G1 X24.951 Y29.531
G1 X24.933 Y29.497
G1 X24.911 Y29.465
G1 X24.886 Y29.435
G1 X24.858 Y29.408
G1 X24.828 Y29.383
G1 X24.795 Y29.362
G1 X24.76 Y29.345
G1 X24.724 Y29.33
G1 X24.687 Y29.32
G1 X24.648 Y29.313
G1 X24.61 Y29.31
G1 X24.571 Y29.311
G1 X24.532 Y29.316
G1 X24.494 Y29.325
G1 X24.458 Y29.337
G1 X24.422 Y29.353
G1 X24.388 Y29.372
G1 X24.357 Y29.395
G1 X24.328 Y29.421
G1 X24.301 Y29.449
G1 X24.278 Y29.48
G1 X24.257 Y29.513
G1 X24.241 Y29.549
G1 X24.227 Y29.585
G1 X24.218 Y29.623
G1 X24.212 Y29.661
G1 X24.21 Y29.7
G0 Z3.0
G0 X24.2 Y30.3
G0 Z1.2
G1 F30.0 Z-0.2
G1 F200.0 X25.0 Y31.1
G0 Z3.0
G0 X24.2 Y31.3
G0 Z1.2
G1 F30.0 Z-0.2
G1 F200.0 X25.0 Y32.1
G0 Z3.0
G0 X24.2 Y32.3
G0 Z1.2
G1 F30.0 Z-0.2
G1 F200.0 X25.0 Y33.1
G0 Z3.0
G0 X24.2 Y33.3
G0 Z1.2
G1 F30.0 Z-0.2
G1 F200.0 X25.0 Y34.1
G0 Z3.0
G0 X24.21 Y33.7
G0 Z1.2
G1 F30.0 Z-0.2
G1 F200.0 X24.212 Y33.739
G1 X24.218 Y33.777
G1 X24.227 Y33.815
G1 X24.241 Y33.851
G1 X24.257 Y33.887
G1 X24.278 Y33.92
G1 X24.301 Y33.951
G1 X24.328 Y33.979
G1 X24.357 Y34.005
G1 X24.388 Y34.028
G1 X24.422 Y34.047
G1 X24.458 Y34.063
G1 X24.494 Y34.075
G1 X24.532 Y34.084
G1 X24.571 Y34.089
G1 X24.61 Y34.09
G1 X24.648 Y34.087
G1 X24.687 Y34.08
G1 X24.724 Y34.07
G1 X24.76 Y34.055
G1 X24.795 Y34.038
G1 X24.828 Y34.017
G1 X24.858 Y33.992
G1 X24.886 Y33.965
G1 X24.911 Y33.935
G1 X24.933 Y33.903
G1 X24.951 Y33.869
G1 X24.966 Y33.833
G1 X24.978 Y33.796
G1 X24.986 Y33.758
G1 X24.99 Y33.719
G1 Y33.681
G1 X24.986 Y33.642
G1 X24.978 Y33.604
G1 X24.966 Y33.567
G1 X24.951 Y33.531
G1 X24.933 Y33.497
G1 X24.911 Y33.465
G1 X24.886 Y33.435
G1 X24.858 Y33.408
G1 X24.828 Y33.383
G1 X24.795 Y33.362
G1 X24.76 Y33.345
G1 X24.724 Y33.33
G1 X24.687 Y33.32
G1 X24.648 Y33.313
G1 X24.61 Y33.31
G1 X24.571 Y33.311
G1 X24.532 Y33.316
G1 X24.494 Y33.325
G1 X24.458 Y33.337
G1 X24.422 Y33.353
G1 X24.388 Y33.372
G1 X24.357 Y33.395
G1 X24.328 Y33.421
G1 X24.301 Y33.449
G1 X24.278 Y33.48
G1 X24.257 Y33.513
G1 X24.241 Y33.549
G1 X24.227 Y33.585
G1 X24.218 Y33.623
G1 X24.212 Y33.661
G1 X24.21 Y33.7
G0 Z3.0
G0 Y32.7
G0 Z1.2
G1 F30.0 Z-0.2
G1 F200.0 X24.212 Y32.739
G1 X24.218 Y32.777
G1 X24.227 Y32.815
G1 X24.241 Y32.851
G1 X24.257 Y32.887
G1 X24.278 Y32.92
G1 X24.301 Y32.951
G1 X24.328 Y32.979
G1 X24.357 Y33.005
G1 X24.388 Y33.028
G1 X24.422 Y33.047
G1 X24.458 Y33.063
G1 X24.494 Y33.075
G1 X24.532 Y33.084
G1 X24.571 Y33.089
G1 X24.61 Y33.09
G1 X24.648 Y33.087
G1 X24.687 Y33.08
G1 X24.724 Y33.07
G1 X24.76 Y33.055
G1 X24.795 Y33.038
G1 X24.828 Y33.017
G1 X24.858 Y32.992
G1 X24.886 Y32.965
G1 X24.911 Y32.935
G1 X24.933 Y32.903
G1 X24.951 Y32.869
G1 X24.966 Y32.833
G1 X24.978 Y32.796
G1 X24.986 Y32.758
G1 X24.99 Y32.719
G1 Y32.681
G1 X24.986 Y32.642
G1 X24.978 Y32.604
G1 X24.966 Y32.567
G1 X24.951 Y32.531
G1 X24.933 Y32.497
G1 X24.911 Y32.465
G1 X24.886 Y32.435
G1 X24.858 Y32.408
G1 X24.828 Y32.383
G1 X24.795 Y32.362
G1 X24.76 Y32.345
G1 X24.724 Y32.33
G1 X24.687 Y32.32
G1 X24.648 Y32.313
G1 X24.61 Y32.31
G1 X24.571 Y32.311
G1 X24.532 Y32.316
G1 X24.494 Y32.325
G1 X24.458 Y32.337
G1 X24.422 Y32.353
G1 X24.388 Y32.372
G1 X24.357 Y32.395
G1 X24.328 Y32.421
G1 X24.301 Y32.449
G1 X24.278 Y32.48
G1 X24.257 Y32.513
G1 X24.241 Y32.549
G1 X24.227 Y32.585
G1 X24.218 Y32.623
G1 X24.212 Y32.661
G1 X24.21 Y32.7
G0 Z3.0
G0 Y31.7
G0 Z1.2
G1 F30.0 Z-0.2
G1 F200.0 X24.212 Y31.739
G1 X24.218 Y31.777
G1 X24.227 Y31.815
G1 X24.241 Y31.851
G1 X24.257 Y31.887
G1 X24.278 Y31.92
G1 X24.301 Y31.951
G1 X24.328 Y31.979
G1 X24.357 Y32.005
G1 X24.388 Y32.028
G1 X24.422 Y32.047
G1 X24.458 Y32.063
G1 X24.494 Y32.075
G1 X24.532 Y32.084
G1 X24.571 Y32.089
G1 X24.61 Y32.09
G1 X24.648 Y32.087
G1 X24.687 Y32.08
G1 X24.724 Y32.07
G1 X24.76 Y32.055
G1 X24.795 Y32.038
G1 X24.828 Y32.017
G1 X24.858 Y31.992
G1 X24.886 Y31.965
G1 X24.911 Y31.935
G1 X24.933 Y31.903
G1 X24.951 Y31.869
G1 X24.966 Y31.833
G1 X24.978 Y31.796
G1 X24.986 Y31.758
G1 X24.99 Y31.719
G1 Y31.681
G1 X24.986 Y31.642
G1 X24.978 Y31.604
G1 X24.966 Y31.567
G1 X24.951 Y31.531
G1 X24.933 Y31.497
G1 X24.911 Y31.465
G1 X24.886 Y31.435
G1 X24.858 Y31.408
G1 X24.828 Y31.383
G1 X24.795 Y31.362
G1 X24.76 Y31.345
G1 X24.724 Y31.33
G1 X24.687 Y31.32
G1 X24.648 Y31.313
G1 X24.61 Y31.31
G1 X24.571 Y31.311
G1 X24.532 Y31.316
G1 X24.494 Y31.325
G1 X24.458 Y31.337
G1 X24.422 Y31.353
G1 X24.388 Y31.372
G1 X24.357 Y31.395
G1 X24.328 Y31.421
G1 X24.301 Y31.449
G1 X24.278 Y31.48
G1 X24.257 Y31.513
G1 X24.241 Y31.549
G1 X24.227 Y31.585
G1 X24.218 Y31.623
G1 X24.212 Y31.661
G1 X24.21 Y31.7
G0 Z3.0
G0 Y30.7
G0 Z1.2
G1 F30.0 Z-0.2
G1 F200.0 X24.212 Y30.739
G1 X24.218 Y30.777
G1 X24.227 Y30.815
G1 X24.241 Y30.851
G1 X24.257 Y30.887
G1 X24.278 Y30.92
G1 X24.301 Y30.951
G1 X24.328 Y30.979
G1 X24.357 Y31.005
G1 X24.388 Y31.028
G1 X24.422 Y31.047
G1 X24.458 Y31.063
G1 X24.494 Y31.075
G1 X24.532 Y31.084
G1 X24.571 Y31.089
G1 X24.61 Y31.09
G1 X24.648 Y31.087
G1 X24.687 Y31.08
G1 X24.724 Y31.07
G1 X24.76 Y31.055
G1 X24.795 Y31.038
G1 X24.828 Y31.017
G1 X24.858 Y30.992
G1 X24.886 Y30.965
G1 X24.911 Y30.935
G1 X24.933 Y30.903
G1 X24.951 Y30.869
G1 X24.966 Y30.833
G1 X24.978 Y30.796
G1 X24.986 Y30.758
G1 X24.99 Y30.719
G1 Y30.681
G1 X24.986 Y30.642
G1 X24.978 Y30.604
G1 X24.966 Y30.567
G1 X24.951 Y30.531
G1 X24.933 Y30.497
G1 X24.911 Y30.465
G1 X24.886 Y30.435
G1 X24.858 Y30.408
G1 X24.828 Y30.383
G1 X24.795 Y30.362
G1 X24.76 Y30.345
G1 X24.724 Y30.33
G1 X24.687 Y30.32
G1 X24.648 Y30.313
G1 X24.61 Y30.31
G1 X24.571 Y30.311
G1 X24.532 Y30.316
G1 X24.494 Y30.325
G1 X24.458 Y30.337
G1 X24.422 Y30.353
G1 X24.388 Y30.372
G1 X24.357 Y30.395
G1 X24.328 Y30.421
G1 X24.301 Y30.449
G1 X24.278 Y30.48
G1 X24.257 Y30.513
G1 X24.241 Y30.549
G1 X24.227 Y30.585
G1 X24.218 Y30.623
G1 X24.212 Y30.661
G1 X24.21 Y30.7
G0 Z3.0
G0 X22.5
G0 Z1.2
G1 F30.0 Z-0.2
G1 F200.0 X21.7 Y31.5
G0 Z3.0
G0 X22.1 Y31.1
G0 Z1.2
G1 F30.0 Z-0.2
G1 F200.0 Y32.6
G1 X17.6
G1 Y31.1
G0 Z3.0
G0 Y31.36
G0 Z1.2
G1 F30.0 Z-0.2
G1 F200.0 Y30.84
G0 Z3.0
G0 X17.2 Y30.7
G0 Z1.2
G1 F30.0 Z-0.2
G1 F200.0 X18.0 Y31.5
G0 Z3.0
G0 X18.21 Y31.1
G0 Z1.2
G1 F30.0 Z-0.2
G1 F200.0 X18.212 Y31.139
G1 X18.218 Y31.177
G1 X18.227 Y31.215
G1 X18.241 Y31.251
G1 X18.257 Y31.287
G1 X18.278 Y31.32
G1 X18.301 Y31.351
G1 X18.328 Y31.379
G1 X18.357 Y31.405
G1 X18.388 Y31.428
G1 X18.422 Y31.447
G1 X18.458 Y31.463
G1 X18.494 Y31.475
G1 X18.532 Y31.484
G1 X18.571 Y31.489
G1 X18.61 Y31.49
G1 X18.648 Y31.487
G1 X18.687 Y31.48
G1 X18.724 Y31.47
G1 X18.76 Y31.455
G1 X18.795 Y31.438
G1 X18.828 Y31.417
G1 X18.858 Y31.392
G1 X18.886 Y31.365
G1 X18.911 Y31.335
G1 X18.933 Y31.303
G1 X18.951 Y31.269
G1 X18.966 Y31.233
G1 X18.978 Y31.196
G1 X18.986 Y31.158
G1 X18.99 Y31.119
G1 Y31.081
G1 X18.986 Y31.042
G1 X18.978 Y31.004
G1 X18.966 Y30.967
G1 X18.951 Y30.931
G1 X18.933 Y30.897
G1 X18.911 Y30.865
G1 X18.886 Y30.835
G1 X18.858 Y30.808
G1 X18.828 Y30.783
G1 X18.795 Y30.762
G1 X18.76 Y30.745
G1 X18.724 Y30.73
G1 X18.687 Y30.72
G1 X18.648 Y30.713
G1 X18.61 Y30.71
G1 X18.571 Y30.711
G1 X18.532 Y30.716
G1 X18.494 Y30.725
G1 X18.458 Y30.737
G1 X18.422 Y30.753
G1 X18.388 Y30.772
G1 X18.357 Y30.795
G1 X18.328 Y30.821
G1 X18.301 Y30.849
G1 X18.278 Y30.88
G1 X18.257 Y30.913
G1 X18.241 Y30.949
G1 X18.227 Y30.985
G1 X18.218 Y31.023
G1 X18.212 Y31.061
G1 X18.21 Y31.1
G0 Z3.0
G0 X18.6
G0 Z1.2
G1 F30.0 Z-0.2
G1 F200.0 Y30.1
G1 X15.6
G1 Y31.1
G0 Z3.0
G0 Y31.36
G0 Z1.2
G1 F30.0 Z-0.2
G1 F200.0 Y30.84
G0 Z3.0
G0 X15.2 Y30.7
G0 Z1.2
G1 F30.0 Z-0.2
G1 F200.0 X16.0 Y31.5
G0 Z3.0
G0 X16.21 Y31.1
G0 Z1.2
G1 F30.0 Z-0.2
G1 F200.0 X16.212 Y31.139
G1 X16.218 Y31.177
G1 X16.227 Y31.215
G1 X16.241 Y31.251
G1 X16.257 Y31.287
G1 X16.278 Y31.32
G1 X16.301 Y31.351
G1 X16.328 Y31.379
G1 X16.357 Y31.405
G1 X16.388 Y31.428
G1 X16.422 Y31.447
G1 X16.458 Y31.463
G1 X16.494 Y31.475
G1 X16.532 Y31.484
G1 X16.571 Y31.489
G1 X16.61 Y31.49
G1 X16.648 Y31.487
G1 X16.687 Y31.48
G1 X16.724 Y31.47
G1 X16.76 Y31.455
G1 X16.795 Y31.438
G1 X16.828 Y31.417
G1 X16.858 Y31.392
G1 X16.886 Y31.365
G1 X16.911 Y31.335
G1 X16.933 Y31.303
G1 X16.951 Y31.269
G1 X16.966 Y31.233
G1 X16.978 Y31.196
G1 X16.986 Y31.158
G1 X16.99 Y31.119
G1 Y31.081
G1 X16.986 Y31.042
G1 X16.978 Y31.004
G1 X16.966 Y30.967
G1 X16.951 Y30.931
G1 X16.933 Y30.897
G1 X16.911 Y30.865
G1 X16.886 Y30.835
G1 X16.858 Y30.808
G1 X16.828 Y30.783
G1 X16.795 Y30.762
G1 X16.76 Y30.745
G1 X16.724 Y30.73
G1 X16.687 Y30.72
G1 X16.648 Y30.713
G1 X16.61 Y30.71
G1 X16.571 Y30.711
G1 X16.532 Y30.716
G1 X16.494 Y30.725
G1 X16.458 Y30.737
G1 X16.422 Y30.753
G1 X16.388 Y30.772
G1 X16.357 Y30.795
G1 X16.328 Y30.821
G1 X16.301 Y30.849
G1 X16.278 Y30.88
G1 X16.257 Y30.913
G1 X16.241 Y30.949
G1 X16.227 Y30.985
G1 X16.218 Y31.023
G1 X16.212 Y31.061
G1 X16.21 Y31.1
G0 Z3.0
G0 X16.6
G0 Z1.2
G1 F30.0 Z-0.2
G1 F200.0 Y33.6
G0 Z3.0
G0 X16.21
G0 Z1.2
G1 F30.0 Z-0.2
G1 F200.0 X16.212 Y33.639
G1 X16.218 Y33.677
G1 X16.227 Y33.715
G1 X16.241 Y33.751
G1 X16.257 Y33.787
G1 X16.278 Y33.82
G1 X16.301 Y33.851
G1 X16.328 Y33.879
G1 X16.357 Y33.905
G1 X16.388 Y33.928
G1 X16.422 Y33.947
G1 X16.458 Y33.963
G1 X16.494 Y33.975
G1 X16.532 Y33.984
G1 X16.571 Y33.989
G1 X16.61 Y33.99
G1 X16.648 Y33.987
G1 X16.687 Y33.98
G1 X16.724 Y33.97
G1 X16.76 Y33.955
G1 X16.795 Y33.938
G1 X16.828 Y33.917
G1 X16.858 Y33.892
G1 X16.886 Y33.865
G1 X16.911 Y33.835
G1 X16.933 Y33.803
G1 X16.951 Y33.769
G1 X16.966 Y33.733
G1 X16.978 Y33.696
G1 X16.986 Y33.658
G1 X16.99 Y33.619
G1 Y33.581
G1 X16.986 Y33.542
G1 X16.978 Y33.504
G1 X16.966 Y33.467
G1 X16.951 Y33.431
G1 X16.933 Y33.397
G1 X16.911 Y33.365
G1 X16.886 Y33.335
G1 X16.858 Y33.308
G1 X16.828 Y33.283
G1 X16.795 Y33.262
G1 X16.76 Y33.245
G1 X16.724 Y33.23
G1 X16.687 Y33.22
G1 X16.648 Y33.213
G1 X16.61 Y33.21
G1 X16.571 Y33.211
G1 X16.532 Y33.216
G1 X16.494 Y33.225
G1 X16.458 Y33.237
G1 X16.422 Y33.253
G1 X16.388 Y33.272
G1 X16.357 Y33.295
G1 X16.328 Y33.321
G1 X16.301 Y33.349
G1 X16.278 Y33.38
G1 X16.257 Y33.413
G1 X16.241 Y33.449
G1 X16.227 Y33.485
G1 X16.218 Y33.523
G1 X16.212 Y33.561
G1 X16.21 Y33.6
G0 Z3.0
G0 X16.2 Y33.2
G0 Z1.2
G1 F30.0 Z-0.2
G1 F200.0 X17.0 Y34.0
G0 Z3.0
G0 X16.2 Y36.2
G0 Z1.2
G1 F30.0 Z-0.2
G1 F200.0 X17.0 Y37.0
G0 Z3.0
G0 X16.6 Y36.6
G0 Z1.2
G1 F30.0 Z-0.2
G1 F200.0 Y38.187
G1 X16.446
G0 Z3.0
G0 X16.846
G0 Z1.2
G1 F30.0 Z-0.2
G1 F200.0 X16.046
G0 Z3.0
G0 Y37.787
G0 Z1.2
G1 F30.0 Z-0.2
G1 F200.0 X16.846 Y38.587
G0 Z3.0
G0 X16.046
G0 Z1.2
G1 F30.0 Z-0.2
G1 F200.0 X16.846 Y37.787
G0 Z3.0
G0 X16.21 Y36.6
G0 Z1.2
G1 F30.0 Z-0.2
G1 F200.0 X16.212 Y36.639
G1 X16.218 Y36.677
G1 X16.227 Y36.715
G1 X16.241 Y36.751
G1 X16.257 Y36.787
G1 X16.278 Y36.82
G1 X16.301 Y36.851
G1 X16.328 Y36.879
G1 X16.357 Y36.905
G1 X16.388 Y36.928
G1 X16.422 Y36.947
G1 X16.458 Y36.963
G1 X16.494 Y36.975
G1 X16.532 Y36.984
G1 X16.571 Y36.989
G1 X16.61 Y36.99
G1 X16.648 Y36.987
G1 X16.687 Y36.98
G1 X16.724 Y36.97
G1 X16.76 Y36.955
G1 X16.795 Y36.938
G1 X16.828 Y36.917
G1 X16.858 Y36.892
G1 X16.886 Y36.865
G1 X16.911 Y36.835
G1 X16.933 Y36.803
G1 X16.951 Y36.769
G1 X16.966 Y36.733
G1 X16.978 Y36.696
G1 X16.986 Y36.658
G1 X16.99 Y36.619
G1 Y36.581
G1 X16.986 Y36.542
G1 X16.978 Y36.504
G1 X16.966 Y36.467
G1 X16.951 Y36.431
G1 X16.933 Y36.397
G1 X16.911 Y36.365
G1 X16.886 Y36.335
G1 X16.858 Y36.308
G1 X16.828 Y36.283
G1 X16.795 Y36.262
G1 X16.76 Y36.245
G1 X16.724 Y36.23
G1 X16.687 Y36.22
G1 X16.648 Y36.213
G1 X16.61 Y36.21
G1 X16.571 Y36.211
G1 X16.532 Y36.216
G1 X16.494 Y36.225
G1 X16.458 Y36.237
G1 X16.422 Y36.253
G1 X16.388 Y36.272
G1 X16.357 Y36.295
G1 X16.328 Y36.321
G1 X16.301 Y36.349
G1 X16.278 Y36.38
G1 X16.257 Y36.413
G1 X16.241 Y36.449
G1 X16.227 Y36.485
G1 X16.218 Y36.523
G1 X16.212 Y36.561
G1 X16.21 Y36.6
G0 Z3.0
G0 X15.874 Y38.783
G0 Z1.2
G1 F30.0 Z-0.2
G1 F200.0 X15.074 Y39.583
G0 Z3.0
G0 Y39.183
G0 Z1.2
G1 F30.0 Z-0.2
G1 F200.0 X15.874
G0 Z3.0
G0 Y39.583
G0 Z1.2
G1 F30.0 Z-0.2
G1 F200.0 X15.074 Y38.783
G0 Z3.0
G0 X12.283
G0 Z1.2
G1 F30.0 Z-0.2
G1 F200.0 X11.483 Y39.583
G0 Z3.0
G0 Y39.183
G0 Z1.2
G1 F30.0 Z-0.2
G1 F200.0 X12.283
G0 Z3.0
G0 Y39.583
G0 Z1.2
G1 F30.0 Z-0.2
G1 F200.0 X11.483 Y38.783
G0 Z3.0
G0 X11.283 Y38.591
G0 Z1.2
G1 F30.0 Z-0.2
G1 F200.0 X10.483 Y37.791
G0 Z3.0
G0 Y38.191
G0 Z1.2
G1 F30.0 Z-0.2
G1 F200.0 X11.283
G0 Z3.0
G0 X10.883
G0 Z1.2
G1 F30.0 Z-0.2
G1 F200.0 X12.1
G1 Y37.1
G0 Z3.0
G0 X11.71
G0 Z1.2
G1 F30.0 Z-0.2
G1 F200.0 X11.712 Y37.139
G1 X11.718 Y37.177
G1 X11.727 Y37.215
G1 X11.741 Y37.251
G1 X11.757 Y37.287
G1 X11.778 Y37.32
G1 X11.801 Y37.351
G1 X11.828 Y37.379
G1 X11.857 Y37.405
G1 X11.888 Y37.428
G1 X11.922 Y37.447
G1 X11.958 Y37.463
G1 X11.994 Y37.475
G1 X12.032 Y37.484
G1 X12.071 Y37.489
G1 X12.11 Y37.49
G1 X12.148 Y37.487
G1 X12.187 Y37.48
G1 X12.224 Y37.47
G1 X12.26 Y37.455
G1 X12.295 Y37.438
G1 X12.328 Y37.417
G1 X12.358 Y37.392
G1 X12.386 Y37.365
G1 X12.411 Y37.335
G1 X12.433 Y37.303
G1 X12.451 Y37.269
G1 X12.466 Y37.233
G1 X12.478 Y37.196
G1 X12.486 Y37.158
G1 X12.49 Y37.119
G1 Y37.081
G1 X12.486 Y37.042
G1 X12.478 Y37.004
G1 X12.466 Y36.967
G1 X12.451 Y36.931
G1 X12.433 Y36.897
G1 X12.411 Y36.865
G1 X12.386 Y36.835
G1 X12.358 Y36.808
G1 X12.328 Y36.783
G1 X12.295 Y36.762
G1 X12.26 Y36.745
G1 X12.224 Y36.73
G1 X12.187 Y36.72
G1 X12.148 Y36.713
G1 X12.11 Y36.71
G1 X12.071 Y36.711
G1 X12.032 Y36.716
G1 X11.994 Y36.725
G1 X11.958 Y36.737
G1 X11.922 Y36.753
G1 X11.888 Y36.772
G1 X11.857 Y36.795
G1 X11.828 Y36.821
G1 X11.801 Y36.849
G1 X11.778 Y36.88
G1 X11.757 Y36.913
G1 X11.741 Y36.949
G1 X11.727 Y36.985
G1 X11.718 Y37.023
G1 X11.712 Y37.061
G1 X11.71 Y37.1
G0 Z3.0
G0 X11.7 Y36.7
G0 Z1.2
G1 F30.0 Z-0.2
G1 F200.0 X12.5 Y37.5
G0 Z3.0
G0 X11.283 Y37.791
G0 Z1.2
G1 F30.0 Z-0.2
G1 F200.0 X10.483 Y38.591
G0 Z3.0
G0 X9.319 Y38.779
G0 Z1.2
G1 F30.0 Z-0.2
G1 F200.0 X8.519 Y39.579
G0 Z3.0
G0 Y39.179
G0 Z1.2
G1 F30.0 Z-0.2
G1 F200.0 X9.319
G0 Z3.0
G0 Y39.579
G0 Z1.2
G1 F30.0 Z-0.2
G1 F200.0 X8.519 Y38.779
G0 Z3.0
G0 X7.346 Y38.587
G0 Z1.2
G1 F30.0 Z-0.2
G1 F200.0 X6.546 Y37.787
G0 Z3.0
G0 Y38.187
G0 Z1.2
G1 F30.0 Z-0.2
G1 F200.0 X7.346
G0 Z3.0
G0 Y37.787
G0 Z1.2
G1 F30.0 Z-0.2
G1 F200.0 X6.546 Y38.587
G0 Z3.0
G0 X6.374 Y38.783
G0 Z1.2
G1 F30.0 Z-0.2
G1 F200.0 X5.574 Y39.583
G0 Z3.0
G0 X5.405 Y39.6
G0 Z1.2
G1 F30.0 Z-0.2
G1 F200.0 X5.407 Y39.628
G1 X5.413 Y39.655
G1 X5.423 Y39.681
G1 X5.436 Y39.705
G1 X5.453 Y39.728
G1 X5.472 Y39.747
G1 X5.495 Y39.764
G1 X5.519 Y39.777
G1 X5.545 Y39.787
G1 X5.572 Y39.793
G1 X5.6 Y39.795
G1 X5.628 Y39.793
G1 X5.655 Y39.787
G1 X5.681 Y39.777
G1 X5.705 Y39.764
G1 X5.728 Y39.747
G1 X5.747 Y39.728
G1 X5.764 Y39.705
G1 X5.777 Y39.681
G1 X5.787 Y39.655
G1 X5.793 Y39.628
G1 X5.795 Y39.6
G1 X5.793 Y39.572
G1 X5.787 Y39.545
G1 X5.777 Y39.519
G1 X5.764 Y39.495
G1 X5.747 Y39.472
G1 X5.728 Y39.453
G1 X5.705 Y39.436
G1 X5.681 Y39.423
G1 X5.655 Y39.413
G1 X5.628 Y39.407
G1 X5.6 Y39.405
G1 X5.572 Y39.407
G1 X5.545 Y39.413
G1 X5.519 Y39.423
G1 X5.495 Y39.436
G1 X5.472 Y39.453
G1 X5.453 Y39.472
G1 X5.436 Y39.495
G1 X5.423 Y39.519
G1 X5.413 Y39.545
G1 X5.407 Y39.572
G1 X5.405 Y39.6
G0 Z3.0
G0 X5.21
G0 Z1.2
G1 F30.0 Z-0.2
G1 F200.0 X5.212 Y39.639
G1 X5.218 Y39.677
G1 X5.227 Y39.715
G1 X5.241 Y39.751
G1 X5.257 Y39.787
G1 X5.278 Y39.82
G1 X5.301 Y39.851
G1 X5.328 Y39.879
G1 X5.357 Y39.905
G1 X5.388 Y39.928
G1 X5.422 Y39.947
G1 X5.458 Y39.963
G1 X5.494 Y39.975
G1 X5.532 Y39.984
G1 X5.571 Y39.989
G1 X5.61 Y39.99
G1 X5.648 Y39.987
G1 X5.687 Y39.98
G1 X5.724 Y39.97
G1 X5.76 Y39.955
G1 X5.795 Y39.938
G1 X5.828 Y39.917
G1 X5.858 Y39.892
G1 X5.886 Y39.865
G1 X5.911 Y39.835
G1 X5.933 Y39.803
G1 X5.951 Y39.769
G1 X5.966 Y39.733
G1 X5.978 Y39.696
G1 X5.986 Y39.658
G1 X5.99 Y39.619
G1 Y39.581
G1 X5.986 Y39.542
G1 X5.978 Y39.504
G1 X5.966 Y39.467
G1 X5.951 Y39.431
G1 X5.933 Y39.397
G1 X5.911 Y39.365
G1 X5.886 Y39.335
G1 X5.858 Y39.308
G1 X5.828 Y39.283
G1 X5.795 Y39.262
G1 X5.76 Y39.245
G1 X5.724 Y39.23
G1 X5.687 Y39.22
G1 X5.648 Y39.213
G1 X5.61 Y39.21
G1 X5.571 Y39.211
G1 X5.532 Y39.216
G1 X5.494 Y39.225
G1 X5.458 Y39.237
G1 X5.422 Y39.253
G1 X5.388 Y39.272
G1 X5.357 Y39.295
G1 X5.328 Y39.321
G1 X5.301 Y39.349
G1 X5.278 Y39.38
G1 X5.257 Y39.413
G1 X5.241 Y39.449
G1 X5.227 Y39.485
G1 X5.218 Y39.523
G1 X5.212 Y39.561
G1 X5.21 Y39.6
G1 F30.0 X5.2
G1 F200.0 X6.0
G0 Z3.0
G0 X6.374 Y39.583
G0 Z1.2
G1 F30.0 Z-0.2
G1 F200.0 X5.574 Y38.783
G0 Z3.0
G0 Y39.183
G0 Z1.2
G1 F30.0 Z-0.2
G1 F200.0 X6.374
G0 Z3.0
G0 X5.6 Y39.2
G0 Z1.2
G1 F30.0 Z-0.2
G1 F200.0 Y40.0
G0 Z3.0
G0 X6.946 Y38.187
G0 Z1.2
G1 F30.0 Z-0.2
G1 F200.0 X7.6
G1 Y37.1
G1 X8.1
G1 Y35.6
G1 Y36.12
G0 Z3.0
G0 X8.5 Y36.0
G0 Z1.2
G1 F30.0 Z-0.2
G1 F200.0 X7.7 Y35.2
G0 Z3.0
G0 X7.71 Y35.6
G0 Z1.2
G1 F30.0 Z-0.2
G1 F200.0 X7.712 Y35.639
G1 X7.718 Y35.677
G1 X7.727 Y35.715
G1 X7.741 Y35.751
G1 X7.757 Y35.787
G1 X7.778 Y35.82
G1 X7.801 Y35.851
G1 X7.828 Y35.879
G1 X7.857 Y35.905
G1 X7.888 Y35.928
G1 X7.922 Y35.947
G1 X7.958 Y35.963
G1 X7.994 Y35.975
G1 X8.032 Y35.984
G1 X8.071 Y35.989
G1 X8.11 Y35.99
G1 X8.148 Y35.987
G1 X8.187 Y35.98
G1 X8.224 Y35.97
G1 X8.26 Y35.955
G1 X8.295 Y35.938
G1 X8.328 Y35.917
G1 X8.358 Y35.892
G1 X8.386 Y35.865
G1 X8.411 Y35.835
G1 X8.433 Y35.803
G1 X8.451 Y35.769
G1 X8.466 Y35.733
G1 X8.478 Y35.696
G1 X8.486 Y35.658
G1 X8.49 Y35.619
G1 Y35.581
G1 X8.486 Y35.542
G1 X8.478 Y35.504
G1 X8.466 Y35.467
G1 X8.451 Y35.431
G1 X8.433 Y35.397
G1 X8.411 Y35.365
G1 X8.386 Y35.335
G1 X8.358 Y35.308
G1 X8.328 Y35.283
G1 X8.295 Y35.262
G1 X8.26 Y35.245
G1 X8.224 Y35.23
G1 X8.187 Y35.22
G1 X8.148 Y35.213
G1 X8.11 Y35.21
G1 X8.071 Y35.211
G1 X8.032 Y35.216
G1 X7.994 Y35.225
G1 X7.958 Y35.237
G1 X7.922 Y35.253
G1 X7.888 Y35.272
G1 X7.857 Y35.295
G1 X7.828 Y35.321
G1 X7.801 Y35.349
G1 X7.778 Y35.38
G1 X7.757 Y35.413
G1 X7.741 Y35.449
G1 X7.727 Y35.485
G1 X7.718 Y35.523
G1 X7.712 Y35.561
G1 X7.71 Y35.6
G0 Z3.0
G0 X7.5 Y36.0
G0 Z1.2
G1 F30.0 Z-0.2
G1 F200.0 X6.7 Y35.2
G0 Z3.0
G0 X6.71 Y35.6
G0 Z1.2
G1 F30.0 Z-0.2
G1 F200.0 X6.712 Y35.639
G1 X6.718 Y35.677
G1 X6.727 Y35.715
G1 X6.741 Y35.751
G1 X6.757 Y35.787
G1 X6.778 Y35.82
G1 X6.801 Y35.851
G1 X6.828 Y35.879
G1 X6.857 Y35.905
G1 X6.888 Y35.928
G1 X6.922 Y35.947
G1 X6.958 Y35.963
G1 X6.994 Y35.975
G1 X7.032 Y35.984
G1 X7.071 Y35.989
G1 X7.11 Y35.99
G1 X7.148 Y35.987
G1 X7.187 Y35.98
G1 X7.224 Y35.97
G1 X7.26 Y35.955
G1 X7.295 Y35.938
G1 X7.328 Y35.917
G1 X7.358 Y35.892
G1 X7.386 Y35.865
G1 X7.411 Y35.835
G1 X7.433 Y35.803
G1 X7.451 Y35.769
G1 X7.466 Y35.733
G1 X7.478 Y35.696
G1 X7.486 Y35.658
G1 X7.49 Y35.619
G1 Y35.581
G1 X7.486 Y35.542
G1 X7.478 Y35.504
G1 X7.466 Y35.467
G1 X7.451 Y35.431
G1 X7.433 Y35.397
G1 X7.411 Y35.365
G1 X7.386 Y35.335
G1 X7.358 Y35.308
G1 X7.328 Y35.283
G1 X7.295 Y35.262
G1 X7.26 Y35.245
G1 X7.224 Y35.23
G1 X7.187 Y35.22
G1 X7.148 Y35.213
G1 X7.11 Y35.21
G1 X7.071 Y35.211
G1 X7.032 Y35.216
G1 X6.994 Y35.225
G1 X6.958 Y35.237
G1 X6.922 Y35.253
G1 X6.888 Y35.272
G1 X6.857 Y35.295
G1 X6.828 Y35.321
G1 X6.801 Y35.349
G1 X6.778 Y35.38
G1 X6.757 Y35.413
G1 X6.741 Y35.449
G1 X6.727 Y35.485
G1 X6.718 Y35.523
G1 X6.712 Y35.561
G1 X6.71 Y35.6
G0 Z3.0
G0 X7.1
G0 Z1.2
G1 F30.0 Z-0.2
G1 F200.0 Y36.12
G0 Z3.0
G0 X7.2 Y36.7
G0 Z1.2
G1 F30.0 Z-0.2
G1 F200.0 X8.0 Y37.5
G0 Z3.0
G0 X7.86 Y37.1
G0 Z1.2
G1 F30.0 Z-0.2
G1 F200.0 X7.34
G1 F30.0 X7.21
G1 F200.0 X7.212 Y37.139
G1 X7.218 Y37.177
G1 X7.227 Y37.215
G1 X7.241 Y37.251
G1 X7.257 Y37.287
G1 X7.278 Y37.32
G1 X7.301 Y37.351
G1 X7.328 Y37.379
G1 X7.357 Y37.405
G1 X7.388 Y37.428
G1 X7.422 Y37.447
G1 X7.458 Y37.463
G1 X7.494 Y37.475
G1 X7.532 Y37.484
G1 X7.571 Y37.489
G1 X7.61 Y37.49
G1 X7.648 Y37.487
G1 X7.687 Y37.48
G1 X7.724 Y37.47
G1 X7.76 Y37.455
G1 X7.795 Y37.438
G1 X7.828 Y37.417
G1 X7.858 Y37.392
G1 X7.886 Y37.365
G1 X7.911 Y37.335
G1 X7.933 Y37.303
G1 X7.951 Y37.269
G1 X7.966 Y37.233
G1 X7.978 Y37.196
G1 X7.986 Y37.158
G1 X7.99 Y37.119
G1 Y37.081
G1 X7.986 Y37.042
G1 X7.978 Y37.004
G1 X7.966 Y36.967
G1 X7.951 Y36.931
G1 X7.933 Y36.897
G1 X7.911 Y36.865
G1 X7.886 Y36.835
G1 X7.858 Y36.808
G1 X7.828 Y36.783
G1 X7.795 Y36.762
G1 X7.76 Y36.745
G1 X7.724 Y36.73
G1 X7.687 Y36.72
G1 X7.648 Y36.713
G1 X7.61 Y36.71
G1 X7.571 Y36.711
G1 X7.532 Y36.716
G1 X7.494 Y36.725
G1 X7.458 Y36.737
G1 X7.422 Y36.753
G1 X7.388 Y36.772
G1 X7.357 Y36.795
G1 X7.328 Y36.821
G1 X7.301 Y36.849
G1 X7.278 Y36.88
G1 X7.257 Y36.913
G1 X7.241 Y36.949
G1 X7.227 Y36.985
G1 X7.218 Y37.023
G1 X7.212 Y37.061
G1 X7.21 Y37.1
G0 Z3.0
G0 X8.71 Y35.6
G0 Z1.2
G1 F30.0 Z-0.2
G1 F200.0 X8.712 Y35.639
G1 X8.718 Y35.677
G1 X8.727 Y35.715
G1 X8.741 Y35.751
G1 X8.757 Y35.787
G1 X8.778 Y35.82
G1 X8.801 Y35.851
G1 X8.828 Y35.879
G1 X8.857 Y35.905
G1 X8.888 Y35.928
G1 X8.922 Y35.947
G1 X8.958 Y35.963
G1 X8.994 Y35.975
G1 X9.032 Y35.984
G1 X9.071 Y35.989
G1 X9.11 Y35.99
G1 X9.148 Y35.987
G1 X9.187 Y35.98
G1 X9.224 Y35.97
G1 X9.26 Y35.955
G1 X9.295 Y35.938
G1 X9.328 Y35.917
G1 X9.358 Y35.892
G1 X9.386 Y35.865
G1 X9.411 Y35.835
G1 X9.433 Y35.803
G1 X9.451 Y35.769
G1 X9.466 Y35.733
G1 X9.478 Y35.696
G1 X9.486 Y35.658
G1 X9.49 Y35.619
G1 Y35.581
G1 X9.486 Y35.542
G1 X9.478 Y35.504
G1 X9.466 Y35.467
G1 X9.451 Y35.431
G1 X9.433 Y35.397
G1 X9.411 Y35.365
G1 X9.386 Y35.335
G1 X9.358 Y35.308
G1 X9.328 Y35.283
G1 X9.295 Y35.262
G1 X9.26 Y35.245
G1 X9.224 Y35.23
G1 X9.187 Y35.22
G1 X9.148 Y35.213
G1 X9.11 Y35.21
G1 X9.071 Y35.211
G1 X9.032 Y35.216
G1 X8.994 Y35.225
G1 X8.958 Y35.237
G1 X8.922 Y35.253
G1 X8.888 Y35.272
G1 X8.857 Y35.295
G1 X8.828 Y35.321
G1 X8.801 Y35.349
G1 X8.778 Y35.38
G1 X8.757 Y35.413
G1 X8.741 Y35.449
G1 X8.727 Y35.485
G1 X8.718 Y35.523
G1 X8.712 Y35.561
G1 X8.71 Y35.6
G0 Z3.0
G0 X9.1
G0 Z1.2
G1 F30.0 Z-0.2
G1 F200.0 Y36.12
G0 Z3.0
G0 X9.5 Y36.0
G0 Z1.2
G1 F30.0 Z-0.2
G1 F200.0 X8.7 Y35.2
G0 Z3.0
G0 X9.1 Y35.6
G0 Z0.8
G1 F30.0 Z-0.2
G1 F200.0 Y34.1
G1 X11.1
G1 Y37.1
G1 X10.6
G0 Z3.0
G0 X10.86
G0 Z1.2
G1 F30.0 Z-0.2
G1 F200.0 X10.34
G1 F30.0 X10.21
G1 F200.0 X10.212 Y37.139
G1 X10.218 Y37.177
G1 X10.227 Y37.215
G1 X10.241 Y37.251
G1 X10.257 Y37.287
G1 X10.278 Y37.32
G1 X10.301 Y37.351
G1 X10.328 Y37.379
G1 X10.357 Y37.405
G1 X10.388 Y37.428
G1 X10.422 Y37.447
G1 X10.458 Y37.463
G1 X10.494 Y37.475
G1 X10.532 Y37.484
G1 X10.571 Y37.489
G1 X10.61 Y37.49
G1 X10.648 Y37.487
G1 X10.687 Y37.48
G1 X10.724 Y37.47
G1 X10.76 Y37.455
G1 X10.795 Y37.438
G1 X10.828 Y37.417
G1 X10.858 Y37.392
G1 X10.886 Y37.365
G1 X10.911 Y37.335
G1 X10.933 Y37.303
G1 X10.951 Y37.269
G1 X10.966 Y37.233
G1 X10.978 Y37.196
G1 X10.986 Y37.158
G1 X10.99 Y37.119
G1 Y37.081
G1 X10.986 Y37.042
G1 X10.978 Y37.004
G1 X10.966 Y36.967
G1 X10.951 Y36.931
G1 X10.933 Y36.897
G1 X10.911 Y36.865
G1 X10.886 Y36.835
G1 X10.858 Y36.808
G1 X10.828 Y36.783
G1 X10.795 Y36.762
G1 X10.76 Y36.745
G1 X10.724 Y36.73
G1 X10.687 Y36.72
G1 X10.648 Y36.713
G1 X10.61 Y36.71
G1 X10.571 Y36.711
G1 X10.532 Y36.716
G1 X10.494 Y36.725
G1 X10.458 Y36.737
G1 X10.422 Y36.753
G1 X10.388 Y36.772
G1 X10.357 Y36.795
G1 X10.328 Y36.821
G1 X10.301 Y36.849
G1 X10.278 Y36.88
G1 X10.257 Y36.913
G1 X10.241 Y36.949
G1 X10.227 Y36.985
G1 X10.218 Y37.023
G1 X10.212 Y37.061
G1 X10.21 Y37.1
G0 Z3.0
G0 X10.2 Y36.7
G0 Z1.2
G1 F30.0 Z-0.2
G1 F200.0 X11.0 Y37.5
G0 Z3.0
G0 X10.5 Y36.0
G0 Z1.2
G1 F30.0 Z-0.2
G1 F200.0 X9.7 Y35.2
G0 Z3.0
G0 X9.71 Y35.6
G0 Z1.2
G1 F30.0 Z-0.2
G1 F200.0 X9.712 Y35.639
G1 X9.718 Y35.677
G1 X9.727 Y35.715
G1 X9.741 Y35.751
G1 X9.757 Y35.787
G1 X9.778 Y35.82
G1 X9.801 Y35.851
G1 X9.828 Y35.879
G1 X9.857 Y35.905
G1 X9.888 Y35.928
G1 X9.922 Y35.947
G1 X9.958 Y35.963
G1 X9.994 Y35.975
G1 X10.032 Y35.984
G1 X10.071 Y35.989
G1 X10.11 Y35.99
G1 X10.148 Y35.987
G1 X10.187 Y35.98
G1 X10.224 Y35.97
G1 X10.26 Y35.955
G1 X10.295 Y35.938
G1 X10.328 Y35.917
G1 X10.358 Y35.892
G1 X10.386 Y35.865
G1 X10.411 Y35.835
G1 X10.433 Y35.803
G1 X10.451 Y35.769
G1 X10.466 Y35.733
G1 X10.478 Y35.696
G1 X10.486 Y35.658
G1 X10.49 Y35.619
G1 Y35.581
G1 X10.486 Y35.542
G1 X10.478 Y35.504
G1 X10.466 Y35.467
G1 X10.451 Y35.431
G1 X10.433 Y35.397
G1 X10.411 Y35.365
G1 X10.386 Y35.335
G1 X10.358 Y35.308
G1 X10.328 Y35.283
G1 X10.295 Y35.262
G1 X10.26 Y35.245
G1 X10.224 Y35.23
G1 X10.187 Y35.22
G1 X10.148 Y35.213
G1 X10.11 Y35.21
G1 X10.071 Y35.211
G1 X10.032 Y35.216
G1 X9.994 Y35.225
G1 X9.958 Y35.237
G1 X9.922 Y35.253
G1 X9.888 Y35.272
G1 X9.857 Y35.295
G1 X9.828 Y35.321
G1 X9.801 Y35.349
G1 X9.778 Y35.38
G1 X9.757 Y35.413
G1 X9.741 Y35.449
G1 X9.727 Y35.485
G1 X9.718 Y35.523
G1 X9.712 Y35.561
G1 X9.71 Y35.6
G0 Z3.0
G0 X10.1
G0 Z1.2
G1 F30.0 Z-0.2
G1 F200.0 Y36.12
G0 Z3.0
G0 X11.1 Y34.1
G0 Z0.8
G1 F30.0 Z-0.2
G1 F200.0 X12.1
G0 Z3.0
G0 X11.71
G0 Z1.2
G1 F30.0 Z-0.2
G1 F200.0 X11.712 Y34.139
G1 X11.718 Y34.177
G1 X11.727 Y34.215
G1 X11.741 Y34.251
G1 X11.757 Y34.287
G1 X11.778 Y34.32
G1 X11.801 Y34.351
G1 X11.828 Y34.379
G1 X11.857 Y34.405
G1 X11.888 Y34.428
G1 X11.922 Y34.447
G1 X11.958 Y34.463
G1 X11.994 Y34.475
G1 X12.032 Y34.484
G1 X12.071 Y34.489
G1 X12.11 Y34.49
G1 X12.148 Y34.487
G1 X12.187 Y34.48
G1 X12.224 Y34.47
G1 X12.26 Y34.455
G1 X12.295 Y34.438
G1 X12.328 Y34.417
G1 X12.358 Y34.392
G1 X12.386 Y34.365
G1 X12.411 Y34.335
G1 X12.433 Y34.303
G1 X12.451 Y34.269
G1 X12.466 Y34.233
G1 X12.478 Y34.196
G1 X12.486 Y34.158
G1 X12.49 Y34.119
G1 Y34.081
G1 X12.486 Y34.042
G1 X12.478 Y34.004
G1 X12.466 Y33.967
G1 X12.451 Y33.931
G1 X12.433 Y33.897
G1 X12.411 Y33.865
G1 X12.386 Y33.835
G1 X12.358 Y33.808
G1 X12.328 Y33.783
G1 X12.295 Y33.762
G1 X12.26 Y33.745
G1 X12.224 Y33.73
G1 X12.187 Y33.72
G1 X12.148 Y33.713
G1 X12.11 Y33.71
G1 X12.071 Y33.711
G1 X12.032 Y33.716
G1 X11.994 Y33.725
G1 X11.958 Y33.737
G1 X11.922 Y33.753
G1 X11.888 Y33.772
G1 X11.857 Y33.795
G1 X11.828 Y33.821
G1 X11.801 Y33.849
G1 X11.778 Y33.88
G1 X11.757 Y33.913
G1 X11.741 Y33.949
G1 X11.727 Y33.985
G1 X11.718 Y34.023
G1 X11.712 Y34.061
G1 X11.71 Y34.1
G0 Z3.0
G0 X11.7 Y33.7
G0 Z1.2
G1 F30.0 Z-0.2
G1 F200.0 X12.5 Y34.5
G0 Z3.0
G0 X10.5 Y33.0
G0 Z1.2
G1 F30.0 Z-0.2
G1 F200.0 X9.7 Y32.2
G0 Z3.0
G0 X9.71 Y32.6
G0 Z1.2
G1 F30.0 Z-0.2
G1 F200.0 X9.712 Y32.639
G1 X9.718 Y32.677
G1 X9.727 Y32.715
G1 X9.741 Y32.751
G1 X9.757 Y32.787
G1 X9.778 Y32.82
G1 X9.801 Y32.851
G1 X9.828 Y32.879
G1 X9.857 Y32.905
G1 X9.888 Y32.928
G1 X9.922 Y32.947
G1 X9.958 Y32.963
G1 X9.994 Y32.975
G1 X10.032 Y32.984
G1 X10.071 Y32.989
G1 X10.11 Y32.99
G1 X10.148 Y32.987
G1 X10.187 Y32.98
G1 X10.224 Y32.97
G1 X10.26 Y32.955
G1 X10.295 Y32.938
G1 X10.328 Y32.917
G1 X10.358 Y32.892
G1 X10.386 Y32.865
G1 X10.411 Y32.835
G1 X10.433 Y32.803
G1 X10.451 Y32.769
G1 X10.466 Y32.733
G1 X10.478 Y32.696
G1 X10.486 Y32.658
G1 X10.49 Y32.619
G1 Y32.581
G1 X10.486 Y32.542
G1 X10.478 Y32.504
G1 X10.466 Y32.467
G1 X10.451 Y32.431
G1 X10.433 Y32.397
G1 X10.411 Y32.365
G1 X10.386 Y32.335
G1 X10.358 Y32.308
G1 X10.328 Y32.283
G1 X10.295 Y32.262
G1 X10.26 Y32.245
G1 X10.224 Y32.23
G1 X10.187 Y32.22
G1 X10.148 Y32.213
G1 X10.11 Y32.21
G1 X10.071 Y32.211
G1 X10.032 Y32.216
G1 X9.994 Y32.225
G1 X9.958 Y32.237
G1 X9.922 Y32.253
G1 X9.888 Y32.272
G1 X9.857 Y32.295
G1 X9.828 Y32.321
G1 X9.801 Y32.349
G1 X9.778 Y32.38
G1 X9.757 Y32.413
G1 X9.741 Y32.449
G1 X9.727 Y32.485
G1 X9.718 Y32.523
G1 X9.712 Y32.561
G1 X9.71 Y32.6
G0 Z3.0
G0 X10.1
G0 Z1.2
G1 F30.0 Z-0.2
G1 F200.0 Y32.08
G0 Z3.0
G0 Y32.6
G0 Z0.8
G1 F30.0 Z-0.2
G1 F200.0 X10.6
G1 Y30.6
G0 Z3.0
G0 X10.21
G0 Z1.2
G1 F30.0 Z-0.2
G1 F200.0 X10.212 Y30.639
G1 X10.218 Y30.677
G1 X10.227 Y30.715
G1 X10.241 Y30.751
G1 X10.257 Y30.787
G1 X10.278 Y30.82
G1 X10.301 Y30.851
G1 X10.328 Y30.879
G1 X10.357 Y30.905
G1 X10.388 Y30.928
G1 X10.422 Y30.947
G1 X10.458 Y30.963
G1 X10.494 Y30.975
G1 X10.532 Y30.984
G1 X10.571 Y30.989
G1 X10.61 Y30.99
G1 X10.648 Y30.987
G1 X10.687 Y30.98
G1 X10.724 Y30.97
G1 X10.76 Y30.955
G1 X10.795 Y30.938
G1 X10.828 Y30.917
G1 X10.858 Y30.892
G1 X10.886 Y30.865
G1 X10.911 Y30.835
G1 X10.933 Y30.803
G1 X10.951 Y30.769
G1 X10.966 Y30.733
G1 X10.978 Y30.696
G1 X10.986 Y30.658
G1 X10.99 Y30.619
G1 Y30.581
G1 X10.986 Y30.542
G1 X10.978 Y30.504
G1 X10.966 Y30.467
G1 X10.951 Y30.431
G1 X10.933 Y30.397
G1 X10.911 Y30.365
G1 X10.886 Y30.335
G1 X10.858 Y30.308
G1 X10.828 Y30.283
G1 X10.795 Y30.262
G1 X10.76 Y30.245
G1 X10.724 Y30.23
G1 X10.687 Y30.22
G1 X10.648 Y30.213
G1 X10.61 Y30.21
G1 X10.571 Y30.211
G1 X10.532 Y30.216
G1 X10.494 Y30.225
G1 X10.458 Y30.237
G1 X10.422 Y30.253
G1 X10.388 Y30.272
G1 X10.357 Y30.295
G1 X10.328 Y30.321
G1 X10.301 Y30.349
G1 X10.278 Y30.38
G1 X10.257 Y30.413
G1 X10.241 Y30.449
G1 X10.227 Y30.485
G1 X10.218 Y30.523
G1 X10.212 Y30.561
G1 X10.21 Y30.6
G0 Z3.0
G0 X10.2 Y30.2
G0 Z1.2
G1 F30.0 Z-0.2
G1 F200.0 X11.0 Y31.0
G0 Z3.0
G0 X12.7
G0 Z1.2
G1 F30.0 Z-0.2
G1 F200.0 X13.5 Y30.2
G0 Z3.0
G0 X13.1 Y30.1
G0 Z1.2
G1 F30.0 Z-0.2
G1 F200.0 Y30.6
G0 Z3.0
G0 Y30.1
G0 Z0.8
G1 F30.0 Z-0.2
G1 F200.0 X7.6
G1 Y30.6
G1 X8.1
G1 Y32.6
G1 Y32.08
G0 Z3.0
G0 X7.7 Y32.2
G0 Z1.2
G1 F30.0 Z-0.2
G1 F200.0 X8.5 Y33.0
G0 Z3.0
G0 X8.71 Y32.6
G0 Z1.2
G1 F30.0 Z-0.2
G1 F200.0 X8.712 Y32.639
G1 X8.718 Y32.677
G1 X8.727 Y32.715
G1 X8.741 Y32.751
G1 X8.757 Y32.787
G1 X8.778 Y32.82
G1 X8.801 Y32.851
G1 X8.828 Y32.879
G1 X8.857 Y32.905
G1 X8.888 Y32.928
G1 X8.922 Y32.947
G1 X8.958 Y32.963
G1 X8.994 Y32.975
G1 X9.032 Y32.984
G1 X9.071 Y32.989
G1 X9.11 Y32.99
G1 X9.148 Y32.987
G1 X9.187 Y32.98
G1 X9.224 Y32.97
G1 X9.26 Y32.955
G1 X9.295 Y32.938
G1 X9.328 Y32.917
G1 X9.358 Y32.892
G1 X9.386 Y32.865
G1 X9.411 Y32.835
G1 X9.433 Y32.803
G1 X9.451 Y32.769
G1 X9.466 Y32.733
G1 X9.478 Y32.696
G1 X9.486 Y32.658
G1 X9.49 Y32.619
G1 Y32.581
G1 X9.486 Y32.542
G1 X9.478 Y32.504
G1 X9.466 Y32.467
G1 X9.451 Y32.431
G1 X9.433 Y32.397
G1 X9.411 Y32.365
G1 X9.386 Y32.335
G1 X9.358 Y32.308
G1 X9.328 Y32.283
G1 X9.295 Y32.262
G1 X9.26 Y32.245
G1 X9.224 Y32.23
G1 X9.187 Y32.22
G1 X9.148 Y32.213
G1 X9.11 Y32.21
G1 X9.071 Y32.211
G1 X9.032 Y32.216
G1 X8.994 Y32.225
G1 X8.958 Y32.237
G1 X8.922 Y32.253
G1 X8.888 Y32.272
G1 X8.857 Y32.295
G1 X8.828 Y32.321
G1 X8.801 Y32.349
G1 X8.778 Y32.38
G1 X8.757 Y32.413
G1 X8.741 Y32.449
G1 X8.727 Y32.485
G1 X8.718 Y32.523
G1 X8.712 Y32.561
G1 X8.71 Y32.6
G0 Z3.0
G0 X9.1
G0 Z1.2
G1 F30.0 Z-0.2
G1 F200.0 Y32.08
G0 Z3.0
G0 X8.7 Y32.2
G0 Z1.2
G1 F30.0 Z-0.2
G1 F200.0 X9.5 Y33.0
G0 Z3.0
G0 X7.71 Y32.6
G0 Z1.2
G1 F30.0 Z-0.2
G1 F200.0 X7.712 Y32.639
G1 X7.718 Y32.677
G1 X7.727 Y32.715
G1 X7.741 Y32.751
G1 X7.757 Y32.787
G1 X7.778 Y32.82
G1 X7.801 Y32.851
G1 X7.828 Y32.879
G1 X7.857 Y32.905
G1 X7.888 Y32.928
G1 X7.922 Y32.947
G1 X7.958 Y32.963
G1 X7.994 Y32.975
G1 X8.032 Y32.984
G1 X8.071 Y32.989
G1 X8.11 Y32.99
G1 X8.148 Y32.987
G1 X8.187 Y32.98
G1 X8.224 Y32.97
G1 X8.26 Y32.955
G1 X8.295 Y32.938
G1 X8.328 Y32.917
G1 X8.358 Y32.892
G1 X8.386 Y32.865
G1 X8.411 Y32.835
G1 X8.433 Y32.803
G1 X8.451 Y32.769
G1 X8.466 Y32.733
G1 X8.478 Y32.696
G1 X8.486 Y32.658
G1 X8.49 Y32.619
G1 Y32.581
G1 X8.486 Y32.542
G1 X8.478 Y32.504
G1 X8.466 Y32.467
G1 X8.451 Y32.431
G1 X8.433 Y32.397
G1 X8.411 Y32.365
G1 X8.386 Y32.335
G1 X8.358 Y32.308
G1 X8.328 Y32.283
G1 X8.295 Y32.262
G1 X8.26 Y32.245
G1 X8.224 Y32.23
G1 X8.187 Y32.22
G1 X8.148 Y32.213
G1 X8.11 Y32.21
G1 X8.071 Y32.211
G1 X8.032 Y32.216
G1 X7.994 Y32.225
G1 X7.958 Y32.237
G1 X7.922 Y32.253
G1 X7.888 Y32.272
G1 X7.857 Y32.295
G1 X7.828 Y32.321
G1 X7.801 Y32.349
G1 X7.778 Y32.38
G1 X7.757 Y32.413
G1 X7.741 Y32.449
G1 X7.727 Y32.485
G1 X7.718 Y32.523
G1 X7.712 Y32.561
G1 X7.71 Y32.6
G0 Z3.0
G0 X7.5 Y33.0
G0 Z1.2
G1 F30.0 Z-0.2
G1 F200.0 X6.7 Y32.2
G0 Z3.0
G0 X6.71 Y32.6
G0 Z1.2
G1 F30.0 Z-0.2
G1 F200.0 X6.712 Y32.639
G1 X6.718 Y32.677
G1 X6.727 Y32.715
G1 X6.741 Y32.751
G1 X6.757 Y32.787
G1 X6.778 Y32.82
G1 X6.801 Y32.851
G1 X6.828 Y32.879
G1 X6.857 Y32.905
G1 X6.888 Y32.928
G1 X6.922 Y32.947
G1 X6.958 Y32.963
G1 X6.994 Y32.975
G1 X7.032 Y32.984
G1 X7.071 Y32.989
G1 X7.11 Y32.99
G1 X7.148 Y32.987
G1 X7.187 Y32.98
G1 X7.224 Y32.97
G1 X7.26 Y32.955
G1 X7.295 Y32.938
G1 X7.328 Y32.917
G1 X7.358 Y32.892
G1 X7.386 Y32.865
G1 X7.411 Y32.835
G1 X7.433 Y32.803
G1 X7.451 Y32.769
G1 X7.466 Y32.733
G1 X7.478 Y32.696
G1 X7.486 Y32.658
G1 X7.49 Y32.619
G1 Y32.581
G1 X7.486 Y32.542
G1 X7.478 Y32.504
G1 X7.466 Y32.467
G1 X7.451 Y32.431
G1 X7.433 Y32.397
G1 X7.411 Y32.365
G1 X7.386 Y32.335
G1 X7.358 Y32.308
G1 X7.328 Y32.283
G1 X7.295 Y32.262
G1 X7.26 Y32.245
G1 X7.224 Y32.23
G1 X7.187 Y32.22
G1 X7.148 Y32.213
G1 X7.11 Y32.21
G1 X7.071 Y32.211
G1 X7.032 Y32.216
G1 X6.994 Y32.225
G1 X6.958 Y32.237
G1 X6.922 Y32.253
G1 X6.888 Y32.272
G1 X6.857 Y32.295
G1 X6.828 Y32.321
G1 X6.801 Y32.349
G1 X6.778 Y32.38
G1 X6.757 Y32.413
G1 X6.741 Y32.449
G1 X6.727 Y32.485
G1 X6.718 Y32.523
G1 X6.712 Y32.561
G1 X6.71 Y32.6
G0 Z3.0
G0 X7.1
G0 Z1.2
G1 F30.0 Z-0.2
G1 F200.0 Y32.08
G0 Z3.0
G0 X6.0 Y32.5
G0 Z1.2
G1 F30.0 Z-0.2
G1 F200.0 X5.2 Y31.7
G0 Z3.0
G0 X5.21 Y32.1
G0 Z1.2
G1 F30.0 Z-0.2
G1 F200.0 X5.212 Y32.139
G1 X5.218 Y32.177
G1 X5.227 Y32.215
G1 X5.241 Y32.251
G1 X5.257 Y32.287
G1 X5.278 Y32.32
G1 X5.301 Y32.351
G1 X5.328 Y32.379
G1 X5.357 Y32.405
G1 X5.388 Y32.428
G1 X5.422 Y32.447
G1 X5.458 Y32.463
G1 X5.494 Y32.475
G1 X5.532 Y32.484
G1 X5.571 Y32.489
G1 X5.61 Y32.49
G1 X5.648 Y32.487
G1 X5.687 Y32.48
G1 X5.724 Y32.47
G1 X5.76 Y32.455
G1 X5.795 Y32.438
G1 X5.828 Y32.417
G1 X5.858 Y32.392
G1 X5.886 Y32.365
G1 X5.911 Y32.335
G1 X5.933 Y32.303
G1 X5.951 Y32.269
G1 X5.966 Y32.233
G1 X5.978 Y32.196
G1 X5.986 Y32.158
G1 X5.99 Y32.119
G1 Y32.081
G1 X5.986 Y32.042
G1 X5.978 Y32.004
G1 X5.966 Y31.967
G1 X5.951 Y31.931
G1 X5.933 Y31.897
G1 X5.911 Y31.865
G1 X5.886 Y31.835
G1 X5.858 Y31.808
G1 X5.828 Y31.783
G1 X5.795 Y31.762
G1 X5.76 Y31.745
G1 X5.724 Y31.73
G1 X5.687 Y31.72
G1 X5.648 Y31.713
G1 X5.61 Y31.71
G1 X5.571 Y31.711
G1 X5.532 Y31.716
G1 X5.494 Y31.725
G1 X5.458 Y31.737
G1 X5.422 Y31.753
G1 X5.388 Y31.772
G1 X5.357 Y31.795
G1 X5.328 Y31.821
G1 X5.301 Y31.849
G1 X5.278 Y31.88
G1 X5.257 Y31.913
G1 X5.241 Y31.949
G1 X5.227 Y31.985
G1 X5.218 Y32.023
G1 X5.212 Y32.061
G1 X5.21 Y32.1
G0 Z3.0
G0 X6.0 Y31.5
G0 Z1.2
G1 F30.0 Z-0.2
G1 F200.0 X5.2 Y30.7
G0 Z3.0
G0 X5.21 Y31.1
G0 Z1.2
G1 F30.0 Z-0.2
G1 F200.0 X5.212 Y31.139
G1 X5.218 Y31.177
G1 X5.227 Y31.215
G1 X5.241 Y31.251
G1 X5.257 Y31.287
G1 X5.278 Y31.32
G1 X5.301 Y31.351
G1 X5.328 Y31.379
G1 X5.357 Y31.405
G1 X5.388 Y31.428
G1 X5.422 Y31.447
G1 X5.458 Y31.463
G1 X5.494 Y31.475
G1 X5.532 Y31.484
G1 X5.571 Y31.489
G1 X5.61 Y31.49
G1 X5.648 Y31.487
G1 X5.687 Y31.48
G1 X5.724 Y31.47
G1 X5.76 Y31.455
G1 X5.795 Y31.438
G1 X5.828 Y31.417
G1 X5.858 Y31.392
G1 X5.886 Y31.365
G1 X5.911 Y31.335
G1 X5.933 Y31.303
G1 X5.951 Y31.269
G1 X5.966 Y31.233
G1 X5.978 Y31.196
G1 X5.986 Y31.158
G1 X5.99 Y31.119
G1 Y31.081
G1 X5.986 Y31.042
G1 X5.978 Y31.004
G1 X5.966 Y30.967
G1 X5.951 Y30.931
G1 X5.933 Y30.897
G1 X5.911 Y30.865
G1 X5.886 Y30.835
G1 X5.858 Y30.808
G1 X5.828 Y30.783
G1 X5.795 Y30.762
G1 X5.76 Y30.745
G1 X5.724 Y30.73
G1 X5.687 Y30.72
G1 X5.648 Y30.713
G1 X5.61 Y30.71
G1 X5.571 Y30.711
G1 X5.532 Y30.716
G1 X5.494 Y30.725
G1 X5.458 Y30.737
G1 X5.422 Y30.753
G1 X5.388 Y30.772
G1 X5.357 Y30.795
G1 X5.328 Y30.821
G1 X5.301 Y30.849
G1 X5.278 Y30.88
G1 X5.257 Y30.913
G1 X5.241 Y30.949
G1 X5.227 Y30.985
G1 X5.218 Y31.023
G1 X5.212 Y31.061
G1 X5.21 Y31.1
G0 Z3.0
G0 X6.0 Y30.5
G0 Z1.2
G1 F30.0 Z-0.2
G1 F200.0 X5.2 Y29.7
G0 Z3.0
G0 X5.21 Y30.1
G0 Z1.2
G1 F30.0 Z-0.2
G1 F200.0 X5.212 Y30.139
G1 X5.218 Y30.177
G1 X5.227 Y30.215
G1 X5.241 Y30.251
G1 X5.257 Y30.287
G1 X5.278 Y30.32
G1 X5.301 Y30.351
G1 X5.328 Y30.379
G1 X5.357 Y30.405
G1 X5.388 Y30.428
G1 X5.422 Y30.447
G1 X5.458 Y30.463
G1 X5.494 Y30.475
G1 X5.532 Y30.484
G1 X5.571 Y30.489
G1 X5.61 Y30.49
G1 X5.648 Y30.487
G1 X5.687 Y30.48
G1 X5.724 Y30.47
G1 X5.76 Y30.455
G1 X5.795 Y30.438
G1 X5.828 Y30.417
G1 X5.858 Y30.392
G1 X5.886 Y30.365
G1 X5.911 Y30.335
G1 X5.933 Y30.303
G1 X5.951 Y30.269
G1 X5.966 Y30.233
G1 X5.978 Y30.196
G1 X5.986 Y30.158
G1 X5.99 Y30.119
G1 Y30.081
G1 X5.986 Y30.042
G1 X5.978 Y30.004
G1 X5.966 Y29.967
G1 X5.951 Y29.931
G1 X5.933 Y29.897
G1 X5.911 Y29.865
G1 X5.886 Y29.835
G1 X5.858 Y29.808
G1 X5.828 Y29.783
G1 X5.795 Y29.762
G1 X5.76 Y29.745
G1 X5.724 Y29.73
G1 X5.687 Y29.72
G1 X5.648 Y29.713
G1 X5.61 Y29.71
G1 X5.571 Y29.711
G1 X5.532 Y29.716
G1 X5.494 Y29.725
G1 X5.458 Y29.737
G1 X5.422 Y29.753
G1 X5.388 Y29.772
G1 X5.357 Y29.795
G1 X5.328 Y29.821
G1 X5.301 Y29.849
G1 X5.278 Y29.88
G1 X5.257 Y29.913
G1 X5.241 Y29.949
G1 X5.227 Y29.985
G1 X5.218 Y30.023
G1 X5.212 Y30.061
G1 X5.21 Y30.1
G0 Z3.0
G0 X6.0 Y29.5
G0 Z1.2
G1 F30.0 Z-0.2
G1 F200.0 X5.2 Y28.7
G0 Z3.0
G0 X5.21 Y29.1
G0 Z1.2
G1 F30.0 Z-0.2
G1 F200.0 X5.212 Y29.139
G1 X5.218 Y29.177
G1 X5.227 Y29.215
G1 X5.241 Y29.251
G1 X5.257 Y29.287
G1 X5.278 Y29.32
G1 X5.301 Y29.351
G1 X5.328 Y29.379
G1 X5.357 Y29.405
G1 X5.388 Y29.428
G1 X5.422 Y29.447
G1 X5.458 Y29.463
G1 X5.494 Y29.475
G1 X5.532 Y29.484
G1 X5.571 Y29.489
G1 X5.61 Y29.49
G1 X5.648 Y29.487
G1 X5.687 Y29.48
G1 X5.724 Y29.47
G1 X5.76 Y29.455
G1 X5.795 Y29.438
G1 X5.828 Y29.417
G1 X5.858 Y29.392
G1 X5.886 Y29.365
G1 X5.911 Y29.335
G1 X5.933 Y29.303
G1 X5.951 Y29.269
G1 X5.966 Y29.233
G1 X5.978 Y29.196
G1 X5.986 Y29.158
G1 X5.99 Y29.119
G1 Y29.081
G1 X5.986 Y29.042
G1 X5.978 Y29.004
G1 X5.966 Y28.967
G1 X5.951 Y28.931
G1 X5.933 Y28.897
G1 X5.911 Y28.865
G1 X5.886 Y28.835
G1 X5.858 Y28.808
G1 X5.828 Y28.783
G1 X5.795 Y28.762
G1 X5.76 Y28.745
G1 X5.724 Y28.73
G1 X5.687 Y28.72
G1 X5.648 Y28.713
G1 X5.61 Y28.71
G1 X5.571 Y28.711
G1 X5.532 Y28.716
G1 X5.494 Y28.725
G1 X5.458 Y28.737
G1 X5.422 Y28.753
G1 X5.388 Y28.772
G1 X5.357 Y28.795
G1 X5.328 Y28.821
G1 X5.301 Y28.849
G1 X5.278 Y28.88
G1 X5.257 Y28.913
G1 X5.241 Y28.949
G1 X5.227 Y28.985
G1 X5.218 Y29.023
G1 X5.212 Y29.061
G1 X5.21 Y29.1
G0 Z3.0
G0 X6.0 Y28.5
G0 Z1.2
G1 F30.0 Z-0.2
G1 F200.0 X5.2 Y27.7
G0 Z3.0
G0 X5.21 Y28.1
G0 Z1.2
G1 F30.0 Z-0.2
G1 F200.0 X5.212 Y28.139
G1 X5.218 Y28.177
G1 X5.227 Y28.215
G1 X5.241 Y28.251
G1 X5.257 Y28.287
G1 X5.278 Y28.32
G1 X5.301 Y28.351
G1 X5.328 Y28.379
G1 X5.357 Y28.405
G1 X5.388 Y28.428
G1 X5.422 Y28.447
G1 X5.458 Y28.463
G1 X5.494 Y28.475
G1 X5.532 Y28.484
G1 X5.571 Y28.489
G1 X5.61 Y28.49
G1 X5.648 Y28.487
G1 X5.687 Y28.48
G1 X5.724 Y28.47
G1 X5.76 Y28.455
G1 X5.795 Y28.438
G1 X5.828 Y28.417
G1 X5.858 Y28.392
G1 X5.886 Y28.365
G1 X5.911 Y28.335
G1 X5.933 Y28.303
G1 X5.951 Y28.269
G1 X5.966 Y28.233
G1 X5.978 Y28.196
G1 X5.986 Y28.158
G1 X5.99 Y28.119
G1 Y28.081
G1 X5.986 Y28.042
G1 X5.978 Y28.004
G1 X5.966 Y27.967
G1 X5.951 Y27.931
G1 X5.933 Y27.897
G1 X5.911 Y27.865
G1 X5.886 Y27.835
G1 X5.858 Y27.808
G1 X5.828 Y27.783
G1 X5.795 Y27.762
G1 X5.76 Y27.745
G1 X5.724 Y27.73
G1 X5.687 Y27.72
G1 X5.648 Y27.713
G1 X5.61 Y27.71
G1 X5.571 Y27.711
G1 X5.532 Y27.716
G1 X5.494 Y27.725
G1 X5.458 Y27.737
G1 X5.422 Y27.753
G1 X5.388 Y27.772
G1 X5.357 Y27.795
G1 X5.328 Y27.821
G1 X5.301 Y27.849
G1 X5.278 Y27.88
G1 X5.257 Y27.913
G1 X5.241 Y27.949
G1 X5.227 Y27.985
G1 X5.218 Y28.023
G1 X5.212 Y28.061
G1 X5.21 Y28.1
G0 Z3.0
G0 X6.0 Y27.5
G0 Z1.2
G1 F30.0 Z-0.2
G1 F200.0 X5.2 Y26.7
G0 Z3.0
G0 X5.21 Y27.1
G0 Z1.2
G1 F30.0 Z-0.2
G1 F200.0 X5.212 Y27.139
G1 X5.218 Y27.177
G1 X5.227 Y27.215
G1 X5.241 Y27.251
G1 X5.257 Y27.287
G1 X5.278 Y27.32
G1 X5.301 Y27.351
G1 X5.328 Y27.379
G1 X5.357 Y27.405
G1 X5.388 Y27.428
G1 X5.422 Y27.447
G1 X5.458 Y27.463
G1 X5.494 Y27.475
G1 X5.532 Y27.484
G1 X5.571 Y27.489
G1 X5.61 Y27.49
G1 X5.648 Y27.487
G1 X5.687 Y27.48
G1 X5.724 Y27.47
G1 X5.76 Y27.455
G1 X5.795 Y27.438
G1 X5.828 Y27.417
G1 X5.858 Y27.392
G1 X5.886 Y27.365
G1 X5.911 Y27.335
G1 X5.933 Y27.303
G1 X5.951 Y27.269
G1 X5.966 Y27.233
G1 X5.978 Y27.196
G1 X5.986 Y27.158
G1 X5.99 Y27.119
G1 Y27.081
G1 X5.986 Y27.042
G1 X5.978 Y27.004
G1 X5.966 Y26.967
G1 X5.951 Y26.931
G1 X5.933 Y26.897
G1 X5.911 Y26.865
G1 X5.886 Y26.835
G1 X5.858 Y26.808
G1 X5.828 Y26.783
G1 X5.795 Y26.762
G1 X5.76 Y26.745
G1 X5.724 Y26.73
G1 X5.687 Y26.72
G1 X5.648 Y26.713
G1 X5.61 Y26.71
G1 X5.571 Y26.711
G1 X5.532 Y26.716
G1 X5.494 Y26.725
G1 X5.458 Y26.737
G1 X5.422 Y26.753
G1 X5.388 Y26.772
G1 X5.357 Y26.795
G1 X5.328 Y26.821
G1 X5.301 Y26.849
G1 X5.278 Y26.88
G1 X5.257 Y26.913
G1 X5.241 Y26.949
G1 X5.227 Y26.985
G1 X5.218 Y27.023
G1 X5.212 Y27.061
G1 X5.21 Y27.1
G0 Z3.0
G0 X6.0 Y25.5
G0 Z1.2
G1 F30.0 Z-0.2
G1 F200.0 X5.2 Y24.7
G0 Z3.0
G0 X5.21 Y25.1
G0 Z1.2
G1 F30.0 Z-0.2
G1 F200.0 X5.212 Y25.139
G1 X5.218 Y25.177
G1 X5.227 Y25.215
G1 X5.241 Y25.251
G1 X5.257 Y25.287
G1 X5.278 Y25.32
G1 X5.301 Y25.351
G1 X5.328 Y25.379
G1 X5.357 Y25.405
G1 X5.388 Y25.428
G1 X5.422 Y25.447
G1 X5.458 Y25.463
G1 X5.494 Y25.475
G1 X5.532 Y25.484
G1 X5.571 Y25.489
G1 X5.61 Y25.49
G1 X5.648 Y25.487
G1 X5.687 Y25.48
G1 X5.724 Y25.47
G1 X5.76 Y25.455
G1 X5.795 Y25.438
G1 X5.828 Y25.417
G1 X5.858 Y25.392
G1 X5.886 Y25.365
G1 X5.911 Y25.335
G1 X5.933 Y25.303
G1 X5.951 Y25.269
G1 X5.966 Y25.233
G1 X5.978 Y25.196
G1 X5.986 Y25.158
G1 X5.99 Y25.119
G1 Y25.081
G1 X5.986 Y25.042
G1 X5.978 Y25.004
G1 X5.966 Y24.967
G1 X5.951 Y24.931
G1 X5.933 Y24.897
G1 X5.911 Y24.865
G1 X5.886 Y24.835
G1 X5.858 Y24.808
G1 X5.828 Y24.783
G1 X5.795 Y24.762
G1 X5.76 Y24.745
G1 X5.724 Y24.73
G1 X5.687 Y24.72
G1 X5.648 Y24.713
G1 X5.61 Y24.71
G1 X5.571 Y24.711
G1 X5.532 Y24.716
G1 X5.494 Y24.725
G1 X5.458 Y24.737
G1 X5.422 Y24.753
G1 X5.388 Y24.772
G1 X5.357 Y24.795
G1 X5.328 Y24.821
G1 X5.301 Y24.849
G1 X5.278 Y24.88
G1 X5.257 Y24.913
G1 X5.241 Y24.949
G1 X5.227 Y24.985
G1 X5.218 Y25.023
G1 X5.212 Y25.061
G1 X5.21 Y25.1
G0 Z3.0
G0 X5.6
G0 Z1.2
G1 F30.0 Z-0.2
G1 F200.0 X3.1
G0 Z3.0
G0 X3.4
G0 Z1.2
G1 F30.0 Z-0.2
G1 F200.0 X2.8
G1 F30.0 X2.71
G1 F200.0 X2.712 Y25.139
G1 X2.718 Y25.177
G1 X2.727 Y25.215
G1 X2.741 Y25.251
G1 X2.757 Y25.287
G1 X2.778 Y25.32
G1 X2.801 Y25.351
G1 X2.828 Y25.379
G1 X2.857 Y25.405
G1 X2.888 Y25.428
G1 X2.922 Y25.447
G1 X2.958 Y25.463
G1 X2.994 Y25.475
G1 X3.032 Y25.484
G1 X3.071 Y25.489
G1 X3.11 Y25.49
G1 X3.148 Y25.487
G1 X3.187 Y25.48
G1 X3.224 Y25.47
G1 X3.26 Y25.455
G1 X3.295 Y25.438
G1 X3.328 Y25.417
G1 X3.358 Y25.392
G1 X3.386 Y25.365
G1 X3.411 Y25.335
G1 X3.433 Y25.303
G1 X3.451 Y25.269
G1 X3.466 Y25.233
G1 X3.478 Y25.196
G1 X3.486 Y25.158
G1 X3.49 Y25.119
G1 Y25.081
G1 X3.486 Y25.042
G1 X3.478 Y25.004
G1 X3.466 Y24.967
G1 X3.451 Y24.931
G1 X3.433 Y24.897
G1 X3.411 Y24.865
G1 X3.386 Y24.835
G1 X3.358 Y24.808
G1 X3.328 Y24.783
G1 X3.295 Y24.762
G1 X3.26 Y24.745
G1 X3.224 Y24.73
G1 X3.187 Y24.72
G1 X3.148 Y24.713
G1 X3.11 Y24.71
G1 X3.071 Y24.711
G1 X3.032 Y24.716
G1 X2.994 Y24.725
G1 X2.958 Y24.737
G1 X2.922 Y24.753
G1 X2.888 Y24.772
G1 X2.857 Y24.795
G1 X2.828 Y24.821
G1 X2.801 Y24.849
G1 X2.778 Y24.88
G1 X2.757 Y24.913
G1 X2.741 Y24.949
G1 X2.727 Y24.985
G1 X2.718 Y25.023
G1 X2.712 Y25.061
G1 X2.71 Y25.1
G0 Z3.0
G0 X2.7 Y24.7
G0 Z1.2
G1 F30.0 Z-0.2
G1 F200.0 X3.5 Y25.5
G0 Z3.0
G0 Y24.5
G0 Z1.2
G1 F30.0 Z-0.2
G1 F200.0 X2.7 Y23.7
G0 Z3.0
G0 X2.71 Y24.1
G0 Z1.2
G1 F30.0 Z-0.2
G1 F200.0 X2.712 Y24.139
G1 X2.718 Y24.177
G1 X2.727 Y24.215
G1 X2.741 Y24.251
G1 X2.757 Y24.287
G1 X2.778 Y24.32
G1 X2.801 Y24.351
G1 X2.828 Y24.379
G1 X2.857 Y24.405
G1 X2.888 Y24.428
G1 X2.922 Y24.447
G1 X2.958 Y24.463
G1 X2.994 Y24.475
G1 X3.032 Y24.484
G1 X3.071 Y24.489
G1 X3.11 Y24.49
G1 X3.148 Y24.487
G1 X3.187 Y24.48
G1 X3.224 Y24.47
G1 X3.26 Y24.455
G1 X3.295 Y24.438
G1 X3.328 Y24.417
G1 X3.358 Y24.392
G1 X3.386 Y24.365
G1 X3.411 Y24.335
G1 X3.433 Y24.303
G1 X3.451 Y24.269
G1 X3.466 Y24.233
G1 X3.478 Y24.196
G1 X3.486 Y24.158
G1 X3.49 Y24.119
G1 Y24.081
G1 X3.486 Y24.042
G1 X3.478 Y24.004
G1 X3.466 Y23.967
G1 X3.451 Y23.931
G1 X3.433 Y23.897
G1 X3.411 Y23.865
G1 X3.386 Y23.835
G1 X3.358 Y23.808
G1 X3.328 Y23.783
G1 X3.295 Y23.762
G1 X3.26 Y23.745
G1 X3.224 Y23.73
G1 X3.187 Y23.72
G1 X3.148 Y23.713
G1 X3.11 Y23.71
G1 X3.071 Y23.711
G1 X3.032 Y23.716
G1 X2.994 Y23.725
G1 X2.958 Y23.737
G1 X2.922 Y23.753
G1 X2.888 Y23.772
G1 X2.857 Y23.795
G1 X2.828 Y23.821
G1 X2.801 Y23.849
G1 X2.778 Y23.88
G1 X2.757 Y23.913
G1 X2.741 Y23.949
G1 X2.727 Y23.985
G1 X2.718 Y24.023
G1 X2.712 Y24.061
G1 X2.71 Y24.1
G1 F30.0 X2.8
G1 F200.0 X3.4
G0 Z3.0
G0 X3.1
G0 Z1.2
G1 F30.0 Z-0.2
G1 F200.0 X5.6
G0 Z3.0
G0 X5.21
G0 Z1.2
G1 F30.0 Z-0.2
G1 F200.0 X5.212 Y24.139
G1 X5.218 Y24.177
G1 X5.227 Y24.215
G1 X5.241 Y24.251
G1 X5.257 Y24.287
G1 X5.278 Y24.32
G1 X5.301 Y24.351
G1 X5.328 Y24.379
G1 X5.357 Y24.405
G1 X5.388 Y24.428
G1 X5.422 Y24.447
G1 X5.458 Y24.463
G1 X5.494 Y24.475
G1 X5.532 Y24.484
G1 X5.571 Y24.489
G1 X5.61 Y24.49
G1 X5.648 Y24.487
G1 X5.687 Y24.48
G1 X5.724 Y24.47
G1 X5.76 Y24.455
G1 X5.795 Y24.438
G1 X5.828 Y24.417
G1 X5.858 Y24.392
G1 X5.886 Y24.365
G1 X5.911 Y24.335
G1 X5.933 Y24.303
G1 X5.951 Y24.269
G1 X5.966 Y24.233
G1 X5.978 Y24.196
G1 X5.986 Y24.158
G1 X5.99 Y24.119
G1 Y24.081
G1 X5.986 Y24.042
G1 X5.978 Y24.004
G1 X5.966 Y23.967
G1 X5.951 Y23.931
G1 X5.933 Y23.897
G1 X5.911 Y23.865
G1 X5.886 Y23.835
G1 X5.858 Y23.808
G1 X5.828 Y23.783
G1 X5.795 Y23.762
G1 X5.76 Y23.745
G1 X5.724 Y23.73
G1 X5.687 Y23.72
G1 X5.648 Y23.713
G1 X5.61 Y23.71
G1 X5.571 Y23.711
G1 X5.532 Y23.716
G1 X5.494 Y23.725
G1 X5.458 Y23.737
G1 X5.422 Y23.753
G1 X5.388 Y23.772
G1 X5.357 Y23.795
G1 X5.328 Y23.821
G1 X5.301 Y23.849
G1 X5.278 Y23.88
G1 X5.257 Y23.913
G1 X5.241 Y23.949
G1 X5.227 Y23.985
G1 X5.218 Y24.023
G1 X5.212 Y24.061
G1 X5.21 Y24.1
G0 Z3.0
G0 X5.2 Y23.7
G0 Z1.2
G1 F30.0 Z-0.2
G1 F200.0 X6.0 Y24.5
G0 Z3.0
G0 Y23.5
G0 Z1.2
G1 F30.0 Z-0.2
G1 F200.0 X5.2 Y22.7
G0 Z3.0
G0 X5.21 Y23.1
G0 Z1.2
G1 F30.0 Z-0.2
G1 F200.0 X5.212 Y23.139
G1 X5.218 Y23.177
G1 X5.227 Y23.215
G1 X5.241 Y23.251
G1 X5.257 Y23.287
G1 X5.278 Y23.32
G1 X5.301 Y23.351
G1 X5.328 Y23.379
G1 X5.357 Y23.405
G1 X5.388 Y23.428
G1 X5.422 Y23.447
G1 X5.458 Y23.463
G1 X5.494 Y23.475
G1 X5.532 Y23.484
G1 X5.571 Y23.489
G1 X5.61 Y23.49
G1 X5.648 Y23.487
G1 X5.687 Y23.48
G1 X5.724 Y23.47
G1 X5.76 Y23.455
G1 X5.795 Y23.438
G1 X5.828 Y23.417
G1 X5.858 Y23.392
G1 X5.886 Y23.365
G1 X5.911 Y23.335
G1 X5.933 Y23.303
G1 X5.951 Y23.269
G1 X5.966 Y23.233
G1 X5.978 Y23.196
G1 X5.986 Y23.158
G1 X5.99 Y23.119
G1 Y23.081
G1 X5.986 Y23.042
G1 X5.978 Y23.004
G1 X5.966 Y22.967
G1 X5.951 Y22.931
G1 X5.933 Y22.897
G1 X5.911 Y22.865
G1 X5.886 Y22.835
G1 X5.858 Y22.808
G1 X5.828 Y22.783
G1 X5.795 Y22.762
G1 X5.76 Y22.745
G1 X5.724 Y22.73
G1 X5.687 Y22.72
G1 X5.648 Y22.713
G1 X5.61 Y22.71
G1 X5.571 Y22.711
G1 X5.532 Y22.716
G1 X5.494 Y22.725
G1 X5.458 Y22.737
G1 X5.422 Y22.753
G1 X5.388 Y22.772
G1 X5.357 Y22.795
G1 X5.328 Y22.821
G1 X5.301 Y22.849
G1 X5.278 Y22.88
G1 X5.257 Y22.913
G1 X5.241 Y22.949
G1 X5.227 Y22.985
G1 X5.218 Y23.023
G1 X5.212 Y23.061
G1 X5.21 Y23.1
G0 Z3.0
G0 X5.6
G0 Z1.2
G1 F30.0 Z-0.2
G1 F200.0 X3.1
G0 Z3.0
G0 X3.4
G0 Z1.2
G1 F30.0 Z-0.2
G1 F200.0 X2.8
G1 F30.0 X2.71
G1 F200.0 X2.712 Y23.139
G1 X2.718 Y23.177
G1 X2.727 Y23.215
G1 X2.741 Y23.251
G1 X2.757 Y23.287
G1 X2.778 Y23.32
G1 X2.801 Y23.351
G1 X2.828 Y23.379
G1 X2.857 Y23.405
G1 X2.888 Y23.428
G1 X2.922 Y23.447
G1 X2.958 Y23.463
G1 X2.994 Y23.475
G1 X3.032 Y23.484
G1 X3.071 Y23.489
G1 X3.11 Y23.49
G1 X3.148 Y23.487
G1 X3.187 Y23.48
G1 X3.224 Y23.47
G1 X3.26 Y23.455
G1 X3.295 Y23.438
G1 X3.328 Y23.417
G1 X3.358 Y23.392
G1 X3.386 Y23.365
G1 X3.411 Y23.335
G1 X3.433 Y23.303
G1 X3.451 Y23.269
G1 X3.466 Y23.233
G1 X3.478 Y23.196
G1 X3.486 Y23.158
G1 X3.49 Y23.119
G1 Y23.081
G1 X3.486 Y23.042
G1 X3.478 Y23.004
G1 X3.466 Y22.967
G1 X3.451 Y22.931
G1 X3.433 Y22.897
G1 X3.411 Y22.865
G1 X3.386 Y22.835
G1 X3.358 Y22.808
G1 X3.328 Y22.783
G1 X3.295 Y22.762
G1 X3.26 Y22.745
G1 X3.224 Y22.73
G1 X3.187 Y22.72
G1 X3.148 Y22.713
G1 X3.11 Y22.71
G1 X3.071 Y22.711
G1 X3.032 Y22.716
G1 X2.994 Y22.725
G1 X2.958 Y22.737
G1 X2.922 Y22.753
G1 X2.888 Y22.772
G1 X2.857 Y22.795
G1 X2.828 Y22.821
G1 X2.801 Y22.849
G1 X2.778 Y22.88
G1 X2.757 Y22.913
G1 X2.741 Y22.949
G1 X2.727 Y22.985
G1 X2.718 Y23.023
G1 X2.712 Y23.061
G1 X2.71 Y23.1
G0 Z3.0
G0 X2.7 Y22.7
G0 Z1.2
G1 F30.0 Z-0.2
G1 F200.0 X3.5 Y23.5
G0 Z3.0
G0 Y22.5
G0 Z1.2
G1 F30.0 Z-0.2
G1 F200.0 X2.7 Y21.7
G0 Z3.0
G0 X2.71 Y22.1
G0 Z1.2
G1 F30.0 Z-0.2
G1 F200.0 X2.712 Y22.139
G1 X2.718 Y22.177
G1 X2.727 Y22.215
G1 X2.741 Y22.251
G1 X2.757 Y22.287
G1 X2.778 Y22.32
G1 X2.801 Y22.351
G1 X2.828 Y22.379
G1 X2.857 Y22.405
G1 X2.888 Y22.428
G1 X2.922 Y22.447
G1 X2.958 Y22.463
G1 X2.994 Y22.475
G1 X3.032 Y22.484
G1 X3.071 Y22.489
G1 X3.11 Y22.49
G1 X3.148 Y22.487
G1 X3.187 Y22.48
G1 X3.224 Y22.47
G1 X3.26 Y22.455
G1 X3.295 Y22.438
G1 X3.328 Y22.417
G1 X3.358 Y22.392
G1 X3.386 Y22.365
G1 X3.411 Y22.335
G1 X3.433 Y22.303
G1 X3.451 Y22.269
G1 X3.466 Y22.233
G1 X3.478 Y22.196
G1 X3.486 Y22.158
G1 X3.49 Y22.119
G1 Y22.081
G1 X3.486 Y22.042
G1 X3.478 Y22.004
G1 X3.466 Y21.967
G1 X3.451 Y21.931
G1 X3.433 Y21.897
G1 X3.411 Y21.865
G1 X3.386 Y21.835
G1 X3.358 Y21.808
G1 X3.328 Y21.783
G1 X3.295 Y21.762
G1 X3.26 Y21.745
G1 X3.224 Y21.73
G1 X3.187 Y21.72
G1 X3.148 Y21.713
G1 X3.11 Y21.71
G1 X3.071 Y21.711
G1 X3.032 Y21.716
G1 X2.994 Y21.725
G1 X2.958 Y21.737
G1 X2.922 Y21.753
G1 X2.888 Y21.772
G1 X2.857 Y21.795
G1 X2.828 Y21.821
G1 X2.801 Y21.849
G1 X2.778 Y21.88
G1 X2.757 Y21.913
G1 X2.741 Y21.949
G1 X2.727 Y21.985
G1 X2.718 Y22.023
G1 X2.712 Y22.061
G1 X2.71 Y22.1
G1 F30.0 X2.8
G1 F200.0 X3.4
G0 Z3.0
G0 X3.1
G0 Z1.2
G1 F30.0 Z-0.2
G1 F200.0 X5.6
G0 Z3.0
G0 X5.21
G0 Z1.2
G1 F30.0 Z-0.2
G1 F200.0 X5.212 Y22.139
G1 X5.218 Y22.177
G1 X5.227 Y22.215
G1 X5.241 Y22.251
G1 X5.257 Y22.287
G1 X5.278 Y22.32
G1 X5.301 Y22.351
G1 X5.328 Y22.379
G1 X5.357 Y22.405
G1 X5.388 Y22.428
G1 X5.422 Y22.447
G1 X5.458 Y22.463
G1 X5.494 Y22.475
G1 X5.532 Y22.484
G1 X5.571 Y22.489
G1 X5.61 Y22.49
G1 X5.648 Y22.487
G1 X5.687 Y22.48
G1 X5.724 Y22.47
G1 X5.76 Y22.455
G1 X5.795 Y22.438
G1 X5.828 Y22.417
G1 X5.858 Y22.392
G1 X5.886 Y22.365
G1 X5.911 Y22.335
G1 X5.933 Y22.303
G1 X5.951 Y22.269
G1 X5.966 Y22.233
G1 X5.978 Y22.196
G1 X5.986 Y22.158
G1 X5.99 Y22.119
G1 Y22.081
G1 X5.986 Y22.042
G1 X5.978 Y22.004
G1 X5.966 Y21.967
G1 X5.951 Y21.931
G1 X5.933 Y21.897
G1 X5.911 Y21.865
G1 X5.886 Y21.835
G1 X5.858 Y21.808
G1 X5.828 Y21.783
G1 X5.795 Y21.762
G1 X5.76 Y21.745
G1 X5.724 Y21.73
G1 X5.687 Y21.72
G1 X5.648 Y21.713
G1 X5.61 Y21.71
G1 X5.571 Y21.711
G1 X5.532 Y21.716
G1 X5.494 Y21.725
G1 X5.458 Y21.737
G1 X5.422 Y21.753
G1 X5.388 Y21.772
G1 X5.357 Y21.795
G1 X5.328 Y21.821
G1 X5.301 Y21.849
G1 X5.278 Y21.88
G1 X5.257 Y21.913
G1 X5.241 Y21.949
G1 X5.227 Y21.985
G1 X5.218 Y22.023
G1 X5.212 Y22.061
G1 X5.21 Y22.1
G0 Z3.0
G0 X5.2 Y21.7
G0 Z1.2
G1 F30.0 Z-0.2
G1 F200.0 X6.0 Y22.5
G0 Z3.0
G0 Y21.5
G0 Z1.2
G1 F30.0 Z-0.2
G1 F200.0 X5.2 Y20.7
G0 Z3.0
G0 X5.21 Y21.1
G0 Z1.2
G1 F30.0 Z-0.2
G1 F200.0 X5.212 Y21.139
G1 X5.218 Y21.177
G1 X5.227 Y21.215
G1 X5.241 Y21.251
G1 X5.257 Y21.287
